;FLAVOR:Marlin
;TIME:1022
;Filament used: 0.409155m
;Layer height: 0.15
;MINX:36
;MINY:36
;MINZ:0.3
;MAXX:64
;MAXY:64
;MAXZ:19.95
;TARGET_MACHINE.NAME:Unknown
;Generated with Cura_SteamEngine 5.10.2
M104 S200
M105
M109 S200
G21 ; set units to mm
G90 ; absolute positioning
M82 ; force absolute extrusion
M5  ; laser OFF safety
G0 X0 Y0 ; reset origin
M82 ;absolute extrusion mode
G92 E0
G92 E0
G1 F1500 E-6.5
;LAYER_COUNT:132
;LAYER:0
M107
G0 F3600 X37.289 Y37.081 Z0.3
;TYPE:SKIRT
G1 F1500 E0
G1 F1800 X37.786 Y36.686 E0.01194
G1 X38.279 Y36.405 E0.02262
G1 X38.929 Y36.16 E0.03568
G1 X39.486 Y36.046 E0.04638
G1 X40.24 Y36.001 E0.06059
G1 X59.351 Y36 E0.42007
G1 X60.083 Y36.012 E0.43385
G1 X60.743 Y36.083 E0.44633
G1 X61.293 Y36.229 E0.45704
G1 X61.867 Y36.479 E0.46881
G1 X62.348 Y36.781 E0.4795
G1 X62.92 Y37.289 E0.49389
G1 X63.31 Y37.782 E0.50571
G1 X63.62 Y38.333 E0.5176
G1 X63.839 Y38.925 E0.52948
G1 X63.954 Y39.482 E0.54018
G1 X63.999 Y40.24 E0.55446
G1 X64 Y59.32 E0.91336
G1 X63.988 Y60.081 E0.92768
G1 X63.917 Y60.741 E0.94017
G1 X63.75 Y61.349 E0.95203
G1 X63.489 Y61.925 E0.96392
G1 X63.141 Y62.451 E0.97579
G1 X62.715 Y62.917 E0.98766
G1 X62.273 Y63.272 E0.99833
G1 X61.674 Y63.618 E1.01134
G1 X61.142 Y63.82 E1.02204
G1 X60.482 Y63.96 E1.03474
G1 X60.038 Y63.997 E1.04312
G1 X40.649 Y64 E1.40783
G1 X39.917 Y63.988 E1.42161
G1 X39.257 Y63.917 E1.43409
G1 X38.707 Y63.771 E1.4448
G1 X38.133 Y63.521 E1.45657
G1 X37.652 Y63.219 E1.46726
G1 X37.08 Y62.711 E1.48165
G1 X36.69 Y62.218 E1.49347
G1 X36.38 Y61.667 E1.50536
G1 X36.162 Y61.079 E1.51716
G1 X36.047 Y60.524 E1.52782
G1 X36.001 Y59.745 E1.5425
G1 X36 Y40.614 E1.90237
G1 X36.012 Y39.914 E1.91553
G1 X36.084 Y39.255 E1.928
G1 X36.23 Y38.705 E1.93871
G1 X36.452 Y38.184 E1.94936
G1 X36.863 Y37.543 E1.96368
G1 X37.289 Y37.081 E1.97551
G0 F3600 X37.54 Y37.392
G1 F1800 X37.984 Y37.034 E1.98623
G1 X38.477 Y36.753 E1.99691
G1 X39.009 Y36.552 E2.00761
G1 X39.566 Y36.438 E2.0183
G1 X40.24 Y36.401 E2.031
G1 X59.345 Y36.4 E2.39037
G1 X60.043 Y36.41 E2.40351
G1 X60.64 Y36.47 E2.41479
G1 X61.19 Y36.616 E2.4255
G1 X61.654 Y36.818 E2.43501
G1 X62.135 Y37.12 E2.4457
G1 X62.608 Y37.539 E2.45758
G1 X62.963 Y37.981 E2.46825
G1 X63.246 Y38.475 E2.47896
G1 X63.447 Y39.006 E2.48964
G1 X63.562 Y39.563 E2.50034
G1 X63.599 Y40.24 E2.51309
G1 X63.6 Y59.314 E2.87188
G1 X63.59 Y60.041 E2.88556
G1 X63.53 Y60.638 E2.89685
G1 X63.384 Y61.187 E2.90753
G1 X63.153 Y61.707 E2.91823
G1 X62.844 Y62.183 E2.92891
G1 X62.462 Y62.607 E2.93965
G1 X62.071 Y62.927 E2.94915
G1 X61.528 Y63.245 E2.96099
G1 X61.057 Y63.429 E2.9705
G1 X60.449 Y63.561 E2.9822
G1 X60.005 Y63.598 E2.99058
G1 X40.655 Y63.6 E3.35457
G1 X39.957 Y63.59 E3.3677
G1 X39.36 Y63.53 E3.37898
G1 X38.81 Y63.384 E3.38969
G1 X38.346 Y63.182 E3.39921
G1 X37.865 Y62.88 E3.40989
G1 X37.392 Y62.461 E3.42178
G1 X37.037 Y62.019 E3.43244
G1 X36.754 Y61.525 E3.44315
G1 X36.553 Y60.994 E3.45383
G1 X36.446 Y60.5 E3.46334
G1 X36.401 Y59.745 E3.47757
G1 X36.4 Y40.62 E3.83732
G1 X36.41 Y39.955 E3.84983
G1 X36.471 Y39.358 E3.86112
G1 X36.617 Y38.808 E3.87182
G1 X36.819 Y38.344 E3.88134
G1 X37.159 Y37.812 E3.89322
G1 X37.54 Y37.392 E3.90388
G0 F3600 X37.794 Y37.701
G1 F1800 X38.185 Y37.38 E3.9134
G1 X38.622 Y37.126 E3.92291
G1 X39.093 Y36.943 E3.93241
G1 X39.588 Y36.837 E3.94193
G1 X40.24 Y36.801 E3.95422
G1 X59.339 Y36.8 E4.31348
G1 X60.037 Y36.81 E4.32661
G1 X60.54 Y36.857 E4.33611
G1 X61.03 Y36.983 E4.34563
G1 X61.494 Y37.185 E4.35515
G1 X61.92 Y37.457 E4.36466
G1 X62.298 Y37.792 E4.37416
G1 X62.618 Y38.183 E4.38366
G1 X62.873 Y38.62 E4.39318
G1 X63.056 Y39.091 E4.40268
G1 X63.163 Y39.585 E4.41219
G1 X63.199 Y40.24 E4.42453
G1 X63.2 Y59.308 E4.78321
G1 X63.19 Y60.035 E4.79689
G1 X63.143 Y60.538 E4.80639
G1 X63.017 Y61.028 E4.81591
G1 X62.816 Y61.492 E4.82542
G1 X62.544 Y61.918 E4.83493
G1 X62.209 Y62.297 E4.84444
G1 X61.818 Y62.617 E4.85395
G1 X61.382 Y62.872 E4.86345
G1 X60.911 Y63.056 E4.87296
G1 X60.416 Y63.162 E4.88248
G1 X59.972 Y63.199 E4.89086
G1 X40.661 Y63.2 E5.25411
G1 X39.963 Y63.19 E5.26724
G1 X39.46 Y63.143 E5.27675
G1 X38.97 Y63.017 E5.28626
G1 X38.506 Y62.815 E5.29578
G1 X38.08 Y62.543 E5.30529
G1 X37.702 Y62.208 E5.31479
G1 X37.382 Y61.817 E5.3243
G1 X37.127 Y61.38 E5.33381
G1 X36.944 Y60.909 E5.34332
G1 X36.837 Y60.415 E5.35283
G1 X36.801 Y59.745 E5.36545
G1 X36.8 Y40.626 E5.72509
G1 X36.81 Y39.961 E5.7376
G1 X36.858 Y39.458 E5.7471
G1 X36.984 Y38.968 E5.75662
G1 X37.186 Y38.504 E5.76614
G1 X37.458 Y38.078 E5.77565
G1 X37.794 Y37.701 E5.78515
G1 F1500 E-0.71485
;MESH:20mm cube.stl
G0 F3600 X40.424 Y39.335
G0 X40.424 Y40.424
G0 X59.09 Y59.12
G0 X59.4 Y59.4
;TYPE:WALL-INNER
G1 F1500 E5.78515
G1 F1800 X59.4 Y40.6 E6.13878
G1 X40.6 Y40.6 E6.49242
G1 X40.6 Y59.4 E6.84606
G1 X59.4 Y59.4 E7.1997
G0 F3600 X59.8 Y59.8
;TYPE:WALL-OUTER
G1 F1800 X59.8 Y40.2 E7.56839
G1 X40.2 Y40.2 E7.93707
G1 X40.2 Y59.8 E8.30576
G1 X59.8 Y59.8 E8.67445
G0 F3600 X59.8 Y59.6
G0 X59.02 Y59.02
;TYPE:SKIN
G1 F1800 X40.98 Y59.02 E9.01379
G1 X40.98 Y40.98 E9.35313
G1 X59.02 Y40.98 E9.69247
G1 X59.02 Y59.02 E10.03182
G0 F3600 X58.717 Y41.18
G1 F1800 X58.82 Y41.284 E10.03457
G0 F3600 X58.82 Y41.849
G1 F1800 X58.151 Y41.18 E10.05237
G0 F3600 X57.585 Y41.18
G1 F1800 X58.82 Y42.415 E10.08522
G0 F3600 X58.82 Y42.981
G1 F1800 X57.02 Y41.18 E10.13312
G0 F3600 X56.454 Y41.18
G1 F1800 X58.82 Y43.546 E10.19606
G0 F3600 X58.82 Y44.112
G1 F1800 X55.888 Y41.18 E10.27406
G0 F3600 X55.323 Y41.18
G1 F1800 X58.82 Y44.678 E10.3671
G0 F3600 X58.82 Y45.244
G1 F1800 X54.757 Y41.18 E10.47519
G0 F3600 X54.191 Y41.18
G1 F1800 X58.82 Y45.809 E10.59834
G0 F3600 X58.82 Y46.375
G1 F1800 X53.626 Y41.18 E10.73652
G0 F3600 X53.06 Y41.18
G1 F1800 X58.82 Y46.941 E10.88976
G0 F3600 X58.82 Y47.506
G1 F1800 X52.494 Y41.18 E11.05805
G0 F3600 X51.929 Y41.18
G1 F1800 X58.82 Y48.072 E11.24138
G0 F3600 X58.82 Y48.638
G1 F1800 X51.363 Y41.18 E11.43976
G0 F3600 X50.797 Y41.18
G1 F1800 X58.82 Y49.203 E11.65319
G0 F3600 X58.82 Y49.769
G1 F1800 X50.231 Y41.18 E11.88168
G0 F3600 X49.666 Y41.18
G1 F1800 X58.82 Y50.335 E12.12521
G0 F3600 X58.82 Y50.9
G1 F1800 X49.1 Y41.18 E12.38378
G0 F3600 X48.534 Y41.18
G1 F1800 X58.82 Y51.466 E12.65741
G0 F3600 X58.82 Y52.032
G1 F1800 X47.969 Y41.18 E12.94608
G0 F3600 X47.403 Y41.18
G1 F1800 X58.82 Y52.597 E13.2498
G0 F3600 X58.82 Y53.163
G1 F1800 X46.837 Y41.18 E13.56857
G0 F3600 X46.272 Y41.18
G1 F1800 X58.82 Y53.729 E13.90239
G0 F3600 X58.82 Y54.294
G1 F1800 X45.706 Y41.18 E14.25125
G0 F3600 X45.14 Y41.18
G1 F1800 X58.82 Y54.86 E14.61517
G0 F3600 X58.82 Y55.426
G1 F1800 X44.575 Y41.18 E14.99413
G0 F3600 X44.009 Y41.18
G1 F1800 X58.82 Y55.992 E15.38814
G0 F3600 X58.82 Y56.557
G1 F1800 X43.443 Y41.18 E15.79721
G0 F3600 X42.878 Y41.18
G1 F1800 X58.82 Y57.123 E16.22131
G0 F3600 X58.82 Y57.689
G1 F1800 X42.312 Y41.18 E16.66047
G0 F3600 X41.746 Y41.18
G1 F1800 X58.82 Y58.254 E17.11468
G0 F3600 X58.82 Y58.82
G1 F1800 X41.18 Y41.18 E17.58394
G0 F3600 X41.18 Y41.745
G1 F1800 X58.254 Y58.82 E18.03816
G0 F3600 X57.689 Y58.82
G1 F1800 X41.18 Y42.311 E18.47733
G0 F3600 X41.18 Y42.877
G1 F1800 X57.123 Y58.82 E18.90145
G0 F3600 X56.557 Y58.82
G1 F1800 X41.18 Y43.443 E19.31051
G0 F3600 X41.18 Y44.008
G1 F1800 X55.992 Y58.82 E19.70454
G0 F3600 X55.426 Y58.82
G1 F1800 X41.18 Y44.574 E20.08352
G0 F3600 X41.18 Y45.14
G1 F1800 X54.86 Y58.82 E20.44743
G0 F3600 X54.294 Y58.82
G1 F1800 X41.18 Y45.705 E20.79631
G0 F3600 X41.18 Y46.271
G1 F1800 X53.729 Y58.82 E21.13014
G0 F3600 X53.163 Y58.82
G1 F1800 X41.18 Y46.837 E21.44891
G0 F3600 X41.18 Y47.402
G1 F1800 X52.597 Y58.82 E21.75264
G0 F3600 X52.032 Y58.82
G1 F1800 X41.18 Y47.968 E22.04133
G0 F3600 X41.18 Y48.534
G1 F1800 X51.466 Y58.82 E22.31496
G0 F3600 X50.9 Y58.82
G1 F1800 X41.18 Y49.099 E22.57354
G0 F3600 X41.18 Y49.665
G1 F1800 X50.335 Y58.82 E22.81709
G0 F3600 X49.769 Y58.82
G1 F1800 X41.18 Y50.231 E23.04557
G0 F3600 X41.18 Y50.796
G1 F1800 X49.203 Y58.82 E23.25901
G0 F3600 X48.638 Y58.82
G1 F1800 X41.18 Y51.362 E23.45741
G0 F3600 X41.18 Y51.928
G1 F1800 X48.072 Y58.82 E23.64076
G0 F3600 X47.506 Y58.82
G1 F1800 X41.18 Y52.493 E23.80905
G0 F3600 X41.18 Y53.059
G1 F1800 X46.941 Y58.82 E23.96231
G0 F3600 X46.375 Y58.82
G1 F1800 X41.18 Y53.625 E24.10051
G0 F3600 X41.18 Y54.191
G1 F1800 X45.809 Y58.82 E24.22365
G0 F3600 X45.244 Y58.82
G1 F1800 X41.18 Y54.756 E24.33176
G0 F3600 X41.18 Y55.322
G1 F1800 X44.678 Y58.82 E24.42481
G0 F3600 X44.112 Y58.82
G1 F1800 X41.18 Y55.888 E24.50281
G0 F3600 X41.18 Y56.453
G1 F1800 X43.546 Y58.82 E24.56576
G0 F3600 X42.981 Y58.82
G1 F1800 X41.18 Y57.019 E24.61368
G0 F3600 X41.18 Y57.585
G1 F1800 X42.415 Y58.82 E24.64653
G0 F3600 X41.849 Y58.82
G1 F1800 X41.18 Y58.15 E24.66434
G0 F3600 X41.18 Y58.716
G1 F1800 X41.284 Y58.82 E24.66711
G0 F3600 X41.284 Y58.79
G1 F1500 E18.16711
;MESH:NONMESH
G0 F600 X41.284 Y58.79 Z0.45
G0 F3600 X40.424 Y40.424
G0 X40.424 Y39.335
G0 X37.794 Y37.701
;TIME_ELAPSED:49.977961
;LAYER:1
M106 S255
;TYPE:SKIRT
G1 F1500 E24.66711
G1 F1800 X38.185 Y37.38 E24.67186
G1 X38.622 Y37.126 E24.67662
G1 X39.093 Y36.943 E24.68137
G1 X39.588 Y36.837 E24.68613
G1 X40.24 Y36.801 E24.69227
G1 X59.339 Y36.8 E24.8719
G1 X60.037 Y36.81 E24.87847
G1 X60.54 Y36.857 E24.88322
G1 X61.03 Y36.983 E24.88798
G1 X61.494 Y37.185 E24.89274
G1 X61.92 Y37.457 E24.89749
G1 X62.298 Y37.792 E24.90224
G1 X62.618 Y38.183 E24.907
G1 X62.873 Y38.62 E24.91175
G1 X63.056 Y39.091 E24.91651
G1 X63.163 Y39.585 E24.92126
G1 X63.199 Y40.24 E24.92743
G1 X63.2 Y59.308 E25.10677
G1 X63.19 Y60.035 E25.11361
G1 X63.143 Y60.538 E25.11836
G1 X63.017 Y61.028 E25.12312
G1 X62.816 Y61.492 E25.12787
G1 X62.544 Y61.918 E25.13263
G1 X62.209 Y62.297 E25.13739
G1 X61.818 Y62.617 E25.14214
G1 X61.382 Y62.872 E25.14689
G1 X60.911 Y63.056 E25.15164
G1 X60.416 Y63.162 E25.15641
G1 X59.972 Y63.199 E25.1606
G1 X40.661 Y63.2 E25.34222
G1 X39.963 Y63.19 E25.34879
G1 X39.46 Y63.143 E25.35354
G1 X38.97 Y63.017 E25.3583
G1 X38.506 Y62.815 E25.36306
G1 X38.08 Y62.543 E25.36781
G1 X37.702 Y62.208 E25.37256
G1 X37.382 Y61.817 E25.37731
G1 X37.127 Y61.38 E25.38207
G1 X36.944 Y60.909 E25.38682
G1 X36.837 Y60.415 E25.39158
G1 X36.801 Y59.745 E25.39789
G1 X36.8 Y40.626 E25.57771
G1 X36.81 Y39.961 E25.58396
G1 X36.858 Y39.458 E25.58872
G1 X36.984 Y38.968 E25.59347
G1 X37.186 Y38.504 E25.59823
G1 X37.458 Y38.078 E25.60299
G1 X37.794 Y37.701 E25.60774
G1 F1500 E19.10774
;MESH:20mm cube.stl
G0 F5400 X40.424 Y39.335
G0 X40.424 Y40.424
G0 X59.09 Y59.12
G0 X59.4 Y59.4
;TYPE:WALL-INNER
G1 F1500 E25.60774
G1 F3300 X59.4 Y40.6 E25.78456
G1 X40.6 Y40.6 E25.96138
G1 X40.6 Y59.4 E26.13819
G1 X59.4 Y59.4 E26.31501
G0 F5400 X59.8 Y59.8
;TYPE:WALL-OUTER
G1 F2100 X59.8 Y40.2 E26.49936
G1 X40.2 Y40.2 E26.6837
G1 X40.2 Y59.8 E26.86804
G1 X59.8 Y59.8 E27.05239
G0 F5400 X59.8 Y59.6
G0 X59.02 Y59.02
;TYPE:SKIN
G1 F1800 X40.98 Y59.02 E27.22206
G1 X40.98 Y40.98 E27.39173
G1 X59.02 Y40.98 E27.5614
G1 X59.02 Y59.02 E27.73107
G0 F5400 X58.277 Y58.82
G1 F1800 X58.82 Y58.277 E27.7383
G0 F5400 X58.82 Y57.711
G1 F1800 X57.711 Y58.82 E27.75305
G0 F5400 X57.146 Y58.82
G1 F1800 X58.82 Y57.146 E27.77531
G0 F5400 X58.82 Y56.58
G1 F1800 X56.58 Y58.82 E27.80511
G0 F5400 X56.014 Y58.82
G1 F1800 X58.82 Y56.014 E27.84243
G0 F5400 X58.82 Y55.448
G1 F1800 X55.448 Y58.82 E27.88728
G0 F5400 X54.883 Y58.82
G1 F1800 X58.82 Y54.883 E27.93965
G0 F5400 X58.82 Y54.317
G1 F1800 X54.317 Y58.82 E27.99954
G0 F5400 X53.751 Y58.82
G1 F1800 X58.82 Y53.751 E28.06696
G0 F5400 X58.82 Y53.186
G1 F1800 X53.186 Y58.82 E28.1419
G0 F5400 X52.62 Y58.82
G1 F1800 X58.82 Y52.62 E28.22437
G0 F5400 X58.82 Y52.054
G1 F1800 X52.054 Y58.82 E28.31436
G0 F5400 X51.489 Y58.82
G1 F1800 X58.82 Y51.489 E28.41187
G0 F5400 X58.82 Y50.923
G1 F1800 X50.923 Y58.82 E28.51691
G0 F5400 X50.357 Y58.82
G1 F1800 X58.82 Y50.357 E28.62948
G0 F5400 X58.82 Y49.792
G1 F1800 X49.792 Y58.82 E28.74956
G0 F5400 X49.226 Y58.82
G1 F1800 X58.82 Y49.226 E28.87717
G0 F5400 X58.82 Y48.66
G1 F1800 X48.66 Y58.82 E29.01231
G0 F5400 X48.095 Y58.82
G1 F1800 X58.82 Y48.095 E29.15497
G0 F5400 X58.82 Y47.529
G1 F1800 X47.529 Y58.82 E29.30515
G0 F5400 X46.963 Y58.82
G1 F1800 X58.82 Y46.963 E29.46286
G0 F5400 X58.82 Y46.398
G1 F1800 X46.398 Y58.82 E29.62809
G0 F5400 X45.832 Y58.82
G1 F1800 X58.82 Y45.832 E29.80084
G0 F5400 X58.82 Y45.266
G1 F1800 X45.266 Y58.82 E29.98112
G0 F5400 X44.7 Y58.82
G1 F1800 X58.82 Y44.7 E30.16893
G0 F5400 X58.82 Y44.135
G1 F1800 X44.135 Y58.82 E30.36426
G0 F5400 X43.569 Y58.82
G1 F1800 X58.82 Y43.569 E30.56711
G0 F5400 X58.82 Y43.003
G1 F1800 X43.003 Y58.82 E30.7775
G0 F5400 X42.438 Y58.82
G1 F1800 X58.82 Y42.438 E30.9954
G0 F5400 X58.82 Y41.872
G1 F1800 X41.872 Y58.82 E31.22082
G0 F5400 X41.306 Y58.82
G1 F1800 X58.82 Y41.306 E31.45378
G0 F5400 X58.381 Y41.18
G1 F1800 X41.18 Y58.38 E31.68256
G0 F5400 X41.18 Y57.814
G1 F1800 X57.815 Y41.18 E31.90382
G0 F5400 X57.249 Y41.18
G1 F1800 X41.18 Y57.249 E32.11755
G0 F5400 X41.18 Y56.683
G1 F1800 X56.684 Y41.18 E32.32377
G0 F5400 X56.118 Y41.18
G1 F1800 X41.18 Y56.117 E32.52245
G0 F5400 X41.18 Y55.552
G1 F1800 X55.552 Y41.18 E32.71361
G0 F5400 X54.987 Y41.18
G1 F1800 X41.18 Y54.986 E32.89726
G0 F5400 X41.18 Y54.42
G1 F1800 X54.421 Y41.18 E33.07337
G0 F5400 X53.855 Y41.18
G1 F1800 X41.18 Y53.855 E33.24196
G0 F5400 X41.18 Y53.289
G1 F1800 X53.29 Y41.18 E33.40303
G0 F5400 X52.724 Y41.18
G1 F1800 X41.18 Y52.723 E33.55657
G0 F5400 X41.18 Y52.158
G1 F1800 X52.158 Y41.18 E33.70259
G0 F5400 X51.593 Y41.18
G1 F1800 X41.18 Y51.592 E33.84109
G0 F5400 X41.18 Y51.026
G1 F1800 X51.027 Y41.18 E33.97206
G0 F5400 X50.461 Y41.18
G1 F1800 X41.18 Y50.461 E34.0955
G0 F5400 X41.18 Y49.895
G1 F1800 X49.896 Y41.18 E34.21143
G0 F5400 X49.33 Y41.18
G1 F1800 X41.18 Y49.329 E34.31983
G0 F5400 X41.18 Y48.763
G1 F1800 X48.764 Y41.18 E34.42069
G0 F5400 X48.199 Y41.18
G1 F1800 X41.18 Y48.198 E34.51405
G0 F5400 X41.18 Y47.632
G1 F1800 X47.633 Y41.18 E34.59987
G0 F5400 X47.067 Y41.18
G1 F1800 X41.18 Y47.066 E34.67817
G0 F5400 X41.18 Y46.501
G1 F1800 X46.501 Y41.18 E34.74894
G0 F5400 X45.936 Y41.18
G1 F1800 X41.18 Y45.935 E34.8122
G0 F5400 X41.18 Y45.369
G1 F1800 X45.37 Y41.18 E34.86792
G0 F5400 X44.804 Y41.18
G1 F1800 X41.18 Y44.804 E34.91613
G0 F5400 X41.18 Y44.238
G1 F1800 X44.239 Y41.18 E34.95681
G0 F5400 X43.673 Y41.18
G1 F1800 X41.18 Y43.672 E34.98996
G0 F5400 X41.18 Y43.107
G1 F1800 X43.107 Y41.18 E35.01559
G0 F5400 X42.542 Y41.18
G1 F1800 X41.18 Y42.541 E35.0337
G0 F5400 X41.18 Y41.975
G1 F1800 X41.976 Y41.18 E35.04428
G0 F5400 X41.41 Y41.18
G1 F1800 X41.18 Y41.41 E35.04734
G0 F5400 X41.21 Y41.41
G1 F1500 E28.54734
;MESH:NONMESH
G0 F600 X41.21 Y41.41 Z0.6
G0 F5400 X40.424 Y40.424
G0 X40.424 Y39.335
G0 X37.794 Y37.701
;TIME_ELAPSED:88.259214
;LAYER:2
;TYPE:SKIRT
G1 F1500 E35.04734
G1 F1800 X38.185 Y37.38 E35.0521
G1 X38.622 Y37.126 E35.05685
G1 X39.093 Y36.943 E35.06161
G1 X39.588 Y36.837 E35.06637
G1 X40.24 Y36.801 E35.07251
G1 X59.339 Y36.8 E35.25214
G1 X60.037 Y36.81 E35.25871
G1 X60.54 Y36.857 E35.26346
G1 X61.03 Y36.983 E35.26821
G1 X61.494 Y37.185 E35.27297
G1 X61.92 Y37.457 E35.27773
G1 X62.298 Y37.792 E35.28248
G1 X62.618 Y38.183 E35.28723
G1 X62.873 Y38.62 E35.29199
G1 X63.056 Y39.091 E35.29674
G1 X63.163 Y39.585 E35.3015
G1 X63.199 Y40.24 E35.30767
G1 X63.2 Y59.308 E35.48701
G1 X63.19 Y60.035 E35.49384
G1 X63.143 Y60.538 E35.4986
G1 X63.017 Y61.028 E35.50335
G1 X62.816 Y61.492 E35.50811
G1 X62.544 Y61.918 E35.51286
G1 X62.209 Y62.297 E35.51762
G1 X61.818 Y62.617 E35.52237
G1 X61.382 Y62.872 E35.52712
G1 X60.911 Y63.056 E35.53188
G1 X60.416 Y63.162 E35.53664
G1 X59.972 Y63.199 E35.54083
G1 X40.661 Y63.2 E35.72246
G1 X39.963 Y63.19 E35.72902
G1 X39.46 Y63.143 E35.73377
G1 X38.97 Y63.017 E35.73853
G1 X38.506 Y62.815 E35.74329
G1 X38.08 Y62.543 E35.74805
G1 X37.702 Y62.208 E35.7528
G1 X37.382 Y61.817 E35.75755
G1 X37.127 Y61.38 E35.76231
G1 X36.944 Y60.909 E35.76706
G1 X36.837 Y60.415 E35.77181
G1 X36.801 Y59.745 E35.77812
G1 X36.8 Y40.626 E35.95794
G1 X36.81 Y39.961 E35.9642
G1 X36.858 Y39.458 E35.96895
G1 X36.984 Y38.968 E35.97371
G1 X37.186 Y38.504 E35.97847
G1 X37.458 Y38.078 E35.98322
G1 X37.794 Y37.701 E35.98797
G1 F1500 E29.48797
;MESH:20mm cube.stl
G0 F7200 X40.424 Y39.335
G0 X40.424 Y40.424
G0 X59.09 Y59.12
G0 X59.4 Y59.4
;TYPE:WALL-INNER
G1 F1500 E35.98797
G1 F4800 X59.4 Y40.6 E36.16479
G1 X40.6 Y40.6 E36.34161
G1 X40.6 Y59.4 E36.51843
G1 X59.4 Y59.4 E36.69525
G0 F7200 X59.8 Y59.8
;TYPE:WALL-OUTER
G1 F2400 X59.8 Y40.2 E36.87959
G1 X40.2 Y40.2 E37.06394
G1 X40.2 Y59.8 E37.24828
G1 X59.8 Y59.8 E37.43262
G0 F7200 X59.8 Y59.6
G0 X59.02 Y59.02
;TYPE:SKIN
G1 F1800 X40.98 Y59.02 E37.60229
G1 X40.98 Y40.98 E37.77197
G1 X59.02 Y40.98 E37.94164
G1 X59.02 Y59.02 E38.11131
G0 F7200 X58.717 Y41.18
G1 F1800 X58.82 Y41.284 E38.11268
G0 F7200 X58.82 Y41.849
G1 F1800 X58.151 Y41.18 E38.12158
G0 F7200 X57.585 Y41.18
G1 F1800 X58.82 Y42.415 E38.13801
G0 F7200 X58.82 Y42.981
G1 F1800 X57.02 Y41.18 E38.16196
G0 F7200 X56.454 Y41.18
G1 F1800 X58.82 Y43.546 E38.19343
G0 F7200 X58.82 Y44.112
G1 F1800 X55.888 Y41.18 E38.23243
G0 F7200 X55.323 Y41.18
G1 F1800 X58.82 Y44.678 E38.27895
G0 F7200 X58.82 Y45.244
G1 F1800 X54.757 Y41.18 E38.333
G0 F7200 X54.191 Y41.18
G1 F1800 X58.82 Y45.809 E38.39457
G0 F7200 X58.82 Y46.375
G1 F1800 X53.626 Y41.18 E38.46366
G0 F7200 X53.06 Y41.18
G1 F1800 X58.82 Y46.941 E38.54028
G0 F7200 X58.82 Y47.506
G1 F1800 X52.494 Y41.18 E38.62442
G0 F7200 X51.929 Y41.18
G1 F1800 X58.82 Y48.072 E38.71609
G0 F7200 X58.82 Y48.638
G1 F1800 X51.363 Y41.18 E38.81528
G0 F7200 X50.797 Y41.18
G1 F1800 X58.82 Y49.203 E38.92199
G0 F7200 X58.82 Y49.769
G1 F1800 X50.231 Y41.18 E39.03624
G0 F7200 X49.666 Y41.18
G1 F1800 X58.82 Y50.335 E39.158
G0 F7200 X58.82 Y50.9
G1 F1800 X49.1 Y41.18 E39.28729
G0 F7200 X48.534 Y41.18
G1 F1800 X58.82 Y51.466 E39.4241
G0 F7200 X58.82 Y52.032
G1 F1800 X47.969 Y41.18 E39.56844
G0 F7200 X47.403 Y41.18
G1 F1800 X58.82 Y52.597 E39.7203
G0 F7200 X58.82 Y53.163
G1 F1800 X46.837 Y41.18 E39.87969
G0 F7200 X46.272 Y41.18
G1 F1800 X58.82 Y53.729 E40.04659
G0 F7200 X58.82 Y54.294
G1 F1800 X45.706 Y41.18 E40.22102
G0 F7200 X45.14 Y41.18
G1 F1800 X58.82 Y54.86 E40.40298
G0 F7200 X58.82 Y55.426
G1 F1800 X44.575 Y41.18 E40.59246
G0 F7200 X44.009 Y41.18
G1 F1800 X58.82 Y55.992 E40.78947
G0 F7200 X58.82 Y56.557
G1 F1800 X43.443 Y41.18 E40.994
G0 F7200 X42.878 Y41.18
G1 F1800 X58.82 Y57.123 E41.20606
G0 F7200 X58.82 Y57.689
G1 F1800 X42.312 Y41.18 E41.42564
G0 F7200 X41.746 Y41.18
G1 F1800 X58.82 Y58.254 E41.65274
G0 F7200 X58.82 Y58.82
G1 F1800 X41.18 Y41.18 E41.88737
G0 F7200 X41.18 Y41.745
G1 F1800 X58.254 Y58.82 E42.11448
G0 F7200 X57.689 Y58.82
G1 F1800 X41.18 Y42.311 E42.33407
G0 F7200 X41.18 Y42.877
G1 F1800 X57.123 Y58.82 E42.54612
G0 F7200 X56.557 Y58.82
G1 F1800 X41.18 Y43.443 E42.75066
G0 F7200 X41.18 Y44.008
G1 F1800 X55.992 Y58.82 E42.94767
G0 F7200 X55.426 Y58.82
G1 F1800 X41.18 Y44.574 E43.13716
G0 F7200 X41.18 Y45.14
G1 F1800 X54.86 Y58.82 E43.31912
G0 F7200 X54.294 Y58.82
G1 F1800 X41.18 Y45.705 E43.49355
G0 F7200 X41.18 Y46.271
G1 F1800 X53.729 Y58.82 E43.66047
G0 F7200 X53.163 Y58.82
G1 F1800 X41.18 Y46.837 E43.81986
G0 F7200 X41.18 Y47.402
G1 F1800 X52.597 Y58.82 E43.97172
G0 F7200 X52.032 Y58.82
G1 F1800 X41.18 Y47.968 E44.11606
G0 F7200 X41.18 Y48.534
G1 F1800 X51.466 Y58.82 E44.25288
G0 F7200 X50.9 Y58.82
G1 F1800 X41.18 Y49.099 E44.38217
G0 F7200 X41.18 Y49.665
G1 F1800 X50.335 Y58.82 E44.50394
G0 F7200 X49.769 Y58.82
G1 F1800 X41.18 Y50.231 E44.61819
G0 F7200 X41.18 Y50.796
G1 F1800 X49.203 Y58.82 E44.72491
G0 F7200 X48.638 Y58.82
G1 F1800 X41.18 Y51.362 E44.82411
G0 F7200 X41.18 Y51.928
G1 F1800 X48.072 Y58.82 E44.91578
G0 F7200 X47.506 Y58.82
G1 F1800 X41.18 Y52.493 E44.99993
G0 F7200 X41.18 Y53.059
G1 F1800 X46.941 Y58.82 E45.07655
G0 F7200 X46.375 Y58.82
G1 F1800 X41.18 Y53.625 E45.14565
G0 F7200 X41.18 Y54.191
G1 F1800 X45.809 Y58.82 E45.20722
G0 F7200 X45.244 Y58.82
G1 F1800 X41.18 Y54.756 E45.26128
G0 F7200 X41.18 Y55.322
G1 F1800 X44.678 Y58.82 E45.30781
G0 F7200 X44.112 Y58.82
G1 F1800 X41.18 Y55.888 E45.34681
G0 F7200 X41.18 Y56.453
G1 F1800 X43.546 Y58.82 E45.37828
G0 F7200 X42.981 Y58.82
G1 F1800 X41.18 Y57.019 E45.40224
G0 F7200 X41.18 Y57.585
G1 F1800 X42.415 Y58.82 E45.41866
G0 F7200 X41.849 Y58.82
G1 F1800 X41.18 Y58.15 E45.42757
G0 F7200 X41.18 Y58.716
G1 F1800 X41.284 Y58.82 E45.42895
G0 F7200 X41.284 Y58.79
;MESH:NONMESH
G0 F600 X41.284 Y58.79 Z0.75
G0 F7200 X59.12 Y59.12
G0 X59.4 Y59.4
;TIME_ELAPSED:125.832108
;LAYER:3
;TYPE:WALL-INNER
;MESH:20mm cube.stl
G1 F4800 X59.4 Y40.6 E45.60577
G1 X40.6 Y40.6 E45.78259
G1 X40.6 Y59.4 E45.95941
G1 X59.4 Y59.4 E46.13623
G0 F7200 X59.8 Y59.8
;TYPE:WALL-OUTER
G1 F2400 X59.8 Y40.2 E46.32057
G1 X40.2 Y40.2 E46.50492
G1 X40.2 Y59.8 E46.68926
G1 X59.8 Y59.8 E46.8736
G0 F7200 X59.8 Y59.6
G0 X59.02 Y59.02
;TYPE:SKIN
G1 F1800 X40.98 Y59.02 E47.04327
G1 X40.98 Y40.98 E47.21295
G1 X59.02 Y40.98 E47.38262
G1 X59.02 Y59.02 E47.55229
G0 F7200 X58.277 Y58.82
G1 F1800 X58.82 Y58.277 E47.55951
G0 F7200 X58.82 Y57.711
G1 F1800 X57.711 Y58.82 E47.57426
G0 F7200 X57.146 Y58.82
G1 F1800 X58.82 Y57.146 E47.59653
G0 F7200 X58.82 Y56.58
G1 F1800 X56.58 Y58.82 E47.62632
G0 F7200 X56.014 Y58.82
G1 F1800 X58.82 Y56.014 E47.66364
G0 F7200 X58.82 Y55.448
G1 F1800 X55.448 Y58.82 E47.7085
G0 F7200 X54.883 Y58.82
G1 F1800 X58.82 Y54.883 E47.76086
G0 F7200 X58.82 Y54.317
G1 F1800 X54.317 Y58.82 E47.82076
G0 F7200 X53.751 Y58.82
G1 F1800 X58.82 Y53.751 E47.88818
G0 F7200 X58.82 Y53.186
G1 F1800 X53.186 Y58.82 E47.96312
G0 F7200 X52.62 Y58.82
G1 F1800 X58.82 Y52.62 E48.04559
G0 F7200 X58.82 Y52.054
G1 F1800 X52.054 Y58.82 E48.13558
G0 F7200 X51.489 Y58.82
G1 F1800 X58.82 Y51.489 E48.23309
G0 F7200 X58.82 Y50.923
G1 F1800 X50.923 Y58.82 E48.33813
G0 F7200 X50.357 Y58.82
G1 F1800 X58.82 Y50.357 E48.4507
G0 F7200 X58.82 Y49.792
G1 F1800 X49.792 Y58.82 E48.57078
G0 F7200 X49.226 Y58.82
G1 F1800 X58.82 Y49.226 E48.69839
G0 F7200 X58.82 Y48.66
G1 F1800 X48.66 Y58.82 E48.83353
G0 F7200 X48.095 Y58.82
G1 F1800 X58.82 Y48.095 E48.97618
G0 F7200 X58.82 Y47.529
G1 F1800 X47.529 Y58.82 E49.12636
G0 F7200 X46.963 Y58.82
G1 F1800 X58.82 Y46.963 E49.28407
G0 F7200 X58.82 Y46.398
G1 F1800 X46.398 Y58.82 E49.4493
G0 F7200 X45.832 Y58.82
G1 F1800 X58.82 Y45.832 E49.62205
G0 F7200 X58.82 Y45.266
G1 F1800 X45.266 Y58.82 E49.80234
G0 F7200 X44.7 Y58.82
G1 F1800 X58.82 Y44.7 E49.99015
G0 F7200 X58.82 Y44.135
G1 F1800 X44.135 Y58.82 E50.18547
G0 F7200 X43.569 Y58.82
G1 F1800 X58.82 Y43.569 E50.38833
G0 F7200 X58.82 Y43.003
G1 F1800 X43.003 Y58.82 E50.59871
G0 F7200 X42.438 Y58.82
G1 F1800 X58.82 Y42.438 E50.81661
G0 F7200 X58.82 Y41.872
G1 F1800 X41.872 Y58.82 E51.04204
G0 F7200 X41.306 Y58.82
G1 F1800 X58.82 Y41.306 E51.27499
G0 F7200 X58.381 Y41.18
G1 F1800 X41.18 Y58.38 E51.50378
G0 F7200 X41.18 Y57.814
G1 F1800 X57.815 Y41.18 E51.72503
G0 F7200 X57.249 Y41.18
G1 F1800 X41.18 Y57.249 E51.93877
G0 F7200 X41.18 Y56.683
G1 F1800 X56.684 Y41.18 E52.14498
G0 F7200 X56.118 Y41.18
G1 F1800 X41.18 Y56.117 E52.34367
G0 F7200 X41.18 Y55.552
G1 F1800 X55.552 Y41.18 E52.53483
G0 F7200 X54.987 Y41.18
G1 F1800 X41.18 Y54.986 E52.71847
G0 F7200 X41.18 Y54.42
G1 F1800 X54.421 Y41.18 E52.89458
G0 F7200 X53.855 Y41.18
G1 F1800 X41.18 Y53.855 E53.06318
G0 F7200 X41.18 Y53.289
G1 F1800 X53.29 Y41.18 E53.22424
G0 F7200 X52.724 Y41.18
G1 F1800 X41.18 Y52.723 E53.37779
G0 F7200 X41.18 Y52.158
G1 F1800 X52.158 Y41.18 E53.5238
G0 F7200 X51.593 Y41.18
G1 F1800 X41.18 Y51.592 E53.6623
G0 F7200 X41.18 Y51.026
G1 F1800 X51.027 Y41.18 E53.79327
G0 F7200 X50.461 Y41.18
G1 F1800 X41.18 Y50.461 E53.91672
G0 F7200 X41.18 Y49.895
G1 F1800 X49.896 Y41.18 E54.03264
G0 F7200 X49.33 Y41.18
G1 F1800 X41.18 Y49.329 E54.14104
G0 F7200 X41.18 Y48.763
G1 F1800 X48.764 Y41.18 E54.24191
G0 F7200 X48.199 Y41.18
G1 F1800 X41.18 Y48.198 E54.33526
G0 F7200 X41.18 Y47.632
G1 F1800 X47.633 Y41.18 E54.42109
G0 F7200 X47.067 Y41.18
G1 F1800 X41.18 Y47.066 E54.49938
G0 F7200 X41.18 Y46.501
G1 F1800 X46.501 Y41.18 E54.57016
G0 F7200 X45.936 Y41.18
G1 F1800 X41.18 Y45.935 E54.63341
G0 F7200 X41.18 Y45.369
G1 F1800 X45.37 Y41.18 E54.68914
G0 F7200 X44.804 Y41.18
G1 F1800 X41.18 Y44.804 E54.73734
G0 F7200 X41.18 Y44.238
G1 F1800 X44.239 Y41.18 E54.77802
G0 F7200 X43.673 Y41.18
G1 F1800 X41.18 Y43.672 E54.81118
G0 F7200 X41.18 Y43.107
G1 F1800 X43.107 Y41.18 E54.83681
G0 F7200 X42.542 Y41.18
G1 F1800 X41.18 Y42.541 E54.85492
G0 F7200 X41.18 Y41.975
G1 F1800 X41.976 Y41.18 E54.8655
G0 F7200 X41.41 Y41.18
G1 F1800 X41.18 Y41.41 E54.86856
G0 F7200 X41.21 Y41.41
;MESH:NONMESH
G0 F600 X41.21 Y41.41 Z0.9
G0 F7200 X59.12 Y59.12
G0 X59.4 Y59.4
;TIME_ELAPSED:158.837568
;LAYER:4
;TYPE:WALL-INNER
;MESH:20mm cube.stl
G1 F4800 X59.4 Y40.6 E55.04538
G1 X40.6 Y40.6 E55.22219
G1 X40.6 Y59.4 E55.39901
G1 X59.4 Y59.4 E55.57583
G0 F7200 X59.8 Y59.8
;TYPE:WALL-OUTER
G1 F2400 X59.8 Y40.2 E55.76018
G1 X40.2 Y40.2 E55.94452
G1 X40.2 Y59.8 E56.12886
G1 X59.8 Y59.8 E56.31321
G0 F7200 X59.8 Y59.6
G0 X59.02 Y59.02
;TYPE:SKIN
G1 F1800 X40.98 Y59.02 E56.48288
G1 X40.98 Y40.98 E56.65255
G1 X59.02 Y40.98 E56.82222
G1 X59.02 Y59.02 E56.99189
G0 F7200 X58.717 Y41.18
G1 F1800 X58.82 Y41.284 E56.99327
G0 F7200 X58.82 Y41.849
G1 F1800 X58.151 Y41.18 E57.00217
G0 F7200 X57.585 Y41.18
G1 F1800 X58.82 Y42.415 E57.01859
G0 F7200 X58.82 Y42.981
G1 F1800 X57.02 Y41.18 E57.04254
G0 F7200 X56.454 Y41.18
G1 F1800 X58.82 Y43.546 E57.07401
G0 F7200 X58.82 Y44.112
G1 F1800 X55.888 Y41.18 E57.11301
G0 F7200 X55.323 Y41.18
G1 F1800 X58.82 Y44.678 E57.15953
G0 F7200 X58.82 Y45.244
G1 F1800 X54.757 Y41.18 E57.21358
G0 F7200 X54.191 Y41.18
G1 F1800 X58.82 Y45.809 E57.27515
G0 F7200 X58.82 Y46.375
G1 F1800 X53.626 Y41.18 E57.34424
G0 F7200 X53.06 Y41.18
G1 F1800 X58.82 Y46.941 E57.42086
G0 F7200 X58.82 Y47.506
G1 F1800 X52.494 Y41.18 E57.50501
G0 F7200 X51.929 Y41.18
G1 F1800 X58.82 Y48.072 E57.59667
G0 F7200 X58.82 Y48.638
G1 F1800 X51.363 Y41.18 E57.69586
G0 F7200 X50.797 Y41.18
G1 F1800 X58.82 Y49.203 E57.80258
G0 F7200 X58.82 Y49.769
G1 F1800 X50.231 Y41.18 E57.91682
G0 F7200 X49.666 Y41.18
G1 F1800 X58.82 Y50.335 E58.03859
G0 F7200 X58.82 Y50.9
G1 F1800 X49.1 Y41.18 E58.16787
G0 F7200 X48.534 Y41.18
G1 F1800 X58.82 Y51.466 E58.30469
G0 F7200 X58.82 Y52.032
G1 F1800 X47.969 Y41.18 E58.44902
G0 F7200 X47.403 Y41.18
G1 F1800 X58.82 Y52.597 E58.60088
G0 F7200 X58.82 Y53.163
G1 F1800 X46.837 Y41.18 E58.76027
G0 F7200 X46.272 Y41.18
G1 F1800 X58.82 Y53.729 E58.92718
G0 F7200 X58.82 Y54.294
G1 F1800 X45.706 Y41.18 E59.10161
G0 F7200 X45.14 Y41.18
G1 F1800 X58.82 Y54.86 E59.28357
G0 F7200 X58.82 Y55.426
G1 F1800 X44.575 Y41.18 E59.47305
G0 F7200 X44.009 Y41.18
G1 F1800 X58.82 Y55.992 E59.67006
G0 F7200 X58.82 Y56.557
G1 F1800 X43.443 Y41.18 E59.87459
G0 F7200 X42.878 Y41.18
G1 F1800 X58.82 Y57.123 E60.08664
G0 F7200 X58.82 Y57.689
G1 F1800 X42.312 Y41.18 E60.30622
G0 F7200 X41.746 Y41.18
G1 F1800 X58.82 Y58.254 E60.53332
G0 F7200 X58.82 Y58.82
G1 F1800 X41.18 Y41.18 E60.76795
G0 F7200 X41.18 Y41.745
G1 F1800 X58.254 Y58.82 E60.99506
G0 F7200 X57.689 Y58.82
G1 F1800 X41.18 Y42.311 E61.21465
G0 F7200 X41.18 Y42.877
G1 F1800 X57.123 Y58.82 E61.42671
G0 F7200 X56.557 Y58.82
G1 F1800 X41.18 Y43.443 E61.63124
G0 F7200 X41.18 Y44.008
G1 F1800 X55.992 Y58.82 E61.82825
G0 F7200 X55.426 Y58.82
G1 F1800 X41.18 Y44.574 E62.01774
G0 F7200 X41.18 Y45.14
G1 F1800 X54.86 Y58.82 E62.1997
G0 F7200 X54.294 Y58.82
G1 F1800 X41.18 Y45.705 E62.37414
G0 F7200 X41.18 Y46.271
G1 F1800 X53.729 Y58.82 E62.54105
G0 F7200 X53.163 Y58.82
G1 F1800 X41.18 Y46.837 E62.70044
G0 F7200 X41.18 Y47.402
G1 F1800 X52.597 Y58.82 E62.8523
G0 F7200 X52.032 Y58.82
G1 F1800 X41.18 Y47.968 E62.99665
G0 F7200 X41.18 Y48.534
G1 F1800 X51.466 Y58.82 E63.13346
G0 F7200 X50.9 Y58.82
G1 F1800 X41.18 Y49.099 E63.26276
G0 F7200 X41.18 Y49.665
G1 F1800 X50.335 Y58.82 E63.38453
G0 F7200 X49.769 Y58.82
G1 F1800 X41.18 Y50.231 E63.49877
G0 F7200 X41.18 Y50.796
G1 F1800 X49.203 Y58.82 E63.60549
G0 F7200 X48.638 Y58.82
G1 F1800 X41.18 Y51.362 E63.70469
G0 F7200 X41.18 Y51.928
G1 F1800 X48.072 Y58.82 E63.79636
G0 F7200 X47.506 Y58.82
G1 F1800 X41.18 Y52.493 E63.88051
G0 F7200 X41.18 Y53.059
G1 F1800 X46.941 Y58.82 E63.95714
G0 F7200 X46.375 Y58.82
G1 F1800 X41.18 Y53.625 E64.02624
G0 F7200 X41.18 Y54.191
G1 F1800 X45.809 Y58.82 E64.08781
G0 F7200 X45.244 Y58.82
G1 F1800 X41.18 Y54.756 E64.14186
G0 F7200 X41.18 Y55.322
G1 F1800 X44.678 Y58.82 E64.18839
G0 F7200 X44.112 Y58.82
G1 F1800 X41.18 Y55.888 E64.22739
G0 F7200 X41.18 Y56.453
G1 F1800 X43.546 Y58.82 E64.25887
G0 F7200 X42.981 Y58.82
G1 F1800 X41.18 Y57.019 E64.28282
G0 F7200 X41.18 Y57.585
G1 F1800 X42.415 Y58.82 E64.29925
G0 F7200 X41.849 Y58.82
G1 F1800 X41.18 Y58.15 E64.30815
G0 F7200 X41.18 Y58.716
G1 F1800 X41.284 Y58.82 E64.30954
G0 F7200 X41.284 Y58.79
;MESH:NONMESH
G0 F600 X41.284 Y58.79 Z1.05
G0 F7200 X59.12 Y59.12
G0 X59.4 Y59.4
;TIME_ELAPSED:191.967567
;LAYER:5
;TYPE:WALL-INNER
;MESH:20mm cube.stl
G1 F4800 X59.4 Y40.6 E64.48636
G1 X40.6 Y40.6 E64.66317
G1 X40.6 Y59.4 E64.83999
G1 X59.4 Y59.4 E65.01681
G0 F7200 X59.8 Y59.8
;TYPE:WALL-OUTER
G1 F2400 X59.8 Y40.2 E65.20116
G1 X40.2 Y40.2 E65.3855
G1 X40.2 Y59.8 E65.56984
G1 X59.8 Y59.8 E65.75419
G0 F7200 X59.8 Y59.6
G0 X59.02 Y59.02
;TYPE:SKIN
G1 F1800 X40.98 Y59.02 E65.92386
G1 X40.98 Y40.98 E66.09353
G1 X59.02 Y40.98 E66.2632
G1 X59.02 Y59.02 E66.43287
G0 F7200 X58.277 Y58.82
G1 F1800 X58.82 Y58.277 E66.44009
G0 F7200 X58.82 Y57.711
G1 F1800 X57.711 Y58.82 E66.45485
G0 F7200 X57.146 Y58.82
G1 F1800 X58.82 Y57.146 E66.47711
G0 F7200 X58.82 Y56.58
G1 F1800 X56.58 Y58.82 E66.50691
G0 F7200 X56.014 Y58.82
G1 F1800 X58.82 Y56.014 E66.54423
G0 F7200 X58.82 Y55.448
G1 F1800 X55.448 Y58.82 E66.58908
G0 F7200 X54.883 Y58.82
G1 F1800 X58.82 Y54.883 E66.64145
G0 F7200 X58.82 Y54.317
G1 F1800 X54.317 Y58.82 E66.70134
G0 F7200 X53.751 Y58.82
G1 F1800 X58.82 Y53.751 E66.76876
G0 F7200 X58.82 Y53.186
G1 F1800 X53.186 Y58.82 E66.8437
G0 F7200 X52.62 Y58.82
G1 F1800 X58.82 Y52.62 E66.92617
G0 F7200 X58.82 Y52.054
G1 F1800 X52.054 Y58.82 E67.01616
G0 F7200 X51.489 Y58.82
G1 F1800 X58.82 Y51.489 E67.11367
G0 F7200 X58.82 Y50.923
G1 F1800 X50.923 Y58.82 E67.21871
G0 F7200 X50.357 Y58.82
G1 F1800 X58.82 Y50.357 E67.33128
G0 F7200 X58.82 Y49.792
G1 F1800 X49.792 Y58.82 E67.45136
G0 F7200 X49.226 Y58.82
G1 F1800 X58.82 Y49.226 E67.57897
G0 F7200 X58.82 Y48.66
G1 F1800 X48.66 Y58.82 E67.71411
G0 F7200 X48.095 Y58.82
G1 F1800 X58.82 Y48.095 E67.85677
G0 F7200 X58.82 Y47.529
G1 F1800 X47.529 Y58.82 E68.00695
G0 F7200 X46.963 Y58.82
G1 F1800 X58.82 Y46.963 E68.16466
G0 F7200 X58.82 Y46.398
G1 F1800 X46.398 Y58.82 E68.32988
G0 F7200 X45.832 Y58.82
G1 F1800 X58.82 Y45.832 E68.50264
G0 F7200 X58.82 Y45.266
G1 F1800 X45.266 Y58.82 E68.68292
G0 F7200 X44.7 Y58.82
G1 F1800 X58.82 Y44.7 E68.87073
G0 F7200 X58.82 Y44.135
G1 F1800 X44.135 Y58.82 E69.06606
G0 F7200 X43.569 Y58.82
G1 F1800 X58.82 Y43.569 E69.26891
G0 F7200 X58.82 Y43.003
G1 F1800 X43.003 Y58.82 E69.4793
G0 F7200 X42.438 Y58.82
G1 F1800 X58.82 Y42.438 E69.69719
G0 F7200 X58.82 Y41.872
G1 F1800 X41.872 Y58.82 E69.92262
G0 F7200 X41.306 Y58.82
G1 F1800 X58.82 Y41.306 E70.15558
G0 F7200 X58.381 Y41.18
G1 F1800 X41.18 Y58.38 E70.38436
G0 F7200 X41.18 Y57.814
G1 F1800 X57.815 Y41.18 E70.60562
G0 F7200 X57.249 Y41.18
G1 F1800 X41.18 Y57.249 E70.81935
G0 F7200 X41.18 Y56.683
G1 F1800 X56.684 Y41.18 E71.02557
G0 F7200 X56.118 Y41.18
G1 F1800 X41.18 Y56.117 E71.22425
G0 F7200 X41.18 Y55.552
G1 F1800 X55.552 Y41.18 E71.41541
G0 F7200 X54.987 Y41.18
G1 F1800 X41.18 Y54.986 E71.59906
G0 F7200 X41.18 Y54.42
G1 F1800 X54.421 Y41.18 E71.77517
G0 F7200 X53.855 Y41.18
G1 F1800 X41.18 Y53.855 E71.94376
G0 F7200 X41.18 Y53.289
G1 F1800 X53.29 Y41.18 E72.10483
G0 F7200 X52.724 Y41.18
G1 F1800 X41.18 Y52.723 E72.25837
G0 F7200 X41.18 Y52.158
G1 F1800 X52.158 Y41.18 E72.40439
G0 F7200 X51.593 Y41.18
G1 F1800 X41.18 Y51.592 E72.54289
G0 F7200 X41.18 Y51.026
G1 F1800 X51.027 Y41.18 E72.67385
G0 F7200 X50.461 Y41.18
G1 F1800 X41.18 Y50.461 E72.7973
G0 F7200 X41.18 Y49.895
G1 F1800 X49.896 Y41.18 E72.91323
G0 F7200 X49.33 Y41.18
G1 F1800 X41.18 Y49.329 E73.02162
G0 F7200 X41.18 Y48.763
G1 F1800 X48.764 Y41.18 E73.12249
G0 F7200 X48.199 Y41.18
G1 F1800 X41.18 Y48.198 E73.21585
G0 F7200 X41.18 Y47.632
G1 F1800 X47.633 Y41.18 E73.30167
G0 F7200 X47.067 Y41.18
G1 F1800 X41.18 Y47.066 E73.37997
G0 F7200 X41.18 Y46.501
G1 F1800 X46.501 Y41.18 E73.45074
G0 F7200 X45.936 Y41.18
G1 F1800 X41.18 Y45.935 E73.514
G0 F7200 X41.18 Y45.369
G1 F1800 X45.37 Y41.18 E73.56972
G0 F7200 X44.804 Y41.18
G1 F1800 X41.18 Y44.804 E73.61793
G0 F7200 X41.18 Y44.238
G1 F1800 X44.239 Y41.18 E73.65861
G0 F7200 X43.673 Y41.18
G1 F1800 X41.18 Y43.672 E73.69176
G0 F7200 X41.18 Y43.107
G1 F1800 X43.107 Y41.18 E73.71739
G0 F7200 X42.542 Y41.18
G1 F1800 X41.18 Y42.541 E73.7355
G0 F7200 X41.18 Y41.975
G1 F1800 X41.976 Y41.18 E73.74608
G0 F7200 X41.41 Y41.18
G1 F1800 X41.18 Y41.41 E73.74914
G0 F7200 X41.21 Y41.41
;MESH:NONMESH
G0 F600 X41.21 Y41.41 Z1.2
G0 F7200 X40.76 Y40.76
;TIME_ELAPSED:224.757976
;LAYER:6
;TYPE:FILL
;MESH:20mm cube.stl
G1 F6000 X59.24 Y59.24 E73.99494
G1 X59.31 Y59.31
G0 F7200 X59.12 Y59.12
G0 X52.073 Y59.09
G0 X52.073 Y59.24
G1 F6000 X59.24 Y52.073 E74.09027
G1 X59.31 Y52.003
G0 F7200 X59.09 Y52.003
G0 X59.09 Y47.926
G0 X59.24 Y47.926
G1 F6000 X52.074 Y40.76 E74.18559
G1 X52.004 Y40.69
G0 F7200 X52.004 Y40.91
G0 X47.926 Y40.91
G0 X47.926 Y40.76
G1 F6000 X40.76 Y47.925 E74.2809
G1 X40.69 Y47.995
G0 F7200 X40.91 Y47.995
G0 X40.91 Y52.073
G0 X40.76 Y52.073
G1 F6000 X47.926 Y59.24 E74.37622
G1 X47.996 Y59.31
G0 F7200 X47.996 Y59.09
G0 X40.88 Y59.12
G0 X40.76 Y59.239
G1 F6000 X59.239 Y40.76 E74.62201
G1 X59.309 Y40.69
G0 F7200 X59.12 Y40.88
G0 X59.12 Y59.12
G0 X59.4 Y59.4
;TYPE:WALL-INNER
G1 F4800 X59.4 Y40.6 E74.79883
G1 X40.6 Y40.6 E74.97565
G1 X40.6 Y59.4 E75.15247
G1 X59.4 Y59.4 E75.32929
G0 F7200 X59.8 Y59.8
;TYPE:WALL-OUTER
G1 F2400 X59.8 Y40.2 E75.51363
G1 X40.2 Y40.2 E75.69797
G1 X40.2 Y59.8 E75.88232
G1 X59.8 Y59.8 E76.06666
G0 F7200 X59.8 Y59.6
G0 X58.79 Y58.908
;MESH:NONMESH
G0 F600 X58.79 Y58.908 Z1.35
G0 F7200 X40.88 Y40.88
G0 X40.76 Y40.76
;TIME_ELAPSED:229.742913
;LAYER:7
;TYPE:FILL
;MESH:20mm cube.stl
G1 F6000 X59.24 Y59.24 E76.31246
G1 X59.31 Y59.31
G0 F7200 X59.12 Y59.12
G0 X52.073 Y59.09
G0 X52.073 Y59.24
G1 F6000 X59.24 Y52.073 E76.40779
G1 X59.31 Y52.003
G0 F7200 X59.09 Y52.003
G0 X59.09 Y47.926
G0 X59.24 Y47.926
G1 F6000 X52.074 Y40.76 E76.50311
G1 X52.004 Y40.69
G0 F7200 X52.004 Y40.91
G0 X47.926 Y40.91
G0 X47.926 Y40.76
G1 F6000 X40.76 Y47.925 E76.59842
G1 X40.69 Y47.995
G0 F7200 X40.91 Y47.995
G0 X40.91 Y52.073
G0 X40.76 Y52.073
G1 F6000 X47.926 Y59.24 E76.69374
G1 X47.996 Y59.31
G0 F7200 X47.996 Y59.09
G0 X40.88 Y59.12
G0 X40.76 Y59.239
G1 F6000 X59.239 Y40.76 E76.93953
G1 X59.309 Y40.69
G0 F7200 X59.12 Y40.88
G0 X59.12 Y59.12
G0 X59.4 Y59.4
;TYPE:WALL-INNER
G1 F4800 X59.4 Y40.6 E77.11635
G1 X40.6 Y40.6 E77.29317
G1 X40.6 Y59.4 E77.46999
G1 X59.4 Y59.4 E77.64681
G0 F7200 X59.8 Y59.8
;TYPE:WALL-OUTER
G1 F2400 X59.8 Y40.2 E77.83115
G1 X40.2 Y40.2 E78.01549
G1 X40.2 Y59.8 E78.19984
G1 X59.8 Y59.8 E78.38418
G0 F7200 X59.8 Y59.6
G0 X58.79 Y58.908
;MESH:NONMESH
G0 F600 X58.79 Y58.908 Z1.5
G0 F7200 X40.88 Y40.88
G0 X40.76 Y40.76
;TIME_ELAPSED:234.727851
;LAYER:8
;TYPE:FILL
;MESH:20mm cube.stl
G1 F6000 X59.24 Y59.24 E78.62998
G1 X59.31 Y59.31
G0 F7200 X59.12 Y59.12
G0 X52.073 Y59.09
G0 X52.073 Y59.24
G1 F6000 X59.24 Y52.073 E78.72531
G1 X59.31 Y52.003
G0 F7200 X59.09 Y52.003
G0 X59.09 Y47.926
G0 X59.24 Y47.926
G1 F6000 X52.074 Y40.76 E78.82063
G1 X52.004 Y40.69
G0 F7200 X52.004 Y40.91
G0 X47.926 Y40.91
G0 X47.926 Y40.76
G1 F6000 X40.76 Y47.925 E78.91594
G1 X40.69 Y47.995
G0 F7200 X40.91 Y47.995
G0 X40.91 Y52.073
G0 X40.76 Y52.073
G1 F6000 X47.926 Y59.24 E79.01126
G1 X47.996 Y59.31
G0 F7200 X47.996 Y59.09
G0 X40.88 Y59.12
G0 X40.76 Y59.239
G1 F6000 X59.239 Y40.76 E79.25705
G1 X59.309 Y40.69
G0 F7200 X59.12 Y40.88
G0 X59.12 Y59.12
G0 X59.4 Y59.4
;TYPE:WALL-INNER
G1 F4800 X59.4 Y40.6 E79.43387
G1 X40.6 Y40.6 E79.61069
G1 X40.6 Y59.4 E79.78751
G1 X59.4 Y59.4 E79.96433
G0 F7200 X59.8 Y59.8
;TYPE:WALL-OUTER
G1 F2400 X59.8 Y40.2 E80.14867
G1 X40.2 Y40.2 E80.33301
G1 X40.2 Y59.8 E80.51736
G1 X59.8 Y59.8 E80.7017
G0 F7200 X59.8 Y59.6
G0 X58.79 Y58.908
;MESH:NONMESH
G0 F600 X58.79 Y58.908 Z1.65
G0 F7200 X40.88 Y40.88
G0 X40.76 Y40.76
;TIME_ELAPSED:239.712789
;LAYER:9
;TYPE:FILL
;MESH:20mm cube.stl
G1 F6000 X59.24 Y59.24 E80.9475
G1 X59.31 Y59.31
G0 F7200 X59.12 Y59.12
G0 X52.073 Y59.09
G0 X52.073 Y59.24
G1 F6000 X59.24 Y52.073 E81.04283
G1 X59.31 Y52.003
G0 F7200 X59.09 Y52.003
G0 X59.09 Y47.926
G0 X59.24 Y47.926
G1 F6000 X52.074 Y40.76 E81.13815
G1 X52.004 Y40.69
G0 F7200 X52.004 Y40.91
G0 X47.926 Y40.91
G0 X47.926 Y40.76
G1 F6000 X40.76 Y47.925 E81.23346
G1 X40.69 Y47.995
G0 F7200 X40.91 Y47.995
G0 X40.91 Y52.073
G0 X40.76 Y52.073
G1 F6000 X47.926 Y59.24 E81.32878
G1 X47.996 Y59.31
G0 F7200 X47.996 Y59.09
G0 X40.88 Y59.12
G0 X40.76 Y59.239
G1 F6000 X59.239 Y40.76 E81.57457
G1 X59.309 Y40.69
G0 F7200 X59.12 Y40.88
G0 X59.12 Y59.12
G0 X59.4 Y59.4
;TYPE:WALL-INNER
G1 F4800 X59.4 Y40.6 E81.75139
G1 X40.6 Y40.6 E81.92821
G1 X40.6 Y59.4 E82.10503
G1 X59.4 Y59.4 E82.28185
G0 F7200 X59.8 Y59.8
;TYPE:WALL-OUTER
G1 F2400 X59.8 Y40.2 E82.46619
G1 X40.2 Y40.2 E82.65053
G1 X40.2 Y59.8 E82.83488
G1 X59.8 Y59.8 E83.01922
G0 F7200 X59.8 Y59.6
G0 X58.79 Y58.908
;MESH:NONMESH
G0 F600 X58.79 Y58.908 Z1.8
G0 F7200 X40.88 Y40.88
G0 X40.76 Y40.76
;TIME_ELAPSED:244.697727
;LAYER:10
;TYPE:FILL
;MESH:20mm cube.stl
G1 F6000 X59.24 Y59.24 E83.26503
G1 X59.31 Y59.31
G0 F7200 X59.12 Y59.12
G0 X52.073 Y59.09
G0 X52.073 Y59.24
G1 F6000 X59.24 Y52.073 E83.36035
G1 X59.31 Y52.003
G0 F7200 X59.09 Y52.003
G0 X59.09 Y47.926
G0 X59.24 Y47.926
G1 F6000 X52.074 Y40.76 E83.45567
G1 X52.004 Y40.69
G0 F7200 X52.004 Y40.91
G0 X47.926 Y40.91
G0 X47.926 Y40.76
G1 F6000 X40.76 Y47.925 E83.55098
G1 X40.69 Y47.995
G0 F7200 X40.91 Y47.995
G0 X40.91 Y52.073
G0 X40.76 Y52.073
G1 F6000 X47.926 Y59.24 E83.6463
G1 X47.996 Y59.31
G0 F7200 X47.996 Y59.09
G0 X40.88 Y59.12
G0 X40.76 Y59.239
G1 F6000 X59.239 Y40.76 E83.89209
G1 X59.309 Y40.69
G0 F7200 X59.12 Y40.88
G0 X59.12 Y59.12
G0 X59.4 Y59.4
;TYPE:WALL-INNER
G1 F4800 X59.4 Y40.6 E84.06891
G1 X40.6 Y40.6 E84.24573
G1 X40.6 Y59.4 E84.42255
G1 X59.4 Y59.4 E84.59937
G0 F7200 X59.8 Y59.8
;TYPE:WALL-OUTER
G1 F2400 X59.8 Y40.2 E84.78371
G1 X40.2 Y40.2 E84.96805
G1 X40.2 Y59.8 E85.1524
G1 X59.8 Y59.8 E85.33674
G0 F7200 X59.8 Y59.6
G0 X58.79 Y58.908
;MESH:NONMESH
G0 F600 X58.79 Y58.908 Z1.95
G0 F7200 X40.88 Y40.88
G0 X40.76 Y40.76
;TIME_ELAPSED:249.682665
;LAYER:11
;TYPE:FILL
;MESH:20mm cube.stl
G1 F6000 X59.24 Y59.24 E85.58255
G1 X59.31 Y59.31
G0 F7200 X59.12 Y59.12
G0 X52.073 Y59.09
G0 X52.073 Y59.24
G1 F6000 X59.24 Y52.073 E85.67787
G1 X59.31 Y52.003
G0 F7200 X59.09 Y52.003
G0 X59.09 Y47.926
G0 X59.24 Y47.926
G1 F6000 X52.074 Y40.76 E85.77319
G1 X52.004 Y40.69
G0 F7200 X52.004 Y40.91
G0 X47.926 Y40.91
G0 X47.926 Y40.76
G1 F6000 X40.76 Y47.925 E85.8685
G1 X40.69 Y47.995
G0 F7200 X40.91 Y47.995
G0 X40.91 Y52.073
G0 X40.76 Y52.073
G1 F6000 X47.926 Y59.24 E85.96382
G1 X47.996 Y59.31
G0 F7200 X47.996 Y59.09
G0 X40.88 Y59.12
G0 X40.76 Y59.239
G1 F6000 X59.239 Y40.76 E86.20961
G1 X59.309 Y40.69
G0 F7200 X59.12 Y40.88
G0 X59.12 Y59.12
G0 X59.4 Y59.4
;TYPE:WALL-INNER
G1 F4800 X59.4 Y40.6 E86.38643
G1 X40.6 Y40.6 E86.56325
G1 X40.6 Y59.4 E86.74007
G1 X59.4 Y59.4 E86.91689
G0 F7200 X59.8 Y59.8
;TYPE:WALL-OUTER
G1 F2400 X59.8 Y40.2 E87.10123
G1 X40.2 Y40.2 E87.28557
G1 X40.2 Y59.8 E87.46992
G1 X59.8 Y59.8 E87.65426
G0 F7200 X59.8 Y59.6
G0 X58.79 Y58.908
;MESH:NONMESH
G0 F600 X58.79 Y58.908 Z2.1
G0 F7200 X40.88 Y40.88
G0 X40.76 Y40.76
;TIME_ELAPSED:254.667603
;LAYER:12
;TYPE:FILL
;MESH:20mm cube.stl
G1 F6000 X59.24 Y59.24 E87.90007
G1 X59.31 Y59.31
G0 F7200 X59.12 Y59.12
G0 X52.073 Y59.09
G0 X52.073 Y59.24
G1 F6000 X59.24 Y52.073 E87.99539
G1 X59.31 Y52.003
G0 F7200 X59.09 Y52.003
G0 X59.09 Y47.926
G0 X59.24 Y47.926
G1 F6000 X52.074 Y40.76 E88.09071
G1 X52.004 Y40.69
G0 F7200 X52.004 Y40.91
G0 X47.926 Y40.91
G0 X47.926 Y40.76
G1 F6000 X40.76 Y47.925 E88.18602
G1 X40.69 Y47.995
G0 F7200 X40.91 Y47.995
G0 X40.91 Y52.073
G0 X40.76 Y52.073
G1 F6000 X47.926 Y59.24 E88.28134
G1 X47.996 Y59.31
G0 F7200 X47.996 Y59.09
G0 X40.88 Y59.12
G0 X40.76 Y59.239
G1 F6000 X59.239 Y40.76 E88.52713
G1 X59.309 Y40.69
G0 F7200 X59.12 Y40.88
G0 X59.12 Y59.12
G0 X59.4 Y59.4
;TYPE:WALL-INNER
G1 F4800 X59.4 Y40.6 E88.70395
G1 X40.6 Y40.6 E88.88077
G1 X40.6 Y59.4 E89.05759
G1 X59.4 Y59.4 E89.23441
G0 F7200 X59.8 Y59.8
;TYPE:WALL-OUTER
G1 F2400 X59.8 Y40.2 E89.41875
G1 X40.2 Y40.2 E89.6031
G1 X40.2 Y59.8 E89.78744
G1 X59.8 Y59.8 E89.97178
G0 F7200 X59.8 Y59.6
G0 X58.79 Y58.908
;MESH:NONMESH
G0 F600 X58.79 Y58.908 Z2.25
G0 F7200 X40.88 Y40.88
G0 X40.76 Y40.76
;TIME_ELAPSED:259.652541
;LAYER:13
;TYPE:FILL
;MESH:20mm cube.stl
G1 F6000 X59.24 Y59.24 E90.21759
G1 X59.31 Y59.31
G0 F7200 X59.12 Y59.12
G0 X52.073 Y59.09
G0 X52.073 Y59.24
G1 F6000 X59.24 Y52.073 E90.31291
G1 X59.31 Y52.003
G0 F7200 X59.09 Y52.003
G0 X59.09 Y47.926
G0 X59.24 Y47.926
G1 F6000 X52.074 Y40.76 E90.40823
G1 X52.004 Y40.69
G0 F7200 X52.004 Y40.91
G0 X47.926 Y40.91
G0 X47.926 Y40.76
G1 F6000 X40.76 Y47.925 E90.50354
G1 X40.69 Y47.995
G0 F7200 X40.91 Y47.995
G0 X40.91 Y52.073
G0 X40.76 Y52.073
G1 F6000 X47.926 Y59.24 E90.59886
G1 X47.996 Y59.31
G0 F7200 X47.996 Y59.09
G0 X40.88 Y59.12
G0 X40.76 Y59.239
G1 F6000 X59.239 Y40.76 E90.84465
G1 X59.309 Y40.69
G0 F7200 X59.12 Y40.88
G0 X59.12 Y59.12
G0 X59.4 Y59.4
;TYPE:WALL-INNER
G1 F4800 X59.4 Y40.6 E91.02147
G1 X40.6 Y40.6 E91.19829
G1 X40.6 Y59.4 E91.37511
G1 X59.4 Y59.4 E91.55193
G0 F7200 X59.8 Y59.8
;TYPE:WALL-OUTER
G1 F2400 X59.8 Y40.2 E91.73627
G1 X40.2 Y40.2 E91.92062
G1 X40.2 Y59.8 E92.10496
G1 X59.8 Y59.8 E92.2893
G0 F7200 X59.8 Y59.6
G0 X58.79 Y58.908
;MESH:NONMESH
G0 F600 X58.79 Y58.908 Z2.4
G0 F7200 X40.88 Y40.88
G0 X40.76 Y40.76
;TIME_ELAPSED:264.637479
;LAYER:14
;TYPE:FILL
;MESH:20mm cube.stl
G1 F6000 X59.24 Y59.24 E92.53511
G1 X59.31 Y59.31
G0 F7200 X59.12 Y59.12
G0 X52.073 Y59.09
G0 X52.073 Y59.24
G1 F6000 X59.24 Y52.073 E92.63044
G1 X59.31 Y52.003
G0 F7200 X59.09 Y52.003
G0 X59.09 Y47.926
G0 X59.24 Y47.926
G1 F6000 X52.074 Y40.76 E92.72575
G1 X52.004 Y40.69
G0 F7200 X52.004 Y40.91
G0 X47.926 Y40.91
G0 X47.926 Y40.76
G1 F6000 X40.76 Y47.925 E92.82106
G1 X40.69 Y47.995
G0 F7200 X40.91 Y47.995
G0 X40.91 Y52.073
G0 X40.76 Y52.073
G1 F6000 X47.926 Y59.24 E92.91638
G1 X47.996 Y59.31
G0 F7200 X47.996 Y59.09
G0 X40.88 Y59.12
G0 X40.76 Y59.239
G1 F6000 X59.239 Y40.76 E93.16217
G1 X59.309 Y40.69
G0 F7200 X59.12 Y40.88
G0 X59.12 Y59.12
G0 X59.4 Y59.4
;TYPE:WALL-INNER
G1 F4800 X59.4 Y40.6 E93.33899
G1 X40.6 Y40.6 E93.51581
G1 X40.6 Y59.4 E93.69263
G1 X59.4 Y59.4 E93.86945
G0 F7200 X59.8 Y59.8
;TYPE:WALL-OUTER
G1 F2400 X59.8 Y40.2 E94.05379
G1 X40.2 Y40.2 E94.23814
G1 X40.2 Y59.8 E94.42248
G1 X59.8 Y59.8 E94.60682
G0 F7200 X59.8 Y59.6
G0 X58.79 Y58.908
;MESH:NONMESH
G0 F600 X58.79 Y58.908 Z2.55
G0 F7200 X40.88 Y40.88
G0 X40.76 Y40.76
;TIME_ELAPSED:269.622417
;LAYER:15
;TYPE:FILL
;MESH:20mm cube.stl
G1 F6000 X59.24 Y59.24 E94.85263
G1 X59.31 Y59.31
G0 F7200 X59.12 Y59.12
G0 X52.073 Y59.09
G0 X52.073 Y59.24
G1 F6000 X59.24 Y52.073 E94.94796
G1 X59.31 Y52.003
G0 F7200 X59.09 Y52.003
G0 X59.09 Y47.926
G0 X59.24 Y47.926
G1 F6000 X52.074 Y40.76 E95.04327
G1 X52.004 Y40.69
G0 F7200 X52.004 Y40.91
G0 X47.926 Y40.91
G0 X47.926 Y40.76
G1 F6000 X40.76 Y47.925 E95.13858
G1 X40.69 Y47.995
G0 F7200 X40.91 Y47.995
G0 X40.91 Y52.073
G0 X40.76 Y52.073
G1 F6000 X47.926 Y59.24 E95.2339
G1 X47.996 Y59.31
G0 F7200 X47.996 Y59.09
G0 X40.88 Y59.12
G0 X40.76 Y59.239
G1 F6000 X59.239 Y40.76 E95.47969
G1 X59.309 Y40.69
G0 F7200 X59.12 Y40.88
G0 X59.12 Y59.12
G0 X59.4 Y59.4
;TYPE:WALL-INNER
G1 F4800 X59.4 Y40.6 E95.65651
G1 X40.6 Y40.6 E95.83333
G1 X40.6 Y59.4 E96.01015
G1 X59.4 Y59.4 E96.18697
G0 F7200 X59.8 Y59.8
;TYPE:WALL-OUTER
G1 F2400 X59.8 Y40.2 E96.37131
G1 X40.2 Y40.2 E96.55566
G1 X40.2 Y59.8 E96.74
G1 X59.8 Y59.8 E96.92434
G0 F7200 X59.8 Y59.6
G0 X58.79 Y58.908
;MESH:NONMESH
G0 F600 X58.79 Y58.908 Z2.7
G0 F7200 X40.88 Y40.88
G0 X40.76 Y40.76
;TIME_ELAPSED:274.607355
;LAYER:16
;TYPE:FILL
;MESH:20mm cube.stl
G1 F6000 X59.24 Y59.24 E97.17015
G1 X59.31 Y59.31
G0 F7200 X59.12 Y59.12
G0 X52.073 Y59.09
G0 X52.073 Y59.24
G1 F6000 X59.24 Y52.073 E97.26548
G1 X59.31 Y52.003
G0 F7200 X59.09 Y52.003
G0 X59.09 Y47.926
G0 X59.24 Y47.926
G1 F6000 X52.074 Y40.76 E97.36079
G1 X52.004 Y40.69
G0 F7200 X52.004 Y40.91
G0 X47.926 Y40.91
G0 X47.926 Y40.76
G1 F6000 X40.76 Y47.925 E97.4561
G1 X40.69 Y47.995
G0 F7200 X40.91 Y47.995
G0 X40.91 Y52.073
G0 X40.76 Y52.073
G1 F6000 X47.926 Y59.24 E97.55142
G1 X47.996 Y59.31
G0 F7200 X47.996 Y59.09
G0 X40.88 Y59.12
G0 X40.76 Y59.239
G1 F6000 X59.239 Y40.76 E97.79721
G1 X59.309 Y40.69
G0 F7200 X59.12 Y40.88
G0 X59.12 Y59.12
G0 X59.4 Y59.4
;TYPE:WALL-INNER
G1 F4800 X59.4 Y40.6 E97.97403
G1 X40.6 Y40.6 E98.15085
G1 X40.6 Y59.4 E98.32767
G1 X59.4 Y59.4 E98.50449
G0 F7200 X59.8 Y59.8
;TYPE:WALL-OUTER
G1 F2400 X59.8 Y40.2 E98.68883
G1 X40.2 Y40.2 E98.87318
G1 X40.2 Y59.8 E99.05752
G1 X59.8 Y59.8 E99.24186
G0 F7200 X59.8 Y59.6
G0 X58.79 Y58.908
;MESH:NONMESH
G0 F600 X58.79 Y58.908 Z2.85
G0 F7200 X40.88 Y40.88
G0 X40.76 Y40.76
;TIME_ELAPSED:279.592293
;LAYER:17
;TYPE:FILL
;MESH:20mm cube.stl
G1 F6000 X59.24 Y59.24 E99.48767
G1 X59.31 Y59.31
G0 F7200 X59.12 Y59.12
G0 X52.073 Y59.09
G0 X52.073 Y59.24
G1 F6000 X59.24 Y52.073 E99.583
G1 X59.31 Y52.003
G0 F7200 X59.09 Y52.003
G0 X59.09 Y47.926
G0 X59.24 Y47.926
G1 F6000 X52.074 Y40.76 E99.67831
G1 X52.004 Y40.69
G0 F7200 X52.004 Y40.91
G0 X47.926 Y40.91
G0 X47.926 Y40.76
G1 F6000 X40.76 Y47.925 E99.77362
G1 X40.69 Y47.995
G0 F7200 X40.91 Y47.995
G0 X40.91 Y52.073
G0 X40.76 Y52.073
G1 F6000 X47.926 Y59.24 E99.86894
G1 X47.996 Y59.31
G0 F7200 X47.996 Y59.09
G0 X40.88 Y59.12
G0 X40.76 Y59.239
G1 F6000 X59.239 Y40.76 E100.11473
G1 X59.309 Y40.69
G0 F7200 X59.12 Y40.88
G0 X59.12 Y59.12
G0 X59.4 Y59.4
;TYPE:WALL-INNER
G1 F4800 X59.4 Y40.6 E100.29155
G1 X40.6 Y40.6 E100.46837
G1 X40.6 Y59.4 E100.64519
G1 X59.4 Y59.4 E100.82201
G0 F7200 X59.8 Y59.8
;TYPE:WALL-OUTER
G1 F2400 X59.8 Y40.2 E101.00635
G1 X40.2 Y40.2 E101.1907
G1 X40.2 Y59.8 E101.37504
G1 X59.8 Y59.8 E101.55938
G0 F7200 X59.8 Y59.6
G0 X58.79 Y58.908
;MESH:NONMESH
G0 F600 X58.79 Y58.908 Z3
G0 F7200 X40.88 Y40.88
G0 X40.76 Y40.76
;TIME_ELAPSED:284.577231
;LAYER:18
;TYPE:FILL
;MESH:20mm cube.stl
G1 F6000 X59.24 Y59.24 E101.80519
G1 X59.31 Y59.31
G0 F7200 X59.12 Y59.12
G0 X52.073 Y59.09
G0 X52.073 Y59.24
G1 F6000 X59.24 Y52.073 E101.90052
G1 X59.31 Y52.003
G0 F7200 X59.09 Y52.003
G0 X59.09 Y47.926
G0 X59.24 Y47.926
G1 F6000 X52.074 Y40.76 E101.99583
G1 X52.004 Y40.69
G0 F7200 X52.004 Y40.91
G0 X47.926 Y40.91
G0 X47.926 Y40.76
G1 F6000 X40.76 Y47.925 E102.09114
G1 X40.69 Y47.995
G0 F7200 X40.91 Y47.995
G0 X40.91 Y52.073
G0 X40.76 Y52.073
G1 F6000 X47.926 Y59.24 E102.18646
G1 X47.996 Y59.31
G0 F7200 X47.996 Y59.09
G0 X40.88 Y59.12
G0 X40.76 Y59.239
G1 F6000 X59.239 Y40.76 E102.43225
G1 X59.309 Y40.69
G0 F7200 X59.12 Y40.88
G0 X59.12 Y59.12
G0 X59.4 Y59.4
;TYPE:WALL-INNER
G1 F4800 X59.4 Y40.6 E102.60907
G1 X40.6 Y40.6 E102.78589
G1 X40.6 Y59.4 E102.96271
G1 X59.4 Y59.4 E103.13953
G0 F7200 X59.8 Y59.8
;TYPE:WALL-OUTER
G1 F2400 X59.8 Y40.2 E103.32387
G1 X40.2 Y40.2 E103.50822
G1 X40.2 Y59.8 E103.69256
G1 X59.8 Y59.8 E103.8769
G0 F7200 X59.8 Y59.6
G0 X58.79 Y58.908
;MESH:NONMESH
G0 F600 X58.79 Y58.908 Z3.15
G0 F7200 X40.88 Y40.88
G0 X40.76 Y40.76
;TIME_ELAPSED:289.562169
;LAYER:19
;TYPE:FILL
;MESH:20mm cube.stl
G1 F6000 X59.24 Y59.24 E104.12271
G1 X59.31 Y59.31
G0 F7200 X59.12 Y59.12
G0 X52.073 Y59.09
G0 X52.073 Y59.24
G1 F6000 X59.24 Y52.073 E104.21804
G1 X59.31 Y52.003
G0 F7200 X59.09 Y52.003
G0 X59.09 Y47.926
G0 X59.24 Y47.926
G1 F6000 X52.074 Y40.76 E104.31335
G1 X52.004 Y40.69
G0 F7200 X52.004 Y40.91
G0 X47.926 Y40.91
G0 X47.926 Y40.76
G1 F6000 X40.76 Y47.925 E104.40866
G1 X40.69 Y47.995
G0 F7200 X40.91 Y47.995
G0 X40.91 Y52.073
G0 X40.76 Y52.073
G1 F6000 X47.926 Y59.24 E104.50398
G1 X47.996 Y59.31
G0 F7200 X47.996 Y59.09
G0 X40.88 Y59.12
G0 X40.76 Y59.239
G1 F6000 X59.239 Y40.76 E104.74977
G1 X59.309 Y40.69
G0 F7200 X59.12 Y40.88
G0 X59.12 Y59.12
G0 X59.4 Y59.4
;TYPE:WALL-INNER
G1 F4800 X59.4 Y40.6 E104.92659
G1 X40.6 Y40.6 E105.10341
G1 X40.6 Y59.4 E105.28023
G1 X59.4 Y59.4 E105.45705
G0 F7200 X59.8 Y59.8
;TYPE:WALL-OUTER
G1 F2400 X59.8 Y40.2 E105.64139
G1 X40.2 Y40.2 E105.82574
G1 X40.2 Y59.8 E106.01008
G1 X59.8 Y59.8 E106.19442
G0 F7200 X59.8 Y59.6
G0 X58.79 Y58.908
;MESH:NONMESH
G0 F600 X58.79 Y58.908 Z3.3
G0 F7200 X40.88 Y40.88
G0 X40.76 Y40.76
;TIME_ELAPSED:294.547107
;LAYER:20
;TYPE:FILL
;MESH:20mm cube.stl
G1 F6000 X59.24 Y59.24 E106.44023
G1 X59.31 Y59.31
G0 F7200 X59.12 Y59.12
G0 X52.073 Y59.09
G0 X52.073 Y59.24
G1 F6000 X59.24 Y52.073 E106.53556
G1 X59.31 Y52.003
G0 F7200 X59.09 Y52.003
G0 X59.09 Y47.926
G0 X59.24 Y47.926
G1 F6000 X52.074 Y40.76 E106.63087
G1 X52.004 Y40.69
G0 F7200 X52.004 Y40.91
G0 X47.926 Y40.91
G0 X47.926 Y40.76
G1 F6000 X40.76 Y47.925 E106.72618
G1 X40.69 Y47.995
G0 F7200 X40.91 Y47.995
G0 X40.91 Y52.073
G0 X40.76 Y52.073
G1 F6000 X47.926 Y59.24 E106.8215
G1 X47.996 Y59.31
G0 F7200 X47.996 Y59.09
G0 X40.88 Y59.12
G0 X40.76 Y59.239
G1 F6000 X59.239 Y40.76 E107.06729
G1 X59.309 Y40.69
G0 F7200 X59.12 Y40.88
G0 X59.12 Y59.12
G0 X59.4 Y59.4
;TYPE:WALL-INNER
G1 F4800 X59.4 Y40.6 E107.24411
G1 X40.6 Y40.6 E107.42093
G1 X40.6 Y59.4 E107.59775
G1 X59.4 Y59.4 E107.77457
G0 F7200 X59.8 Y59.8
;TYPE:WALL-OUTER
G1 F2400 X59.8 Y40.2 E107.95891
G1 X40.2 Y40.2 E108.14326
G1 X40.2 Y59.8 E108.3276
G1 X59.8 Y59.8 E108.51194
G0 F7200 X59.8 Y59.6
G0 X58.79 Y58.908
;MESH:NONMESH
G0 F600 X58.79 Y58.908 Z3.45
G0 F7200 X40.88 Y40.88
G0 X40.76 Y40.76
;TIME_ELAPSED:299.532045
;LAYER:21
;TYPE:FILL
;MESH:20mm cube.stl
G1 F6000 X59.24 Y59.24 E108.75775
G1 X59.31 Y59.31
G0 F7200 X59.12 Y59.12
G0 X52.073 Y59.09
G0 X52.073 Y59.24
G1 F6000 X59.24 Y52.073 E108.85308
G1 X59.31 Y52.003
G0 F7200 X59.09 Y52.003
G0 X59.09 Y47.926
G0 X59.24 Y47.926
G1 F6000 X52.074 Y40.76 E108.94839
G1 X52.004 Y40.69
G0 F7200 X52.004 Y40.91
G0 X47.926 Y40.91
G0 X47.926 Y40.76
G1 F6000 X40.76 Y47.925 E109.0437
G1 X40.69 Y47.995
G0 F7200 X40.91 Y47.995
G0 X40.91 Y52.073
G0 X40.76 Y52.073
G1 F6000 X47.926 Y59.24 E109.13902
G1 X47.996 Y59.31
G0 F7200 X47.996 Y59.09
G0 X40.88 Y59.12
G0 X40.76 Y59.239
G1 F6000 X59.239 Y40.76 E109.38481
G1 X59.309 Y40.69
G0 F7200 X59.12 Y40.88
G0 X59.12 Y59.12
G0 X59.4 Y59.4
;TYPE:WALL-INNER
G1 F4800 X59.4 Y40.6 E109.56163
G1 X40.6 Y40.6 E109.73845
G1 X40.6 Y59.4 E109.91527
G1 X59.4 Y59.4 E110.09209
G0 F7200 X59.8 Y59.8
;TYPE:WALL-OUTER
G1 F2400 X59.8 Y40.2 E110.27643
G1 X40.2 Y40.2 E110.46078
G1 X40.2 Y59.8 E110.64512
G1 X59.8 Y59.8 E110.82946
G0 F7200 X59.8 Y59.6
G0 X58.79 Y58.908
;MESH:NONMESH
G0 F600 X58.79 Y58.908 Z3.6
G0 F7200 X40.88 Y40.88
G0 X40.76 Y40.76
;TIME_ELAPSED:304.516983
;LAYER:22
;TYPE:FILL
;MESH:20mm cube.stl
G1 F6000 X59.24 Y59.24 E111.07527
G1 X59.31 Y59.31
G0 F7200 X59.12 Y59.12
G0 X52.073 Y59.09
G0 X52.073 Y59.24
G1 F6000 X59.24 Y52.073 E111.1706
G1 X59.31 Y52.003
G0 F7200 X59.09 Y52.003
G0 X59.09 Y47.926
G0 X59.24 Y47.926
G1 F6000 X52.074 Y40.76 E111.26591
G1 X52.004 Y40.69
G0 F7200 X52.004 Y40.91
G0 X47.926 Y40.91
G0 X47.926 Y40.76
G1 F6000 X40.76 Y47.925 E111.36122
G1 X40.69 Y47.995
G0 F7200 X40.91 Y47.995
G0 X40.91 Y52.073
G0 X40.76 Y52.073
G1 F6000 X47.926 Y59.24 E111.45654
G1 X47.996 Y59.31
G0 F7200 X47.996 Y59.09
G0 X40.88 Y59.12
G0 X40.76 Y59.239
G1 F6000 X59.239 Y40.76 E111.70233
G1 X59.309 Y40.69
G0 F7200 X59.12 Y40.88
G0 X59.12 Y59.12
G0 X59.4 Y59.4
;TYPE:WALL-INNER
G1 F4800 X59.4 Y40.6 E111.87915
G1 X40.6 Y40.6 E112.05597
G1 X40.6 Y59.4 E112.23279
G1 X59.4 Y59.4 E112.40961
G0 F7200 X59.8 Y59.8
;TYPE:WALL-OUTER
G1 F2400 X59.8 Y40.2 E112.59395
G1 X40.2 Y40.2 E112.7783
G1 X40.2 Y59.8 E112.96264
G1 X59.8 Y59.8 E113.14699
G0 F7200 X59.8 Y59.6
G0 X58.79 Y58.908
;MESH:NONMESH
G0 F600 X58.79 Y58.908 Z3.75
G0 F7200 X40.88 Y40.88
G0 X40.76 Y40.76
;TIME_ELAPSED:309.501921
;LAYER:23
;TYPE:FILL
;MESH:20mm cube.stl
G1 F6000 X59.24 Y59.24 E113.39279
G1 X59.31 Y59.31
G0 F7200 X59.12 Y59.12
G0 X52.073 Y59.09
G0 X52.073 Y59.24
G1 F6000 X59.24 Y52.073 E113.48812
G1 X59.31 Y52.003
G0 F7200 X59.09 Y52.003
G0 X59.09 Y47.926
G0 X59.24 Y47.926
G1 F6000 X52.074 Y40.76 E113.58343
G1 X52.004 Y40.69
G0 F7200 X52.004 Y40.91
G0 X47.926 Y40.91
G0 X47.926 Y40.76
G1 F6000 X40.76 Y47.925 E113.67874
G1 X40.69 Y47.995
G0 F7200 X40.91 Y47.995
G0 X40.91 Y52.073
G0 X40.76 Y52.073
G1 F6000 X47.926 Y59.24 E113.77406
G1 X47.996 Y59.31
G0 F7200 X47.996 Y59.09
G0 X40.88 Y59.12
G0 X40.76 Y59.239
G1 F6000 X59.239 Y40.76 E114.01985
G1 X59.309 Y40.69
G0 F7200 X59.12 Y40.88
G0 X59.12 Y59.12
G0 X59.4 Y59.4
;TYPE:WALL-INNER
G1 F4800 X59.4 Y40.6 E114.19667
G1 X40.6 Y40.6 E114.37349
G1 X40.6 Y59.4 E114.55031
G1 X59.4 Y59.4 E114.72713
G0 F7200 X59.8 Y59.8
;TYPE:WALL-OUTER
G1 F2400 X59.8 Y40.2 E114.91148
G1 X40.2 Y40.2 E115.09582
G1 X40.2 Y59.8 E115.28016
G1 X59.8 Y59.8 E115.46451
G0 F7200 X59.8 Y59.6
G0 X58.79 Y58.908
;MESH:NONMESH
G0 F600 X58.79 Y58.908 Z3.9
G0 F7200 X40.88 Y40.88
G0 X40.76 Y40.76
;TIME_ELAPSED:314.486859
;LAYER:24
;TYPE:FILL
;MESH:20mm cube.stl
G1 F6000 X59.24 Y59.24 E115.71031
G1 X59.31 Y59.31
G0 F7200 X59.12 Y59.12
G0 X52.073 Y59.09
G0 X52.073 Y59.24
G1 F6000 X59.24 Y52.073 E115.80564
G1 X59.31 Y52.003
G0 F7200 X59.09 Y52.003
G0 X59.09 Y47.926
G0 X59.24 Y47.926
G1 F6000 X52.074 Y40.76 E115.90095
G1 X52.004 Y40.69
G0 F7200 X52.004 Y40.91
G0 X47.926 Y40.91
G0 X47.926 Y40.76
G1 F6000 X40.76 Y47.925 E115.99626
G1 X40.69 Y47.995
G0 F7200 X40.91 Y47.995
G0 X40.91 Y52.073
G0 X40.76 Y52.073
G1 F6000 X47.926 Y59.24 E116.09158
G1 X47.996 Y59.31
G0 F7200 X47.996 Y59.09
G0 X40.88 Y59.12
G0 X40.76 Y59.239
G1 F6000 X59.239 Y40.76 E116.33737
G1 X59.309 Y40.69
G0 F7200 X59.12 Y40.88
G0 X59.12 Y59.12
G0 X59.4 Y59.4
;TYPE:WALL-INNER
G1 F4800 X59.4 Y40.6 E116.51419
G1 X40.6 Y40.6 E116.69101
G1 X40.6 Y59.4 E116.86783
G1 X59.4 Y59.4 E117.04465
G0 F7200 X59.8 Y59.8
;TYPE:WALL-OUTER
G1 F2400 X59.8 Y40.2 E117.229
G1 X40.2 Y40.2 E117.41334
G1 X40.2 Y59.8 E117.59768
G1 X59.8 Y59.8 E117.78203
G0 F7200 X59.8 Y59.6
G0 X58.79 Y58.908
;MESH:NONMESH
G0 F600 X58.79 Y58.908 Z4.05
G0 F7200 X40.88 Y40.88
G0 X40.76 Y40.76
;TIME_ELAPSED:319.471797
;LAYER:25
;TYPE:FILL
;MESH:20mm cube.stl
G1 F6000 X59.24 Y59.24 E118.02783
G1 X59.31 Y59.31
G0 F7200 X59.12 Y59.12
G0 X52.073 Y59.09
G0 X52.073 Y59.24
G1 F6000 X59.24 Y52.073 E118.12316
G1 X59.31 Y52.003
G0 F7200 X59.09 Y52.003
G0 X59.09 Y47.926
G0 X59.24 Y47.926
G1 F6000 X52.074 Y40.76 E118.21847
G1 X52.004 Y40.69
G0 F7200 X52.004 Y40.91
G0 X47.926 Y40.91
G0 X47.926 Y40.76
G1 F6000 X40.76 Y47.925 E118.31378
G1 X40.69 Y47.995
G0 F7200 X40.91 Y47.995
G0 X40.91 Y52.073
G0 X40.76 Y52.073
G1 F6000 X47.926 Y59.24 E118.4091
G1 X47.996 Y59.31
G0 F7200 X47.996 Y59.09
G0 X40.88 Y59.12
G0 X40.76 Y59.239
G1 F6000 X59.239 Y40.76 E118.6549
G1 X59.309 Y40.69
G0 F7200 X59.12 Y40.88
G0 X59.12 Y59.12
G0 X59.4 Y59.4
;TYPE:WALL-INNER
G1 F4800 X59.4 Y40.6 E118.83171
G1 X40.6 Y40.6 E119.00853
G1 X40.6 Y59.4 E119.18535
G1 X59.4 Y59.4 E119.36217
G0 F7200 X59.8 Y59.8
;TYPE:WALL-OUTER
G1 F2400 X59.8 Y40.2 E119.54652
G1 X40.2 Y40.2 E119.73086
G1 X40.2 Y59.8 E119.9152
G1 X59.8 Y59.8 E120.09955
G0 F7200 X59.8 Y59.6
G0 X58.79 Y58.908
;MESH:NONMESH
G0 F600 X58.79 Y58.908 Z4.2
G0 F7200 X40.88 Y40.88
G0 X40.76 Y40.76
;TIME_ELAPSED:324.456735
;LAYER:26
;TYPE:FILL
;MESH:20mm cube.stl
G1 F6000 X59.24 Y59.24 E120.34535
G1 X59.31 Y59.31
G0 F7200 X59.12 Y59.12
G0 X52.073 Y59.09
G0 X52.073 Y59.24
G1 F6000 X59.24 Y52.073 E120.44068
G1 X59.31 Y52.003
G0 F7200 X59.09 Y52.003
G0 X59.09 Y47.926
G0 X59.24 Y47.926
G1 F6000 X52.074 Y40.76 E120.53599
G1 X52.004 Y40.69
G0 F7200 X52.004 Y40.91
G0 X47.926 Y40.91
G0 X47.926 Y40.76
G1 F6000 X40.76 Y47.925 E120.6313
G1 X40.69 Y47.995
G0 F7200 X40.91 Y47.995
G0 X40.91 Y52.073
G0 X40.76 Y52.073
G1 F6000 X47.926 Y59.24 E120.72663
G1 X47.996 Y59.31
G0 F7200 X47.996 Y59.09
G0 X40.88 Y59.12
G0 X40.76 Y59.239
G1 F6000 X59.239 Y40.76 E120.97242
G1 X59.309 Y40.69
G0 F7200 X59.12 Y40.88
G0 X59.12 Y59.12
G0 X59.4 Y59.4
;TYPE:WALL-INNER
G1 F4800 X59.4 Y40.6 E121.14923
G1 X40.6 Y40.6 E121.32605
G1 X40.6 Y59.4 E121.50287
G1 X59.4 Y59.4 E121.67969
G0 F7200 X59.8 Y59.8
;TYPE:WALL-OUTER
G1 F2400 X59.8 Y40.2 E121.86404
G1 X40.2 Y40.2 E122.04838
G1 X40.2 Y59.8 E122.23272
G1 X59.8 Y59.8 E122.41707
G0 F7200 X59.8 Y59.6
G0 X58.79 Y58.908
;MESH:NONMESH
G0 F600 X58.79 Y58.908 Z4.35
G0 F7200 X40.88 Y40.88
G0 X40.76 Y40.76
;TIME_ELAPSED:329.441673
;LAYER:27
;TYPE:FILL
;MESH:20mm cube.stl
G1 F6000 X59.24 Y59.24 E122.66287
G1 X59.31 Y59.31
G0 F7200 X59.12 Y59.12
G0 X52.073 Y59.09
G0 X52.073 Y59.24
G1 F6000 X59.24 Y52.073 E122.7582
G1 X59.31 Y52.003
G0 F7200 X59.09 Y52.003
G0 X59.09 Y47.926
G0 X59.24 Y47.926
G1 F6000 X52.074 Y40.76 E122.85351
G1 X52.004 Y40.69
G0 F7200 X52.004 Y40.91
G0 X47.926 Y40.91
G0 X47.926 Y40.76
G1 F6000 X40.76 Y47.925 E122.94882
G1 X40.69 Y47.995
G0 F7200 X40.91 Y47.995
G0 X40.91 Y52.073
G0 X40.76 Y52.073
G1 F6000 X47.926 Y59.24 E123.04415
G1 X47.996 Y59.31
G0 F7200 X47.996 Y59.09
G0 X40.88 Y59.12
G0 X40.76 Y59.239
G1 F6000 X59.239 Y40.76 E123.28994
G1 X59.309 Y40.69
G0 F7200 X59.12 Y40.88
G0 X59.12 Y59.12
G0 X59.4 Y59.4
;TYPE:WALL-INNER
G1 F4800 X59.4 Y40.6 E123.46676
G1 X40.6 Y40.6 E123.64357
G1 X40.6 Y59.4 E123.82039
G1 X59.4 Y59.4 E123.99721
G0 F7200 X59.8 Y59.8
;TYPE:WALL-OUTER
G1 F2400 X59.8 Y40.2 E124.18156
G1 X40.2 Y40.2 E124.3659
G1 X40.2 Y59.8 E124.55024
G1 X59.8 Y59.8 E124.73459
G0 F7200 X59.8 Y59.6
G0 X58.79 Y58.908
;MESH:NONMESH
G0 F600 X58.79 Y58.908 Z4.5
G0 F7200 X40.88 Y40.88
G0 X40.76 Y40.76
;TIME_ELAPSED:334.426611
;LAYER:28
;TYPE:FILL
;MESH:20mm cube.stl
G1 F6000 X59.24 Y59.24 E124.98039
G1 X59.31 Y59.31
G0 F7200 X59.12 Y59.12
G0 X52.073 Y59.09
G0 X52.073 Y59.24
G1 F6000 X59.24 Y52.073 E125.07572
G1 X59.31 Y52.003
G0 F7200 X59.09 Y52.003
G0 X59.09 Y47.926
G0 X59.24 Y47.926
G1 F6000 X52.074 Y40.76 E125.17103
G1 X52.004 Y40.69
G0 F7200 X52.004 Y40.91
G0 X47.926 Y40.91
G0 X47.926 Y40.76
G1 F6000 X40.76 Y47.925 E125.26634
G1 X40.69 Y47.995
G0 F7200 X40.91 Y47.995
G0 X40.91 Y52.073
G0 X40.76 Y52.073
G1 F6000 X47.926 Y59.24 E125.36167
G1 X47.996 Y59.31
G0 F7200 X47.996 Y59.09
G0 X40.88 Y59.12
G0 X40.76 Y59.239
G1 F6000 X59.239 Y40.76 E125.60746
G1 X59.309 Y40.69
G0 F7200 X59.12 Y40.88
G0 X59.12 Y59.12
G0 X59.4 Y59.4
;TYPE:WALL-INNER
G1 F4800 X59.4 Y40.6 E125.78428
G1 X40.6 Y40.6 E125.96109
G1 X40.6 Y59.4 E126.13791
G1 X59.4 Y59.4 E126.31473
G0 F7200 X59.8 Y59.8
;TYPE:WALL-OUTER
G1 F2400 X59.8 Y40.2 E126.49908
G1 X40.2 Y40.2 E126.68342
G1 X40.2 Y59.8 E126.86776
G1 X59.8 Y59.8 E127.05211
G0 F7200 X59.8 Y59.6
G0 X58.79 Y58.908
;MESH:NONMESH
G0 F600 X58.79 Y58.908 Z4.65
G0 F7200 X40.88 Y40.88
G0 X40.76 Y40.76
;TIME_ELAPSED:339.411549
;LAYER:29
;TYPE:FILL
;MESH:20mm cube.stl
G1 F6000 X59.24 Y59.24 E127.29791
G1 X59.31 Y59.31
G0 F7200 X59.12 Y59.12
G0 X52.073 Y59.09
G0 X52.073 Y59.24
G1 F6000 X59.24 Y52.073 E127.39324
G1 X59.31 Y52.003
G0 F7200 X59.09 Y52.003
G0 X59.09 Y47.926
G0 X59.24 Y47.926
G1 F6000 X52.074 Y40.76 E127.48855
G1 X52.004 Y40.69
G0 F7200 X52.004 Y40.91
G0 X47.926 Y40.91
G0 X47.926 Y40.76
G1 F6000 X40.76 Y47.925 E127.58386
G1 X40.69 Y47.995
G0 F7200 X40.91 Y47.995
G0 X40.91 Y52.073
G0 X40.76 Y52.073
G1 F6000 X47.926 Y59.24 E127.67919
G1 X47.996 Y59.31
G0 F7200 X47.996 Y59.09
G0 X40.88 Y59.12
G0 X40.76 Y59.239
G1 F6000 X59.239 Y40.76 E127.92498
G1 X59.309 Y40.69
G0 F7200 X59.12 Y40.88
G0 X59.12 Y59.12
G0 X59.4 Y59.4
;TYPE:WALL-INNER
G1 F4800 X59.4 Y40.6 E128.1018
G1 X40.6 Y40.6 E128.27861
G1 X40.6 Y59.4 E128.45543
G1 X59.4 Y59.4 E128.63225
G0 F7200 X59.8 Y59.8
;TYPE:WALL-OUTER
G1 F2400 X59.8 Y40.2 E128.8166
G1 X40.2 Y40.2 E129.00094
G1 X40.2 Y59.8 E129.18528
G1 X59.8 Y59.8 E129.36963
G0 F7200 X59.8 Y59.6
G0 X58.79 Y58.908
;MESH:NONMESH
G0 F600 X58.79 Y58.908 Z4.8
G0 F7200 X40.88 Y40.88
G0 X40.76 Y40.76
;TIME_ELAPSED:344.396486
;LAYER:30
;TYPE:FILL
;MESH:20mm cube.stl
G1 F6000 X59.24 Y59.24 E129.61543
G1 X59.31 Y59.31
G0 F7200 X59.12 Y59.12
G0 X52.073 Y59.09
G0 X52.073 Y59.24
G1 F6000 X59.24 Y52.073 E129.71076
G1 X59.31 Y52.003
G0 F7200 X59.09 Y52.003
G0 X59.09 Y47.926
G0 X59.24 Y47.926
G1 F6000 X52.074 Y40.76 E129.80608
G1 X52.004 Y40.69
G0 F7200 X52.004 Y40.91
G0 X47.926 Y40.91
G0 X47.926 Y40.76
G1 F6000 X40.76 Y47.925 E129.90138
G1 X40.69 Y47.995
G0 F7200 X40.91 Y47.995
G0 X40.91 Y52.073
G0 X40.76 Y52.073
G1 F6000 X47.926 Y59.24 E129.99671
G1 X47.996 Y59.31
G0 F7200 X47.996 Y59.09
G0 X40.88 Y59.12
G0 X40.76 Y59.239
G1 F6000 X59.239 Y40.76 E130.2425
G1 X59.309 Y40.69
G0 F7200 X59.12 Y40.88
G0 X59.12 Y59.12
G0 X59.4 Y59.4
;TYPE:WALL-INNER
G1 F4800 X59.4 Y40.6 E130.41932
G1 X40.6 Y40.6 E130.59614
G1 X40.6 Y59.4 E130.77295
G1 X59.4 Y59.4 E130.94977
G0 F7200 X59.8 Y59.8
;TYPE:WALL-OUTER
G1 F2400 X59.8 Y40.2 E131.13412
G1 X40.2 Y40.2 E131.31846
G1 X40.2 Y59.8 E131.5028
G1 X59.8 Y59.8 E131.68715
G0 F7200 X59.8 Y59.6
G0 X58.79 Y58.908
;MESH:NONMESH
G0 F600 X58.79 Y58.908 Z4.95
G0 F7200 X40.88 Y40.88
G0 X40.76 Y40.76
;TIME_ELAPSED:349.381424
;LAYER:31
;TYPE:FILL
;MESH:20mm cube.stl
G1 F6000 X59.24 Y59.24 E131.93295
G1 X59.31 Y59.31
G0 F7200 X59.12 Y59.12
G0 X52.073 Y59.09
G0 X52.073 Y59.24
G1 F6000 X59.24 Y52.073 E132.02828
G1 X59.31 Y52.003
G0 F7200 X59.09 Y52.003
G0 X59.09 Y47.926
G0 X59.24 Y47.926
G1 F6000 X52.074 Y40.76 E132.1236
G1 X52.004 Y40.69
G0 F7200 X52.004 Y40.91
G0 X47.926 Y40.91
G0 X47.926 Y40.76
G1 F6000 X40.76 Y47.925 E132.2189
G1 X40.69 Y47.995
G0 F7200 X40.91 Y47.995
G0 X40.91 Y52.073
G0 X40.76 Y52.073
G1 F6000 X47.926 Y59.24 E132.31423
G1 X47.996 Y59.31
G0 F7200 X47.996 Y59.09
G0 X40.88 Y59.12
G0 X40.76 Y59.239
G1 F6000 X59.239 Y40.76 E132.56002
G1 X59.309 Y40.69
G0 F7200 X59.12 Y40.88
G0 X59.12 Y59.12
G0 X59.4 Y59.4
;TYPE:WALL-INNER
G1 F4800 X59.4 Y40.6 E132.73684
G1 X40.6 Y40.6 E132.91366
G1 X40.6 Y59.4 E133.09047
G1 X59.4 Y59.4 E133.26729
G0 F7200 X59.8 Y59.8
;TYPE:WALL-OUTER
G1 F2400 X59.8 Y40.2 E133.45164
G1 X40.2 Y40.2 E133.63598
G1 X40.2 Y59.8 E133.82032
G1 X59.8 Y59.8 E134.00467
G0 F7200 X59.8 Y59.6
G0 X58.79 Y58.908
;MESH:NONMESH
G0 F600 X58.79 Y58.908 Z5.1
G0 F7200 X40.88 Y40.88
G0 X40.76 Y40.76
;TIME_ELAPSED:354.366362
;LAYER:32
;TYPE:FILL
;MESH:20mm cube.stl
G1 F6000 X59.24 Y59.24 E134.25047
G1 X59.31 Y59.31
G0 F7200 X59.12 Y59.12
G0 X52.073 Y59.09
G0 X52.073 Y59.24
G1 F6000 X59.24 Y52.073 E134.3458
G1 X59.31 Y52.003
G0 F7200 X59.09 Y52.003
G0 X59.09 Y47.926
G0 X59.24 Y47.926
G1 F6000 X52.074 Y40.76 E134.44112
G1 X52.004 Y40.69
G0 F7200 X52.004 Y40.91
G0 X47.926 Y40.91
G0 X47.926 Y40.76
G1 F6000 X40.76 Y47.925 E134.53642
G1 X40.69 Y47.995
G0 F7200 X40.91 Y47.995
G0 X40.91 Y52.073
G0 X40.76 Y52.073
G1 F6000 X47.926 Y59.24 E134.63175
G1 X47.996 Y59.31
G0 F7200 X47.996 Y59.09
G0 X40.88 Y59.12
G0 X40.76 Y59.239
G1 F6000 X59.239 Y40.76 E134.87754
G1 X59.309 Y40.69
G0 F7200 X59.12 Y40.88
G0 X59.12 Y59.12
G0 X59.4 Y59.4
;TYPE:WALL-INNER
G1 F4800 X59.4 Y40.6 E135.05436
G1 X40.6 Y40.6 E135.23118
G1 X40.6 Y59.4 E135.408
G1 X59.4 Y59.4 E135.58481
G0 F7200 X59.8 Y59.8
;TYPE:WALL-OUTER
G1 F2400 X59.8 Y40.2 E135.76916
G1 X40.2 Y40.2 E135.9535
G1 X40.2 Y59.8 E136.13784
G1 X59.8 Y59.8 E136.32219
G0 F7200 X59.8 Y59.6
G0 X58.79 Y58.908
;MESH:NONMESH
G0 F600 X58.79 Y58.908 Z5.25
G0 F7200 X40.88 Y40.88
G0 X40.76 Y40.76
;TIME_ELAPSED:359.351300
;LAYER:33
;TYPE:FILL
;MESH:20mm cube.stl
G1 F6000 X59.24 Y59.24 E136.56799
G1 X59.31 Y59.31
G0 F7200 X59.12 Y59.12
G0 X52.073 Y59.09
G0 X52.073 Y59.24
G1 F6000 X59.24 Y52.073 E136.66332
G1 X59.31 Y52.003
G0 F7200 X59.09 Y52.003
G0 X59.09 Y47.926
G0 X59.24 Y47.926
G1 F6000 X52.074 Y40.76 E136.75864
G1 X52.004 Y40.69
G0 F7200 X52.004 Y40.91
G0 X47.926 Y40.91
G0 X47.926 Y40.76
G1 F6000 X40.76 Y47.925 E136.85394
G1 X40.69 Y47.995
G0 F7200 X40.91 Y47.995
G0 X40.91 Y52.073
G0 X40.76 Y52.073
G1 F6000 X47.926 Y59.24 E136.94927
G1 X47.996 Y59.31
G0 F7200 X47.996 Y59.09
G0 X40.88 Y59.12
G0 X40.76 Y59.239
G1 F6000 X59.239 Y40.76 E137.19506
G1 X59.309 Y40.69
G0 F7200 X59.12 Y40.88
G0 X59.12 Y59.12
G0 X59.4 Y59.4
;TYPE:WALL-INNER
G1 F4800 X59.4 Y40.6 E137.37188
G1 X40.6 Y40.6 E137.5487
G1 X40.6 Y59.4 E137.72552
G1 X59.4 Y59.4 E137.90233
G0 F7200 X59.8 Y59.8
;TYPE:WALL-OUTER
G1 F2400 X59.8 Y40.2 E138.08668
G1 X40.2 Y40.2 E138.27102
G1 X40.2 Y59.8 E138.45536
G1 X59.8 Y59.8 E138.63971
G0 F7200 X59.8 Y59.6
G0 X58.79 Y58.908
;MESH:NONMESH
G0 F600 X58.79 Y58.908 Z5.4
G0 F7200 X40.88 Y40.88
G0 X40.76 Y40.76
;TIME_ELAPSED:364.336238
;LAYER:34
;TYPE:FILL
;MESH:20mm cube.stl
G1 F6000 X59.24 Y59.24 E138.88551
G1 X59.31 Y59.31
G0 F7200 X59.12 Y59.12
G0 X52.073 Y59.09
G0 X52.073 Y59.24
G1 F6000 X59.24 Y52.073 E138.98084
G1 X59.31 Y52.003
G0 F7200 X59.09 Y52.003
G0 X59.09 Y47.926
G0 X59.24 Y47.926
G1 F6000 X52.074 Y40.76 E139.07616
G1 X52.004 Y40.69
G0 F7200 X52.004 Y40.91
G0 X47.926 Y40.91
G0 X47.926 Y40.76
G1 F6000 X40.76 Y47.925 E139.17147
G1 X40.69 Y47.995
G0 F7200 X40.91 Y47.995
G0 X40.91 Y52.073
G0 X40.76 Y52.073
G1 F6000 X47.926 Y59.24 E139.26679
G1 X47.996 Y59.31
G0 F7200 X47.996 Y59.09
G0 X40.88 Y59.12
G0 X40.76 Y59.239
G1 F6000 X59.239 Y40.76 E139.51258
G1 X59.309 Y40.69
G0 F7200 X59.12 Y40.88
G0 X59.12 Y59.12
G0 X59.4 Y59.4
;TYPE:WALL-INNER
G1 F4800 X59.4 Y40.6 E139.6894
G1 X40.6 Y40.6 E139.86622
G1 X40.6 Y59.4 E140.04304
G1 X59.4 Y59.4 E140.21985
G0 F7200 X59.8 Y59.8
;TYPE:WALL-OUTER
G1 F2400 X59.8 Y40.2 E140.4042
G1 X40.2 Y40.2 E140.58854
G1 X40.2 Y59.8 E140.77289
G1 X59.8 Y59.8 E140.95723
G0 F7200 X59.8 Y59.6
G0 X58.79 Y58.908
;MESH:NONMESH
G0 F600 X58.79 Y58.908 Z5.55
G0 F7200 X40.88 Y40.88
G0 X40.76 Y40.76
;TIME_ELAPSED:369.321176
;LAYER:35
;TYPE:FILL
;MESH:20mm cube.stl
G1 F6000 X59.24 Y59.24 E141.20303
G1 X59.31 Y59.31
G0 F7200 X59.12 Y59.12
G0 X52.073 Y59.09
G0 X52.073 Y59.24
G1 F6000 X59.24 Y52.073 E141.29836
G1 X59.31 Y52.003
G0 F7200 X59.09 Y52.003
G0 X59.09 Y47.926
G0 X59.24 Y47.926
G1 F6000 X52.074 Y40.76 E141.39368
G1 X52.004 Y40.69
G0 F7200 X52.004 Y40.91
G0 X47.926 Y40.91
G0 X47.926 Y40.76
G1 F6000 X40.76 Y47.925 E141.48899
G1 X40.69 Y47.995
G0 F7200 X40.91 Y47.995
G0 X40.91 Y52.073
G0 X40.76 Y52.073
G1 F6000 X47.926 Y59.24 E141.58431
G1 X47.996 Y59.31
G0 F7200 X47.996 Y59.09
G0 X40.88 Y59.12
G0 X40.76 Y59.239
G1 F6000 X59.239 Y40.76 E141.8301
G1 X59.309 Y40.69
G0 F7200 X59.12 Y40.88
G0 X59.12 Y59.12
G0 X59.4 Y59.4
;TYPE:WALL-INNER
G1 F4800 X59.4 Y40.6 E142.00692
G1 X40.6 Y40.6 E142.18374
G1 X40.6 Y59.4 E142.36056
G1 X59.4 Y59.4 E142.53738
G0 F7200 X59.8 Y59.8
;TYPE:WALL-OUTER
G1 F2400 X59.8 Y40.2 E142.72172
G1 X40.2 Y40.2 E142.90606
G1 X40.2 Y59.8 E143.09041
G1 X59.8 Y59.8 E143.27475
G0 F7200 X59.8 Y59.6
G0 X58.79 Y58.908
;MESH:NONMESH
G0 F600 X58.79 Y58.908 Z5.7
G0 F7200 X40.88 Y40.88
G0 X40.76 Y40.76
;TIME_ELAPSED:374.306114
;LAYER:36
;TYPE:FILL
;MESH:20mm cube.stl
G1 F6000 X59.24 Y59.24 E143.52055
G1 X59.31 Y59.31
G0 F7200 X59.12 Y59.12
G0 X52.073 Y59.09
G0 X52.073 Y59.24
G1 F6000 X59.24 Y52.073 E143.61588
G1 X59.31 Y52.003
G0 F7200 X59.09 Y52.003
G0 X59.09 Y47.926
G0 X59.24 Y47.926
G1 F6000 X52.074 Y40.76 E143.7112
G1 X52.004 Y40.69
G0 F7200 X52.004 Y40.91
G0 X47.926 Y40.91
G0 X47.926 Y40.76
G1 F6000 X40.76 Y47.925 E143.80651
G1 X40.69 Y47.995
G0 F7200 X40.91 Y47.995
G0 X40.91 Y52.073
G0 X40.76 Y52.073
G1 F6000 X47.926 Y59.24 E143.90183
G1 X47.996 Y59.31
G0 F7200 X47.996 Y59.09
G0 X40.88 Y59.12
G0 X40.76 Y59.239
G1 F6000 X59.239 Y40.76 E144.14762
G1 X59.309 Y40.69
G0 F7200 X59.12 Y40.88
G0 X59.12 Y59.12
G0 X59.4 Y59.4
;TYPE:WALL-INNER
G1 F4800 X59.4 Y40.6 E144.32444
G1 X40.6 Y40.6 E144.50126
G1 X40.6 Y59.4 E144.67808
G1 X59.4 Y59.4 E144.8549
G0 F7200 X59.8 Y59.8
;TYPE:WALL-OUTER
G1 F2400 X59.8 Y40.2 E145.03924
G1 X40.2 Y40.2 E145.22358
G1 X40.2 Y59.8 E145.40793
G1 X59.8 Y59.8 E145.59227
G0 F7200 X59.8 Y59.6
G0 X58.79 Y58.908
;MESH:NONMESH
G0 F600 X58.79 Y58.908 Z5.85
G0 F7200 X40.88 Y40.88
G0 X40.76 Y40.76
;TIME_ELAPSED:379.291052
;LAYER:37
;TYPE:FILL
;MESH:20mm cube.stl
G1 F6000 X59.24 Y59.24 E145.83807
G1 X59.31 Y59.31
G0 F7200 X59.12 Y59.12
G0 X52.073 Y59.09
G0 X52.073 Y59.24
G1 F6000 X59.24 Y52.073 E145.9334
G1 X59.31 Y52.003
G0 F7200 X59.09 Y52.003
G0 X59.09 Y47.926
G0 X59.24 Y47.926
G1 F6000 X52.074 Y40.76 E146.02872
G1 X52.004 Y40.69
G0 F7200 X52.004 Y40.91
G0 X47.926 Y40.91
G0 X47.926 Y40.76
G1 F6000 X40.76 Y47.925 E146.12403
G1 X40.69 Y47.995
G0 F7200 X40.91 Y47.995
G0 X40.91 Y52.073
G0 X40.76 Y52.073
G1 F6000 X47.926 Y59.24 E146.21935
G1 X47.996 Y59.31
G0 F7200 X47.996 Y59.09
G0 X40.88 Y59.12
G0 X40.76 Y59.239
G1 F6000 X59.239 Y40.76 E146.46514
G1 X59.309 Y40.69
G0 F7200 X59.12 Y40.88
G0 X59.12 Y59.12
G0 X59.4 Y59.4
;TYPE:WALL-INNER
G1 F4800 X59.4 Y40.6 E146.64196
G1 X40.6 Y40.6 E146.81878
G1 X40.6 Y59.4 E146.9956
G1 X59.4 Y59.4 E147.17242
G0 F7200 X59.8 Y59.8
;TYPE:WALL-OUTER
G1 F2400 X59.8 Y40.2 E147.35676
G1 X40.2 Y40.2 E147.5411
G1 X40.2 Y59.8 E147.72545
G1 X59.8 Y59.8 E147.90979
G0 F7200 X59.8 Y59.6
G0 X58.79 Y58.908
;MESH:NONMESH
G0 F600 X58.79 Y58.908 Z6
G0 F7200 X40.88 Y40.88
G0 X40.76 Y40.76
;TIME_ELAPSED:384.275990
;LAYER:38
;TYPE:FILL
;MESH:20mm cube.stl
G1 F6000 X59.24 Y59.24 E148.15559
G1 X59.31 Y59.31
G0 F7200 X59.12 Y59.12
G0 X52.073 Y59.09
G0 X52.073 Y59.24
G1 F6000 X59.24 Y52.073 E148.25092
G1 X59.31 Y52.003
G0 F7200 X59.09 Y52.003
G0 X59.09 Y47.926
G0 X59.24 Y47.926
G1 F6000 X52.074 Y40.76 E148.34624
G1 X52.004 Y40.69
G0 F7200 X52.004 Y40.91
G0 X47.926 Y40.91
G0 X47.926 Y40.76
G1 F6000 X40.76 Y47.925 E148.44155
G1 X40.69 Y47.995
G0 F7200 X40.91 Y47.995
G0 X40.91 Y52.073
G0 X40.76 Y52.073
G1 F6000 X47.926 Y59.24 E148.53687
G1 X47.996 Y59.31
G0 F7200 X47.996 Y59.09
G0 X40.88 Y59.12
G0 X40.76 Y59.239
G1 F6000 X59.239 Y40.76 E148.78266
G1 X59.309 Y40.69
G0 F7200 X59.12 Y40.88
G0 X59.12 Y59.12
G0 X59.4 Y59.4
;TYPE:WALL-INNER
G1 F4800 X59.4 Y40.6 E148.95948
G1 X40.6 Y40.6 E149.1363
G1 X40.6 Y59.4 E149.31312
G1 X59.4 Y59.4 E149.48994
G0 F7200 X59.8 Y59.8
;TYPE:WALL-OUTER
G1 F2400 X59.8 Y40.2 E149.67428
G1 X40.2 Y40.2 E149.85862
G1 X40.2 Y59.8 E150.04297
G1 X59.8 Y59.8 E150.22731
G0 F7200 X59.8 Y59.6
G0 X58.79 Y58.908
;MESH:NONMESH
G0 F600 X58.79 Y58.908 Z6.15
G0 F7200 X40.88 Y40.88
G0 X40.76 Y40.76
;TIME_ELAPSED:389.260928
;LAYER:39
;TYPE:FILL
;MESH:20mm cube.stl
G1 F6000 X59.24 Y59.24 E150.47311
G1 X59.31 Y59.31
G0 F7200 X59.12 Y59.12
G0 X52.073 Y59.09
G0 X52.073 Y59.24
G1 F6000 X59.24 Y52.073 E150.56844
G1 X59.31 Y52.003
G0 F7200 X59.09 Y52.003
G0 X59.09 Y47.926
G0 X59.24 Y47.926
G1 F6000 X52.074 Y40.76 E150.66376
G1 X52.004 Y40.69
G0 F7200 X52.004 Y40.91
G0 X47.926 Y40.91
G0 X47.926 Y40.76
G1 F6000 X40.76 Y47.925 E150.75907
G1 X40.69 Y47.995
G0 F7200 X40.91 Y47.995
G0 X40.91 Y52.073
G0 X40.76 Y52.073
G1 F6000 X47.926 Y59.24 E150.85439
G1 X47.996 Y59.31
G0 F7200 X47.996 Y59.09
G0 X40.88 Y59.12
G0 X40.76 Y59.239
G1 F6000 X59.239 Y40.76 E151.10018
G1 X59.309 Y40.69
G0 F7200 X59.12 Y40.88
G0 X59.12 Y59.12
G0 X59.4 Y59.4
;TYPE:WALL-INNER
G1 F4800 X59.4 Y40.6 E151.277
G1 X40.6 Y40.6 E151.45382
G1 X40.6 Y59.4 E151.63064
G1 X59.4 Y59.4 E151.80746
G0 F7200 X59.8 Y59.8
;TYPE:WALL-OUTER
G1 F2400 X59.8 Y40.2 E151.9918
G1 X40.2 Y40.2 E152.17614
G1 X40.2 Y59.8 E152.36049
G1 X59.8 Y59.8 E152.54483
G0 F7200 X59.8 Y59.6
G0 X58.79 Y58.908
;MESH:NONMESH
G0 F600 X58.79 Y58.908 Z6.3
G0 F7200 X40.88 Y40.88
G0 X40.76 Y40.76
;TIME_ELAPSED:394.245866
;LAYER:40
;TYPE:FILL
;MESH:20mm cube.stl
G1 F6000 X59.24 Y59.24 E152.79063
G1 X59.31 Y59.31
G0 F7200 X59.12 Y59.12
G0 X52.073 Y59.09
G0 X52.073 Y59.24
G1 F6000 X59.24 Y52.073 E152.88596
G1 X59.31 Y52.003
G0 F7200 X59.09 Y52.003
G0 X59.09 Y47.926
G0 X59.24 Y47.926
G1 F6000 X52.074 Y40.76 E152.98128
G1 X52.004 Y40.69
G0 F7200 X52.004 Y40.91
G0 X47.926 Y40.91
G0 X47.926 Y40.76
G1 F6000 X40.76 Y47.925 E153.07659
G1 X40.69 Y47.995
G0 F7200 X40.91 Y47.995
G0 X40.91 Y52.073
G0 X40.76 Y52.073
G1 F6000 X47.926 Y59.24 E153.17191
G1 X47.996 Y59.31
G0 F7200 X47.996 Y59.09
G0 X40.88 Y59.12
G0 X40.76 Y59.239
G1 F6000 X59.239 Y40.76 E153.4177
G1 X59.309 Y40.69
G0 F7200 X59.12 Y40.88
G0 X59.12 Y59.12
G0 X59.4 Y59.4
;TYPE:WALL-INNER
G1 F4800 X59.4 Y40.6 E153.59452
G1 X40.6 Y40.6 E153.77134
G1 X40.6 Y59.4 E153.94816
G1 X59.4 Y59.4 E154.12498
G0 F7200 X59.8 Y59.8
;TYPE:WALL-OUTER
G1 F2400 X59.8 Y40.2 E154.30932
G1 X40.2 Y40.2 E154.49366
G1 X40.2 Y59.8 E154.67801
G1 X59.8 Y59.8 E154.86235
G0 F7200 X59.8 Y59.6
G0 X58.79 Y58.908
;MESH:NONMESH
G0 F600 X58.79 Y58.908 Z6.45
G0 F7200 X40.88 Y40.88
G0 X40.76 Y40.76
;TIME_ELAPSED:399.230804
;LAYER:41
;TYPE:FILL
;MESH:20mm cube.stl
G1 F6000 X59.24 Y59.24 E155.10815
G1 X59.31 Y59.31
G0 F7200 X59.12 Y59.12
G0 X52.073 Y59.09
G0 X52.073 Y59.24
G1 F6000 X59.24 Y52.073 E155.20348
G1 X59.31 Y52.003
G0 F7200 X59.09 Y52.003
G0 X59.09 Y47.926
G0 X59.24 Y47.926
G1 F6000 X52.074 Y40.76 E155.2988
G1 X52.004 Y40.69
G0 F7200 X52.004 Y40.91
G0 X47.926 Y40.91
G0 X47.926 Y40.76
G1 F6000 X40.76 Y47.925 E155.39411
G1 X40.69 Y47.995
G0 F7200 X40.91 Y47.995
G0 X40.91 Y52.073
G0 X40.76 Y52.073
G1 F6000 X47.926 Y59.24 E155.48943
G1 X47.996 Y59.31
G0 F7200 X47.996 Y59.09
G0 X40.88 Y59.12
G0 X40.76 Y59.239
G1 F6000 X59.239 Y40.76 E155.73522
G1 X59.309 Y40.69
G0 F7200 X59.12 Y40.88
G0 X59.12 Y59.12
G0 X59.4 Y59.4
;TYPE:WALL-INNER
G1 F4800 X59.4 Y40.6 E155.91204
G1 X40.6 Y40.6 E156.08886
G1 X40.6 Y59.4 E156.26568
G1 X59.4 Y59.4 E156.4425
G0 F7200 X59.8 Y59.8
;TYPE:WALL-OUTER
G1 F2400 X59.8 Y40.2 E156.62684
G1 X40.2 Y40.2 E156.81118
G1 X40.2 Y59.8 E156.99553
G1 X59.8 Y59.8 E157.17987
G0 F7200 X59.8 Y59.6
G0 X58.79 Y58.908
;MESH:NONMESH
G0 F600 X58.79 Y58.908 Z6.6
G0 F7200 X40.88 Y40.88
G0 X40.76 Y40.76
;TIME_ELAPSED:404.215742
;LAYER:42
;TYPE:FILL
;MESH:20mm cube.stl
G1 F6000 X59.24 Y59.24 E157.42567
G1 X59.31 Y59.31
G0 F7200 X59.12 Y59.12
G0 X52.073 Y59.09
G0 X52.073 Y59.24
G1 F6000 X59.24 Y52.073 E157.521
G1 X59.31 Y52.003
G0 F7200 X59.09 Y52.003
G0 X59.09 Y47.926
G0 X59.24 Y47.926
G1 F6000 X52.074 Y40.76 E157.61632
G1 X52.004 Y40.69
G0 F7200 X52.004 Y40.91
G0 X47.926 Y40.91
G0 X47.926 Y40.76
G1 F6000 X40.76 Y47.925 E157.71163
G1 X40.69 Y47.995
G0 F7200 X40.91 Y47.995
G0 X40.91 Y52.073
G0 X40.76 Y52.073
G1 F6000 X47.926 Y59.24 E157.80695
G1 X47.996 Y59.31
G0 F7200 X47.996 Y59.09
G0 X40.88 Y59.12
G0 X40.76 Y59.239
G1 F6000 X59.239 Y40.76 E158.05274
G1 X59.309 Y40.69
G0 F7200 X59.12 Y40.88
G0 X59.12 Y59.12
G0 X59.4 Y59.4
;TYPE:WALL-INNER
G1 F4800 X59.4 Y40.6 E158.22956
G1 X40.6 Y40.6 E158.40638
G1 X40.6 Y59.4 E158.5832
G1 X59.4 Y59.4 E158.76002
G0 F7200 X59.8 Y59.8
;TYPE:WALL-OUTER
G1 F2400 X59.8 Y40.2 E158.94436
G1 X40.2 Y40.2 E159.1287
G1 X40.2 Y59.8 E159.31305
G1 X59.8 Y59.8 E159.49739
G0 F7200 X59.8 Y59.6
G0 X58.79 Y58.908
;MESH:NONMESH
G0 F600 X58.79 Y58.908 Z6.75
G0 F7200 X40.88 Y40.88
G0 X40.76 Y40.76
;TIME_ELAPSED:409.200680
;LAYER:43
;TYPE:FILL
;MESH:20mm cube.stl
G1 F6000 X59.24 Y59.24 E159.74319
G1 X59.31 Y59.31
G0 F7200 X59.12 Y59.12
G0 X52.073 Y59.09
G0 X52.073 Y59.24
G1 F6000 X59.24 Y52.073 E159.83852
G1 X59.31 Y52.003
G0 F7200 X59.09 Y52.003
G0 X59.09 Y47.926
G0 X59.24 Y47.926
G1 F6000 X52.074 Y40.76 E159.93384
G1 X52.004 Y40.69
G0 F7200 X52.004 Y40.91
G0 X47.926 Y40.91
G0 X47.926 Y40.76
G1 F6000 X40.76 Y47.925 E160.02915
G1 X40.69 Y47.995
G0 F7200 X40.91 Y47.995
G0 X40.91 Y52.073
G0 X40.76 Y52.073
G1 F6000 X47.926 Y59.24 E160.12447
G1 X47.996 Y59.31
G0 F7200 X47.996 Y59.09
G0 X40.88 Y59.12
G0 X40.76 Y59.239
G1 F6000 X59.239 Y40.76 E160.37026
G1 X59.309 Y40.69
G0 F7200 X59.12 Y40.88
G0 X59.12 Y59.12
G0 X59.4 Y59.4
;TYPE:WALL-INNER
G1 F4800 X59.4 Y40.6 E160.54708
G1 X40.6 Y40.6 E160.7239
G1 X40.6 Y59.4 E160.90072
G1 X59.4 Y59.4 E161.07754
G0 F7200 X59.8 Y59.8
;TYPE:WALL-OUTER
G1 F2400 X59.8 Y40.2 E161.26188
G1 X40.2 Y40.2 E161.44622
G1 X40.2 Y59.8 E161.63057
G1 X59.8 Y59.8 E161.81491
G0 F7200 X59.8 Y59.6
G0 X58.79 Y58.908
;MESH:NONMESH
G0 F600 X58.79 Y58.908 Z6.9
G0 F7200 X40.88 Y40.88
G0 X40.76 Y40.76
;TIME_ELAPSED:414.185618
;LAYER:44
;TYPE:FILL
;MESH:20mm cube.stl
G1 F6000 X59.24 Y59.24 E162.06072
G1 X59.31 Y59.31
G0 F7200 X59.12 Y59.12
G0 X52.073 Y59.09
G0 X52.073 Y59.24
G1 F6000 X59.24 Y52.073 E162.15604
G1 X59.31 Y52.003
G0 F7200 X59.09 Y52.003
G0 X59.09 Y47.926
G0 X59.24 Y47.926
G1 F6000 X52.074 Y40.76 E162.25136
G1 X52.004 Y40.69
G0 F7200 X52.004 Y40.91
G0 X47.926 Y40.91
G0 X47.926 Y40.76
G1 F6000 X40.76 Y47.925 E162.34667
G1 X40.69 Y47.995
G0 F7200 X40.91 Y47.995
G0 X40.91 Y52.073
G0 X40.76 Y52.073
G1 F6000 X47.926 Y59.24 E162.44199
G1 X47.996 Y59.31
G0 F7200 X47.996 Y59.09
G0 X40.88 Y59.12
G0 X40.76 Y59.239
G1 F6000 X59.239 Y40.76 E162.68778
G1 X59.309 Y40.69
G0 F7200 X59.12 Y40.88
G0 X59.12 Y59.12
G0 X59.4 Y59.4
;TYPE:WALL-INNER
G1 F4800 X59.4 Y40.6 E162.8646
G1 X40.6 Y40.6 E163.04142
G1 X40.6 Y59.4 E163.21824
G1 X59.4 Y59.4 E163.39506
G0 F7200 X59.8 Y59.8
;TYPE:WALL-OUTER
G1 F2400 X59.8 Y40.2 E163.5794
G1 X40.2 Y40.2 E163.76374
G1 X40.2 Y59.8 E163.94809
G1 X59.8 Y59.8 E164.13243
G0 F7200 X59.8 Y59.6
G0 X58.79 Y58.908
;MESH:NONMESH
G0 F600 X58.79 Y58.908 Z7.05
G0 F7200 X40.88 Y40.88
G0 X40.76 Y40.76
;TIME_ELAPSED:419.170556
;LAYER:45
;TYPE:FILL
;MESH:20mm cube.stl
G1 F6000 X59.24 Y59.24 E164.37824
G1 X59.31 Y59.31
G0 F7200 X59.12 Y59.12
G0 X52.073 Y59.09
G0 X52.073 Y59.24
G1 F6000 X59.24 Y52.073 E164.47356
G1 X59.31 Y52.003
G0 F7200 X59.09 Y52.003
G0 X59.09 Y47.926
G0 X59.24 Y47.926
G1 F6000 X52.074 Y40.76 E164.56888
G1 X52.004 Y40.69
G0 F7200 X52.004 Y40.91
G0 X47.926 Y40.91
G0 X47.926 Y40.76
G1 F6000 X40.76 Y47.925 E164.66419
G1 X40.69 Y47.995
G0 F7200 X40.91 Y47.995
G0 X40.91 Y52.073
G0 X40.76 Y52.073
G1 F6000 X47.926 Y59.24 E164.75951
G1 X47.996 Y59.31
G0 F7200 X47.996 Y59.09
G0 X40.88 Y59.12
G0 X40.76 Y59.239
G1 F6000 X59.239 Y40.76 E165.0053
G1 X59.309 Y40.69
G0 F7200 X59.12 Y40.88
G0 X59.12 Y59.12
G0 X59.4 Y59.4
;TYPE:WALL-INNER
G1 F4800 X59.4 Y40.6 E165.18212
G1 X40.6 Y40.6 E165.35894
G1 X40.6 Y59.4 E165.53576
G1 X59.4 Y59.4 E165.71258
G0 F7200 X59.8 Y59.8
;TYPE:WALL-OUTER
G1 F2400 X59.8 Y40.2 E165.89692
G1 X40.2 Y40.2 E166.08126
G1 X40.2 Y59.8 E166.26561
G1 X59.8 Y59.8 E166.44995
G0 F7200 X59.8 Y59.6
G0 X58.79 Y58.908
;MESH:NONMESH
G0 F600 X58.79 Y58.908 Z7.2
G0 F7200 X40.88 Y40.88
G0 X40.76 Y40.76
;TIME_ELAPSED:424.155494
;LAYER:46
;TYPE:FILL
;MESH:20mm cube.stl
G1 F6000 X59.24 Y59.24 E166.69576
G1 X59.31 Y59.31
G0 F7200 X59.12 Y59.12
G0 X52.073 Y59.09
G0 X52.073 Y59.24
G1 F6000 X59.24 Y52.073 E166.79108
G1 X59.31 Y52.003
G0 F7200 X59.09 Y52.003
G0 X59.09 Y47.926
G0 X59.24 Y47.926
G1 F6000 X52.074 Y40.76 E166.8864
G1 X52.004 Y40.69
G0 F7200 X52.004 Y40.91
G0 X47.926 Y40.91
G0 X47.926 Y40.76
G1 F6000 X40.76 Y47.925 E166.98171
G1 X40.69 Y47.995
G0 F7200 X40.91 Y47.995
G0 X40.91 Y52.073
G0 X40.76 Y52.073
G1 F6000 X47.926 Y59.24 E167.07703
G1 X47.996 Y59.31
G0 F7200 X47.996 Y59.09
G0 X40.88 Y59.12
G0 X40.76 Y59.239
G1 F6000 X59.239 Y40.76 E167.32282
G1 X59.309 Y40.69
G0 F7200 X59.12 Y40.88
G0 X59.12 Y59.12
G0 X59.4 Y59.4
;TYPE:WALL-INNER
G1 F4800 X59.4 Y40.6 E167.49964
G1 X40.6 Y40.6 E167.67646
G1 X40.6 Y59.4 E167.85328
G1 X59.4 Y59.4 E168.0301
G0 F7200 X59.8 Y59.8
;TYPE:WALL-OUTER
G1 F2400 X59.8 Y40.2 E168.21444
G1 X40.2 Y40.2 E168.39879
G1 X40.2 Y59.8 E168.58313
G1 X59.8 Y59.8 E168.76747
G0 F7200 X59.8 Y59.6
G0 X58.79 Y58.908
;MESH:NONMESH
G0 F600 X58.79 Y58.908 Z7.35
G0 F7200 X40.88 Y40.88
G0 X40.76 Y40.76
;TIME_ELAPSED:429.140432
;LAYER:47
;TYPE:FILL
;MESH:20mm cube.stl
G1 F6000 X59.24 Y59.24 E169.01328
G1 X59.31 Y59.31
G0 F7200 X59.12 Y59.12
G0 X52.073 Y59.09
G0 X52.073 Y59.24
G1 F6000 X59.24 Y52.073 E169.1086
G1 X59.31 Y52.003
G0 F7200 X59.09 Y52.003
G0 X59.09 Y47.926
G0 X59.24 Y47.926
G1 F6000 X52.074 Y40.76 E169.20392
G1 X52.004 Y40.69
G0 F7200 X52.004 Y40.91
G0 X47.926 Y40.91
G0 X47.926 Y40.76
G1 F6000 X40.76 Y47.925 E169.29923
G1 X40.69 Y47.995
G0 F7200 X40.91 Y47.995
G0 X40.91 Y52.073
G0 X40.76 Y52.073
G1 F6000 X47.926 Y59.24 E169.39455
G1 X47.996 Y59.31
G0 F7200 X47.996 Y59.09
G0 X40.88 Y59.12
G0 X40.76 Y59.239
G1 F6000 X59.239 Y40.76 E169.64034
G1 X59.309 Y40.69
G0 F7200 X59.12 Y40.88
G0 X59.12 Y59.12
G0 X59.4 Y59.4
;TYPE:WALL-INNER
G1 F4800 X59.4 Y40.6 E169.81716
G1 X40.6 Y40.6 E169.99398
G1 X40.6 Y59.4 E170.1708
G1 X59.4 Y59.4 E170.34762
G0 F7200 X59.8 Y59.8
;TYPE:WALL-OUTER
G1 F2400 X59.8 Y40.2 E170.53196
G1 X40.2 Y40.2 E170.71631
G1 X40.2 Y59.8 E170.90065
G1 X59.8 Y59.8 E171.08499
G0 F7200 X59.8 Y59.6
G0 X58.79 Y58.908
;MESH:NONMESH
G0 F600 X58.79 Y58.908 Z7.5
G0 F7200 X40.88 Y40.88
G0 X40.76 Y40.76
;TIME_ELAPSED:434.125370
;LAYER:48
;TYPE:FILL
;MESH:20mm cube.stl
G1 F6000 X59.24 Y59.24 E171.3308
G1 X59.31 Y59.31
G0 F7200 X59.12 Y59.12
G0 X52.073 Y59.09
G0 X52.073 Y59.24
G1 F6000 X59.24 Y52.073 E171.42613
G1 X59.31 Y52.003
G0 F7200 X59.09 Y52.003
G0 X59.09 Y47.926
G0 X59.24 Y47.926
G1 F6000 X52.074 Y40.76 E171.52144
G1 X52.004 Y40.69
G0 F7200 X52.004 Y40.91
G0 X47.926 Y40.91
G0 X47.926 Y40.76
G1 F6000 X40.76 Y47.925 E171.61675
G1 X40.69 Y47.995
G0 F7200 X40.91 Y47.995
G0 X40.91 Y52.073
G0 X40.76 Y52.073
G1 F6000 X47.926 Y59.24 E171.71207
G1 X47.996 Y59.31
G0 F7200 X47.996 Y59.09
G0 X40.88 Y59.12
G0 X40.76 Y59.239
G1 F6000 X59.239 Y40.76 E171.95786
G1 X59.309 Y40.69
G0 F7200 X59.12 Y40.88
G0 X59.12 Y59.12
G0 X59.4 Y59.4
;TYPE:WALL-INNER
G1 F4800 X59.4 Y40.6 E172.13468
G1 X40.6 Y40.6 E172.3115
G1 X40.6 Y59.4 E172.48832
G1 X59.4 Y59.4 E172.66514
G0 F7200 X59.8 Y59.8
;TYPE:WALL-OUTER
G1 F2400 X59.8 Y40.2 E172.84948
G1 X40.2 Y40.2 E173.03383
G1 X40.2 Y59.8 E173.21817
G1 X59.8 Y59.8 E173.40251
G0 F7200 X59.8 Y59.6
G0 X58.79 Y58.908
;MESH:NONMESH
G0 F600 X58.79 Y58.908 Z7.65
G0 F7200 X40.88 Y40.88
G0 X40.76 Y40.76
;TIME_ELAPSED:439.110308
;LAYER:49
;TYPE:FILL
;MESH:20mm cube.stl
G1 F6000 X59.24 Y59.24 E173.64832
G1 X59.31 Y59.31
G0 F7200 X59.12 Y59.12
G0 X52.073 Y59.09
G0 X52.073 Y59.24
G1 F6000 X59.24 Y52.073 E173.74365
G1 X59.31 Y52.003
G0 F7200 X59.09 Y52.003
G0 X59.09 Y47.926
G0 X59.24 Y47.926
G1 F6000 X52.074 Y40.76 E173.83896
G1 X52.004 Y40.69
G0 F7200 X52.004 Y40.91
G0 X47.926 Y40.91
G0 X47.926 Y40.76
G1 F6000 X40.76 Y47.925 E173.93427
G1 X40.69 Y47.995
G0 F7200 X40.91 Y47.995
G0 X40.91 Y52.073
G0 X40.76 Y52.073
G1 F6000 X47.926 Y59.24 E174.02959
G1 X47.996 Y59.31
G0 F7200 X47.996 Y59.09
G0 X40.88 Y59.12
G0 X40.76 Y59.239
G1 F6000 X59.239 Y40.76 E174.27538
G1 X59.309 Y40.69
G0 F7200 X59.12 Y40.88
G0 X59.12 Y59.12
G0 X59.4 Y59.4
;TYPE:WALL-INNER
G1 F4800 X59.4 Y40.6 E174.4522
G1 X40.6 Y40.6 E174.62902
G1 X40.6 Y59.4 E174.80584
G1 X59.4 Y59.4 E174.98266
G0 F7200 X59.8 Y59.8
;TYPE:WALL-OUTER
G1 F2400 X59.8 Y40.2 E175.167
G1 X40.2 Y40.2 E175.35135
G1 X40.2 Y59.8 E175.53569
G1 X59.8 Y59.8 E175.72003
G0 F7200 X59.8 Y59.6
G0 X58.79 Y58.908
;MESH:NONMESH
G0 F600 X58.79 Y58.908 Z7.8
G0 F7200 X40.88 Y40.88
G0 X40.76 Y40.76
;TIME_ELAPSED:444.095246
;LAYER:50
;TYPE:FILL
;MESH:20mm cube.stl
G1 F6000 X59.24 Y59.24 E175.96584
G1 X59.31 Y59.31
G0 F7200 X59.12 Y59.12
G0 X52.073 Y59.09
G0 X52.073 Y59.24
G1 F6000 X59.24 Y52.073 E176.06117
G1 X59.31 Y52.003
G0 F7200 X59.09 Y52.003
G0 X59.09 Y47.926
G0 X59.24 Y47.926
G1 F6000 X52.074 Y40.76 E176.15648
G1 X52.004 Y40.69
G0 F7200 X52.004 Y40.91
G0 X47.926 Y40.91
G0 X47.926 Y40.76
G1 F6000 X40.76 Y47.925 E176.25179
G1 X40.69 Y47.995
G0 F7200 X40.91 Y47.995
G0 X40.91 Y52.073
G0 X40.76 Y52.073
G1 F6000 X47.926 Y59.24 E176.34711
G1 X47.996 Y59.31
G0 F7200 X47.996 Y59.09
G0 X40.88 Y59.12
G0 X40.76 Y59.239
G1 F6000 X59.239 Y40.76 E176.5929
G1 X59.309 Y40.69
G0 F7200 X59.12 Y40.88
G0 X59.12 Y59.12
G0 X59.4 Y59.4
;TYPE:WALL-INNER
G1 F4800 X59.4 Y40.6 E176.76972
G1 X40.6 Y40.6 E176.94654
G1 X40.6 Y59.4 E177.12336
G1 X59.4 Y59.4 E177.30018
G0 F7200 X59.8 Y59.8
;TYPE:WALL-OUTER
G1 F2400 X59.8 Y40.2 E177.48452
G1 X40.2 Y40.2 E177.66887
G1 X40.2 Y59.8 E177.85321
G1 X59.8 Y59.8 E178.03755
G0 F7200 X59.8 Y59.6
G0 X58.79 Y58.908
;MESH:NONMESH
G0 F600 X58.79 Y58.908 Z7.95
G0 F7200 X40.88 Y40.88
G0 X40.76 Y40.76
;TIME_ELAPSED:449.080184
;LAYER:51
;TYPE:FILL
;MESH:20mm cube.stl
G1 F6000 X59.24 Y59.24 E178.28336
G1 X59.31 Y59.31
G0 F7200 X59.12 Y59.12
G0 X52.073 Y59.09
G0 X52.073 Y59.24
G1 F6000 X59.24 Y52.073 E178.37869
G1 X59.31 Y52.003
G0 F7200 X59.09 Y52.003
G0 X59.09 Y47.926
G0 X59.24 Y47.926
G1 F6000 X52.074 Y40.76 E178.474
G1 X52.004 Y40.69
G0 F7200 X52.004 Y40.91
G0 X47.926 Y40.91
G0 X47.926 Y40.76
G1 F6000 X40.76 Y47.925 E178.56931
G1 X40.69 Y47.995
G0 F7200 X40.91 Y47.995
G0 X40.91 Y52.073
G0 X40.76 Y52.073
G1 F6000 X47.926 Y59.24 E178.66463
G1 X47.996 Y59.31
G0 F7200 X47.996 Y59.09
G0 X40.88 Y59.12
G0 X40.76 Y59.239
G1 F6000 X59.239 Y40.76 E178.91042
G1 X59.309 Y40.69
G0 F7200 X59.12 Y40.88
G0 X59.12 Y59.12
G0 X59.4 Y59.4
;TYPE:WALL-INNER
G1 F4800 X59.4 Y40.6 E179.08724
G1 X40.6 Y40.6 E179.26406
G1 X40.6 Y59.4 E179.44088
G1 X59.4 Y59.4 E179.6177
G0 F7200 X59.8 Y59.8
;TYPE:WALL-OUTER
G1 F2400 X59.8 Y40.2 E179.80204
G1 X40.2 Y40.2 E179.98639
G1 X40.2 Y59.8 E180.17073
G1 X59.8 Y59.8 E180.35507
G0 F7200 X59.8 Y59.6
G0 X58.79 Y58.908
;MESH:NONMESH
G0 F600 X58.79 Y58.908 Z8.1
G0 F7200 X40.88 Y40.88
G0 X40.76 Y40.76
;TIME_ELAPSED:454.065122
;LAYER:52
;TYPE:FILL
;MESH:20mm cube.stl
G1 F6000 X59.24 Y59.24 E180.60088
G1 X59.31 Y59.31
G0 F7200 X59.12 Y59.12
G0 X52.073 Y59.09
G0 X52.073 Y59.24
G1 F6000 X59.24 Y52.073 E180.69621
G1 X59.31 Y52.003
G0 F7200 X59.09 Y52.003
G0 X59.09 Y47.926
G0 X59.24 Y47.926
G1 F6000 X52.074 Y40.76 E180.79152
G1 X52.004 Y40.69
G0 F7200 X52.004 Y40.91
G0 X47.926 Y40.91
G0 X47.926 Y40.76
G1 F6000 X40.76 Y47.925 E180.88683
G1 X40.69 Y47.995
G0 F7200 X40.91 Y47.995
G0 X40.91 Y52.073
G0 X40.76 Y52.073
G1 F6000 X47.926 Y59.24 E180.98215
G1 X47.996 Y59.31
G0 F7200 X47.996 Y59.09
G0 X40.88 Y59.12
G0 X40.76 Y59.239
G1 F6000 X59.239 Y40.76 E181.22794
G1 X59.309 Y40.69
G0 F7200 X59.12 Y40.88
G0 X59.12 Y59.12
G0 X59.4 Y59.4
;TYPE:WALL-INNER
G1 F4800 X59.4 Y40.6 E181.40476
G1 X40.6 Y40.6 E181.58158
G1 X40.6 Y59.4 E181.7584
G1 X59.4 Y59.4 E181.93522
G0 F7200 X59.8 Y59.8
;TYPE:WALL-OUTER
G1 F2400 X59.8 Y40.2 E182.11956
G1 X40.2 Y40.2 E182.30391
G1 X40.2 Y59.8 E182.48825
G1 X59.8 Y59.8 E182.67259
G0 F7200 X59.8 Y59.6
G0 X58.79 Y58.908
;MESH:NONMESH
G0 F600 X58.79 Y58.908 Z8.25
G0 F7200 X40.88 Y40.88
G0 X40.76 Y40.76
;TIME_ELAPSED:459.050059
;LAYER:53
;TYPE:FILL
;MESH:20mm cube.stl
G1 F6000 X59.24 Y59.24 E182.9184
G1 X59.31 Y59.31
G0 F7200 X59.12 Y59.12
G0 X52.073 Y59.09
G0 X52.073 Y59.24
G1 F6000 X59.24 Y52.073 E183.01373
G1 X59.31 Y52.003
G0 F7200 X59.09 Y52.003
G0 X59.09 Y47.926
G0 X59.24 Y47.926
G1 F6000 X52.074 Y40.76 E183.10904
G1 X52.004 Y40.69
G0 F7200 X52.004 Y40.91
G0 X47.926 Y40.91
G0 X47.926 Y40.76
G1 F6000 X40.76 Y47.925 E183.20435
G1 X40.69 Y47.995
G0 F7200 X40.91 Y47.995
G0 X40.91 Y52.073
G0 X40.76 Y52.073
G1 F6000 X47.926 Y59.24 E183.29967
G1 X47.996 Y59.31
G0 F7200 X47.996 Y59.09
G0 X40.88 Y59.12
G0 X40.76 Y59.239
G1 F6000 X59.239 Y40.76 E183.54546
G1 X59.309 Y40.69
G0 F7200 X59.12 Y40.88
G0 X59.12 Y59.12
G0 X59.4 Y59.4
;TYPE:WALL-INNER
G1 F4800 X59.4 Y40.6 E183.72228
G1 X40.6 Y40.6 E183.8991
G1 X40.6 Y59.4 E184.07592
G1 X59.4 Y59.4 E184.25274
G0 F7200 X59.8 Y59.8
;TYPE:WALL-OUTER
G1 F2400 X59.8 Y40.2 E184.43708
G1 X40.2 Y40.2 E184.62143
G1 X40.2 Y59.8 E184.80577
G1 X59.8 Y59.8 E184.99011
G0 F7200 X59.8 Y59.6
G0 X58.79 Y58.908
;MESH:NONMESH
G0 F600 X58.79 Y58.908 Z8.4
G0 F7200 X40.88 Y40.88
G0 X40.76 Y40.76
;TIME_ELAPSED:464.034997
;LAYER:54
;TYPE:FILL
;MESH:20mm cube.stl
G1 F6000 X59.24 Y59.24 E185.23592
G1 X59.31 Y59.31
G0 F7200 X59.12 Y59.12
G0 X52.073 Y59.09
G0 X52.073 Y59.24
G1 F6000 X59.24 Y52.073 E185.33125
G1 X59.31 Y52.003
G0 F7200 X59.09 Y52.003
G0 X59.09 Y47.926
G0 X59.24 Y47.926
G1 F6000 X52.074 Y40.76 E185.42656
G1 X52.004 Y40.69
G0 F7200 X52.004 Y40.91
G0 X47.926 Y40.91
G0 X47.926 Y40.76
G1 F6000 X40.76 Y47.925 E185.52187
G1 X40.69 Y47.995
G0 F7200 X40.91 Y47.995
G0 X40.91 Y52.073
G0 X40.76 Y52.073
G1 F6000 X47.926 Y59.24 E185.61719
G1 X47.996 Y59.31
G0 F7200 X47.996 Y59.09
G0 X40.88 Y59.12
G0 X40.76 Y59.239
G1 F6000 X59.239 Y40.76 E185.86298
G1 X59.309 Y40.69
G0 F7200 X59.12 Y40.88
G0 X59.12 Y59.12
G0 X59.4 Y59.4
;TYPE:WALL-INNER
G1 F4800 X59.4 Y40.6 E186.0398
G1 X40.6 Y40.6 E186.21662
G1 X40.6 Y59.4 E186.39344
G1 X59.4 Y59.4 E186.57026
G0 F7200 X59.8 Y59.8
;TYPE:WALL-OUTER
G1 F2400 X59.8 Y40.2 E186.7546
G1 X40.2 Y40.2 E186.93895
G1 X40.2 Y59.8 E187.12329
G1 X59.8 Y59.8 E187.30763
G0 F7200 X59.8 Y59.6
G0 X58.79 Y58.908
;MESH:NONMESH
G0 F600 X58.79 Y58.908 Z8.55
G0 F7200 X40.88 Y40.88
G0 X40.76 Y40.76
;TIME_ELAPSED:469.019935
;LAYER:55
;TYPE:FILL
;MESH:20mm cube.stl
G1 F6000 X59.24 Y59.24 E187.55344
G1 X59.31 Y59.31
G0 F7200 X59.12 Y59.12
G0 X52.073 Y59.09
G0 X52.073 Y59.24
G1 F6000 X59.24 Y52.073 E187.64877
G1 X59.31 Y52.003
G0 F7200 X59.09 Y52.003
G0 X59.09 Y47.926
G0 X59.24 Y47.926
G1 F6000 X52.074 Y40.76 E187.74408
G1 X52.004 Y40.69
G0 F7200 X52.004 Y40.91
G0 X47.926 Y40.91
G0 X47.926 Y40.76
G1 F6000 X40.76 Y47.925 E187.83939
G1 X40.69 Y47.995
G0 F7200 X40.91 Y47.995
G0 X40.91 Y52.073
G0 X40.76 Y52.073
G1 F6000 X47.926 Y59.24 E187.93471
G1 X47.996 Y59.31
G0 F7200 X47.996 Y59.09
G0 X40.88 Y59.12
G0 X40.76 Y59.239
G1 F6000 X59.239 Y40.76 E188.1805
G1 X59.309 Y40.69
G0 F7200 X59.12 Y40.88
G0 X59.12 Y59.12
G0 X59.4 Y59.4
;TYPE:WALL-INNER
G1 F4800 X59.4 Y40.6 E188.35732
G1 X40.6 Y40.6 E188.53414
G1 X40.6 Y59.4 E188.71096
G1 X59.4 Y59.4 E188.88778
G0 F7200 X59.8 Y59.8
;TYPE:WALL-OUTER
G1 F2400 X59.8 Y40.2 E189.07212
G1 X40.2 Y40.2 E189.25647
G1 X40.2 Y59.8 E189.44081
G1 X59.8 Y59.8 E189.62515
G0 F7200 X59.8 Y59.6
G0 X58.79 Y58.908
;MESH:NONMESH
G0 F600 X58.79 Y58.908 Z8.7
G0 F7200 X40.88 Y40.88
G0 X40.76 Y40.76
;TIME_ELAPSED:474.004873
;LAYER:56
;TYPE:FILL
;MESH:20mm cube.stl
G1 F6000 X59.24 Y59.24 E189.87096
G1 X59.31 Y59.31
G0 F7200 X59.12 Y59.12
G0 X52.073 Y59.09
G0 X52.073 Y59.24
G1 F6000 X59.24 Y52.073 E189.96629
G1 X59.31 Y52.003
G0 F7200 X59.09 Y52.003
G0 X59.09 Y47.926
G0 X59.24 Y47.926
G1 F6000 X52.074 Y40.76 E190.0616
G1 X52.004 Y40.69
G0 F7200 X52.004 Y40.91
G0 X47.926 Y40.91
G0 X47.926 Y40.76
G1 F6000 X40.76 Y47.925 E190.15691
G1 X40.69 Y47.995
G0 F7200 X40.91 Y47.995
G0 X40.91 Y52.073
G0 X40.76 Y52.073
G1 F6000 X47.926 Y59.24 E190.25223
G1 X47.996 Y59.31
G0 F7200 X47.996 Y59.09
G0 X40.88 Y59.12
G0 X40.76 Y59.239
G1 F6000 X59.239 Y40.76 E190.49802
G1 X59.309 Y40.69
G0 F7200 X59.12 Y40.88
G0 X59.12 Y59.12
G0 X59.4 Y59.4
;TYPE:WALL-INNER
G1 F4800 X59.4 Y40.6 E190.67484
G1 X40.6 Y40.6 E190.85166
G1 X40.6 Y59.4 E191.02848
G1 X59.4 Y59.4 E191.2053
G0 F7200 X59.8 Y59.8
;TYPE:WALL-OUTER
G1 F2400 X59.8 Y40.2 E191.38964
G1 X40.2 Y40.2 E191.57399
G1 X40.2 Y59.8 E191.75833
G1 X59.8 Y59.8 E191.94268
G0 F7200 X59.8 Y59.6
G0 X58.79 Y58.908
;MESH:NONMESH
G0 F600 X58.79 Y58.908 Z8.85
G0 F7200 X40.88 Y40.88
G0 X40.76 Y40.76
;TIME_ELAPSED:478.989811
;LAYER:57
;TYPE:FILL
;MESH:20mm cube.stl
G1 F6000 X59.24 Y59.24 E192.18848
G1 X59.31 Y59.31
G0 F7200 X59.12 Y59.12
G0 X52.073 Y59.09
G0 X52.073 Y59.24
G1 F6000 X59.24 Y52.073 E192.28381
G1 X59.31 Y52.003
G0 F7200 X59.09 Y52.003
G0 X59.09 Y47.926
G0 X59.24 Y47.926
G1 F6000 X52.074 Y40.76 E192.37912
G1 X52.004 Y40.69
G0 F7200 X52.004 Y40.91
G0 X47.926 Y40.91
G0 X47.926 Y40.76
G1 F6000 X40.76 Y47.925 E192.47443
G1 X40.69 Y47.995
G0 F7200 X40.91 Y47.995
G0 X40.91 Y52.073
G0 X40.76 Y52.073
G1 F6000 X47.926 Y59.24 E192.56975
G1 X47.996 Y59.31
G0 F7200 X47.996 Y59.09
G0 X40.88 Y59.12
G0 X40.76 Y59.239
G1 F6000 X59.239 Y40.76 E192.81554
G1 X59.309 Y40.69
G0 F7200 X59.12 Y40.88
G0 X59.12 Y59.12
G0 X59.4 Y59.4
;TYPE:WALL-INNER
G1 F4800 X59.4 Y40.6 E192.99236
G1 X40.6 Y40.6 E193.16918
G1 X40.6 Y59.4 E193.346
G1 X59.4 Y59.4 E193.52282
G0 F7200 X59.8 Y59.8
;TYPE:WALL-OUTER
G1 F2400 X59.8 Y40.2 E193.70717
G1 X40.2 Y40.2 E193.89151
G1 X40.2 Y59.8 E194.07585
G1 X59.8 Y59.8 E194.2602
G0 F7200 X59.8 Y59.6
G0 X58.79 Y58.908
;MESH:NONMESH
G0 F600 X58.79 Y58.908 Z9
G0 F7200 X40.88 Y40.88
G0 X40.76 Y40.76
;TIME_ELAPSED:483.974749
;LAYER:58
;TYPE:FILL
;MESH:20mm cube.stl
G1 F6000 X59.24 Y59.24 E194.506
G1 X59.31 Y59.31
G0 F7200 X59.12 Y59.12
G0 X52.073 Y59.09
G0 X52.073 Y59.24
G1 F6000 X59.24 Y52.073 E194.60133
G1 X59.31 Y52.003
G0 F7200 X59.09 Y52.003
G0 X59.09 Y47.926
G0 X59.24 Y47.926
G1 F6000 X52.074 Y40.76 E194.69664
G1 X52.004 Y40.69
G0 F7200 X52.004 Y40.91
G0 X47.926 Y40.91
G0 X47.926 Y40.76
G1 F6000 X40.76 Y47.925 E194.79195
G1 X40.69 Y47.995
G0 F7200 X40.91 Y47.995
G0 X40.91 Y52.073
G0 X40.76 Y52.073
G1 F6000 X47.926 Y59.24 E194.88727
G1 X47.996 Y59.31
G0 F7200 X47.996 Y59.09
G0 X40.88 Y59.12
G0 X40.76 Y59.239
G1 F6000 X59.239 Y40.76 E195.13306
G1 X59.309 Y40.69
G0 F7200 X59.12 Y40.88
G0 X59.12 Y59.12
G0 X59.4 Y59.4
;TYPE:WALL-INNER
G1 F4800 X59.4 Y40.6 E195.30988
G1 X40.6 Y40.6 E195.4867
G1 X40.6 Y59.4 E195.66352
G1 X59.4 Y59.4 E195.84034
G0 F7200 X59.8 Y59.8
;TYPE:WALL-OUTER
G1 F2400 X59.8 Y40.2 E196.02469
G1 X40.2 Y40.2 E196.20903
G1 X40.2 Y59.8 E196.39337
G1 X59.8 Y59.8 E196.57772
G0 F7200 X59.8 Y59.6
G0 X58.79 Y58.908
;MESH:NONMESH
G0 F600 X58.79 Y58.908 Z9.15
G0 F7200 X40.88 Y40.88
G0 X40.76 Y40.76
;TIME_ELAPSED:488.959687
;LAYER:59
;TYPE:FILL
;MESH:20mm cube.stl
G1 F6000 X59.24 Y59.24 E196.82352
G1 X59.31 Y59.31
G0 F7200 X59.12 Y59.12
G0 X52.073 Y59.09
G0 X52.073 Y59.24
G1 F6000 X59.24 Y52.073 E196.91885
G1 X59.31 Y52.003
G0 F7200 X59.09 Y52.003
G0 X59.09 Y47.926
G0 X59.24 Y47.926
G1 F6000 X52.074 Y40.76 E197.01416
G1 X52.004 Y40.69
G0 F7200 X52.004 Y40.91
G0 X47.926 Y40.91
G0 X47.926 Y40.76
G1 F6000 X40.76 Y47.925 E197.10947
G1 X40.69 Y47.995
G0 F7200 X40.91 Y47.995
G0 X40.91 Y52.073
G0 X40.76 Y52.073
G1 F6000 X47.926 Y59.24 E197.20479
G1 X47.996 Y59.31
G0 F7200 X47.996 Y59.09
G0 X40.88 Y59.12
G0 X40.76 Y59.239
G1 F6000 X59.239 Y40.76 E197.45059
G1 X59.309 Y40.69
G0 F7200 X59.12 Y40.88
G0 X59.12 Y59.12
G0 X59.4 Y59.4
;TYPE:WALL-INNER
G1 F4800 X59.4 Y40.6 E197.6274
G1 X40.6 Y40.6 E197.80422
G1 X40.6 Y59.4 E197.98104
G1 X59.4 Y59.4 E198.15786
G0 F7200 X59.8 Y59.8
;TYPE:WALL-OUTER
G1 F2400 X59.8 Y40.2 E198.34221
G1 X40.2 Y40.2 E198.52655
G1 X40.2 Y59.8 E198.71089
G1 X59.8 Y59.8 E198.89524
G0 F7200 X59.8 Y59.6
G0 X58.79 Y58.908
;MESH:NONMESH
G0 F600 X58.79 Y58.908 Z9.3
G0 F7200 X40.88 Y40.88
G0 X40.76 Y40.76
;TIME_ELAPSED:493.944625
;LAYER:60
;TYPE:FILL
;MESH:20mm cube.stl
G1 F6000 X59.24 Y59.24 E199.14104
G1 X59.31 Y59.31
G0 F7200 X59.12 Y59.12
G0 X52.073 Y59.09
G0 X52.073 Y59.24
G1 F6000 X59.24 Y52.073 E199.23637
G1 X59.31 Y52.003
G0 F7200 X59.09 Y52.003
G0 X59.09 Y47.926
G0 X59.24 Y47.926
G1 F6000 X52.074 Y40.76 E199.33168
G1 X52.004 Y40.69
G0 F7200 X52.004 Y40.91
G0 X47.926 Y40.91
G0 X47.926 Y40.76
G1 F6000 X40.76 Y47.925 E199.42699
G1 X40.69 Y47.995
G0 F7200 X40.91 Y47.995
G0 X40.91 Y52.073
G0 X40.76 Y52.073
G1 F6000 X47.926 Y59.24 E199.52232
G1 X47.996 Y59.31
G0 F7200 X47.996 Y59.09
G0 X40.88 Y59.12
G0 X40.76 Y59.239
G1 F6000 X59.239 Y40.76 E199.76811
G1 X59.309 Y40.69
G0 F7200 X59.12 Y40.88
G0 X59.12 Y59.12
G0 X59.4 Y59.4
;TYPE:WALL-INNER
G1 F4800 X59.4 Y40.6 E199.94492
G1 X40.6 Y40.6 E200.12174
G1 X40.6 Y59.4 E200.29856
G1 X59.4 Y59.4 E200.47538
G0 F7200 X59.8 Y59.8
;TYPE:WALL-OUTER
G1 F2400 X59.8 Y40.2 E200.65973
G1 X40.2 Y40.2 E200.84407
G1 X40.2 Y59.8 E201.02841
G1 X59.8 Y59.8 E201.21276
G0 F7200 X59.8 Y59.6
G0 X58.79 Y58.908
;MESH:NONMESH
G0 F600 X58.79 Y58.908 Z9.45
G0 F7200 X40.88 Y40.88
G0 X40.76 Y40.76
;TIME_ELAPSED:498.929563
;LAYER:61
;TYPE:FILL
;MESH:20mm cube.stl
G1 F6000 X59.24 Y59.24 E201.45856
G1 X59.31 Y59.31
G0 F7200 X59.12 Y59.12
G0 X52.073 Y59.09
G0 X52.073 Y59.24
G1 F6000 X59.24 Y52.073 E201.55389
G1 X59.31 Y52.003
G0 F7200 X59.09 Y52.003
G0 X59.09 Y47.926
G0 X59.24 Y47.926
G1 F6000 X52.074 Y40.76 E201.6492
G1 X52.004 Y40.69
G0 F7200 X52.004 Y40.91
G0 X47.926 Y40.91
G0 X47.926 Y40.76
G1 F6000 X40.76 Y47.925 E201.74451
G1 X40.69 Y47.995
G0 F7200 X40.91 Y47.995
G0 X40.91 Y52.073
G0 X40.76 Y52.073
G1 F6000 X47.926 Y59.24 E201.83984
G1 X47.996 Y59.31
G0 F7200 X47.996 Y59.09
G0 X40.88 Y59.12
G0 X40.76 Y59.239
G1 F6000 X59.239 Y40.76 E202.08563
G1 X59.309 Y40.69
G0 F7200 X59.12 Y40.88
G0 X59.12 Y59.12
G0 X59.4 Y59.4
;TYPE:WALL-INNER
G1 F4800 X59.4 Y40.6 E202.26245
G1 X40.6 Y40.6 E202.43926
G1 X40.6 Y59.4 E202.61608
G1 X59.4 Y59.4 E202.7929
G0 F7200 X59.8 Y59.8
;TYPE:WALL-OUTER
G1 F2400 X59.8 Y40.2 E202.97725
G1 X40.2 Y40.2 E203.16159
G1 X40.2 Y59.8 E203.34593
G1 X59.8 Y59.8 E203.53028
G0 F7200 X59.8 Y59.6
G0 X58.79 Y58.908
;MESH:NONMESH
G0 F600 X58.79 Y58.908 Z9.6
G0 F7200 X40.88 Y40.88
G0 X40.76 Y40.76
;TIME_ELAPSED:503.914501
;LAYER:62
;TYPE:FILL
;MESH:20mm cube.stl
G1 F6000 X59.24 Y59.24 E203.77608
G1 X59.31 Y59.31
G0 F7200 X59.12 Y59.12
G0 X52.073 Y59.09
G0 X52.073 Y59.24
G1 F6000 X59.24 Y52.073 E203.87141
G1 X59.31 Y52.003
G0 F7200 X59.09 Y52.003
G0 X59.09 Y47.926
G0 X59.24 Y47.926
G1 F6000 X52.074 Y40.76 E203.96672
G1 X52.004 Y40.69
G0 F7200 X52.004 Y40.91
G0 X47.926 Y40.91
G0 X47.926 Y40.76
G1 F6000 X40.76 Y47.925 E204.06203
G1 X40.69 Y47.995
G0 F7200 X40.91 Y47.995
G0 X40.91 Y52.073
G0 X40.76 Y52.073
G1 F6000 X47.926 Y59.24 E204.15736
G1 X47.996 Y59.31
G0 F7200 X47.996 Y59.09
G0 X40.88 Y59.12
G0 X40.76 Y59.239
G1 F6000 X59.239 Y40.76 E204.40315
G1 X59.309 Y40.69
G0 F7200 X59.12 Y40.88
G0 X59.12 Y59.12
G0 X59.4 Y59.4
;TYPE:WALL-INNER
G1 F4800 X59.4 Y40.6 E204.57997
G1 X40.6 Y40.6 E204.75678
G1 X40.6 Y59.4 E204.9336
G1 X59.4 Y59.4 E205.11042
G0 F7200 X59.8 Y59.8
;TYPE:WALL-OUTER
G1 F2400 X59.8 Y40.2 E205.29477
G1 X40.2 Y40.2 E205.47911
G1 X40.2 Y59.8 E205.66345
G1 X59.8 Y59.8 E205.8478
G0 F7200 X59.8 Y59.6
G0 X58.79 Y58.908
;MESH:NONMESH
G0 F600 X58.79 Y58.908 Z9.75
G0 F7200 X40.88 Y40.88
G0 X40.76 Y40.76
;TIME_ELAPSED:508.899439
;LAYER:63
;TYPE:FILL
;MESH:20mm cube.stl
G1 F6000 X59.24 Y59.24 E206.0936
G1 X59.31 Y59.31
G0 F7200 X59.12 Y59.12
G0 X52.073 Y59.09
G0 X52.073 Y59.24
G1 F6000 X59.24 Y52.073 E206.18893
G1 X59.31 Y52.003
G0 F7200 X59.09 Y52.003
G0 X59.09 Y47.926
G0 X59.24 Y47.926
G1 F6000 X52.074 Y40.76 E206.28425
G1 X52.004 Y40.69
G0 F7200 X52.004 Y40.91
G0 X47.926 Y40.91
G0 X47.926 Y40.76
G1 F6000 X40.76 Y47.925 E206.37955
G1 X40.69 Y47.995
G0 F7200 X40.91 Y47.995
G0 X40.91 Y52.073
G0 X40.76 Y52.073
G1 F6000 X47.926 Y59.24 E206.47488
G1 X47.996 Y59.31
G0 F7200 X47.996 Y59.09
G0 X40.88 Y59.12
G0 X40.76 Y59.239
G1 F6000 X59.239 Y40.76 E206.72067
G1 X59.309 Y40.69
G0 F7200 X59.12 Y40.88
G0 X59.12 Y59.12
G0 X59.4 Y59.4
;TYPE:WALL-INNER
G1 F4800 X59.4 Y40.6 E206.89749
G1 X40.6 Y40.6 E207.0743
G1 X40.6 Y59.4 E207.25112
G1 X59.4 Y59.4 E207.42794
G0 F7200 X59.8 Y59.8
;TYPE:WALL-OUTER
G1 F2400 X59.8 Y40.2 E207.61229
G1 X40.2 Y40.2 E207.79663
G1 X40.2 Y59.8 E207.98097
G1 X59.8 Y59.8 E208.16532
G0 F7200 X59.8 Y59.6
G0 X58.79 Y58.908
;MESH:NONMESH
G0 F600 X58.79 Y58.908 Z9.9
G0 F7200 X40.88 Y40.88
G0 X40.76 Y40.76
;TIME_ELAPSED:513.884377
;LAYER:64
;TYPE:FILL
;MESH:20mm cube.stl
G1 F6000 X59.24 Y59.24 E208.41112
G1 X59.31 Y59.31
G0 F7200 X59.12 Y59.12
G0 X52.073 Y59.09
G0 X52.073 Y59.24
G1 F6000 X59.24 Y52.073 E208.50645
G1 X59.31 Y52.003
G0 F7200 X59.09 Y52.003
G0 X59.09 Y47.926
G0 X59.24 Y47.926
G1 F6000 X52.074 Y40.76 E208.60177
G1 X52.004 Y40.69
G0 F7200 X52.004 Y40.91
G0 X47.926 Y40.91
G0 X47.926 Y40.76
G1 F6000 X40.76 Y47.925 E208.69707
G1 X40.69 Y47.995
G0 F7200 X40.91 Y47.995
G0 X40.91 Y52.073
G0 X40.76 Y52.073
G1 F6000 X47.926 Y59.24 E208.7924
G1 X47.996 Y59.31
G0 F7200 X47.996 Y59.09
G0 X40.88 Y59.12
G0 X40.76 Y59.239
G1 F6000 X59.239 Y40.76 E209.03819
G1 X59.309 Y40.69
G0 F7200 X59.12 Y40.88
G0 X59.12 Y59.12
G0 X59.4 Y59.4
;TYPE:WALL-INNER
G1 F4800 X59.4 Y40.6 E209.21501
G1 X40.6 Y40.6 E209.39183
G1 X40.6 Y59.4 E209.56864
G1 X59.4 Y59.4 E209.74546
G0 F7200 X59.8 Y59.8
;TYPE:WALL-OUTER
G1 F2400 X59.8 Y40.2 E209.92981
G1 X40.2 Y40.2 E210.11415
G1 X40.2 Y59.8 E210.29849
G1 X59.8 Y59.8 E210.48284
G0 F7200 X59.8 Y59.6
G0 X58.79 Y58.908
;MESH:NONMESH
G0 F600 X58.79 Y58.908 Z10.05
G0 F7200 X40.88 Y40.88
G0 X40.76 Y40.76
;TIME_ELAPSED:518.869315
;LAYER:65
;TYPE:FILL
;MESH:20mm cube.stl
G1 F6000 X59.24 Y59.24 E210.72864
G1 X59.31 Y59.31
G0 F7200 X59.12 Y59.12
G0 X52.073 Y59.09
G0 X52.073 Y59.24
G1 F6000 X59.24 Y52.073 E210.82397
G1 X59.31 Y52.003
G0 F7200 X59.09 Y52.003
G0 X59.09 Y47.926
G0 X59.24 Y47.926
G1 F6000 X52.074 Y40.76 E210.91929
G1 X52.004 Y40.69
G0 F7200 X52.004 Y40.91
G0 X47.926 Y40.91
G0 X47.926 Y40.76
G1 F6000 X40.76 Y47.925 E211.01459
G1 X40.69 Y47.995
G0 F7200 X40.91 Y47.995
G0 X40.91 Y52.073
G0 X40.76 Y52.073
G1 F6000 X47.926 Y59.24 E211.10992
G1 X47.996 Y59.31
G0 F7200 X47.996 Y59.09
G0 X40.88 Y59.12
G0 X40.76 Y59.239
G1 F6000 X59.239 Y40.76 E211.35571
G1 X59.309 Y40.69
