;FLAVOR:Marlin
;TIME:138
;Filament used: 0.0166866m
;Layer height: 0.06
;MINX:0
;MINY:0
;MINZ:0.3
;MAXX:59.098
;MAXY:59.099
;MAXZ:3.54
;TARGET_MACHINE.NAME:Unknown
;Generated with Cura_SteamEngine 5.10.2
M104 S200
M105
M109 S200
G21 ; set units to mm
G90 ; absolute positioning
M82 ; force absolute extrusion
M5  ; laser OFF safety
G0 X0 Y0 ; reset origin
M82 ;absolute extrusion mode
G92 E0
G92 E0
G1 F1500 E-6.5
;LAYER_COUNT:55
;LAYER:0
M107
G0 F3600 X43.459 Y43.717 Z0.3
;TYPE:SKIRT
G1 F1500 E0
G1 F1800 X44.674 Y42.615 E0.03086
G1 X45.993 Y41.82 E0.05982
G1 X48.021 Y41.093 E0.10035
G1 X49.226 Y40.902 E0.1233
G1 X51.585 Y41.07 E0.16779
G1 X52.864 Y41.35 E0.19241
G1 X54.978 Y42.334 E0.23628
G1 X56.283 Y43.459 E0.26869
G1 X57.385 Y44.674 E0.29954
G1 X58.18 Y45.993 E0.32851
G1 X58.907 Y48.021 E0.36904
G1 X59.098 Y49.226 E0.39199
G1 X58.93 Y51.584 E0.43645
G1 X58.657 Y52.835 E0.46054
G1 X57.65 Y54.988 E0.50525
G1 X56.523 Y56.304 E0.53784
G1 X55.335 Y57.339 E0.56748
G1 X54.071 Y58.16 E0.59583
G1 X51.994 Y58.904 E0.63733
G1 X50.783 Y59.099 E0.6604
G1 X48.415 Y58.93 E0.70506
G1 X47.136 Y58.65 E0.72969
G1 X45.022 Y57.666 E0.77355
G1 X43.717 Y56.541 E0.80596
G1 X42.615 Y55.326 E0.83682
G1 X41.82 Y54.007 E0.86579
G1 X41.093 Y51.979 E0.90631
G1 X40.902 Y50.774 E0.92926
G1 X41.07 Y48.415 E0.97375
G1 X41.35 Y47.136 E0.99838
G1 X42.334 Y45.022 E1.04224
G1 X43.459 Y43.717 E1.07465
G0 F3600 X43.728 Y44.013
G1 F1800 X44.913 Y42.938 E1.10474
G1 X46.164 Y42.184 E1.13222
G1 X48.123 Y41.482 E1.17137
G1 X49.243 Y41.304 E1.1927
G1 X51.5 Y41.461 E1.23526
G1 X52.734 Y41.731 E1.25902
G1 X54.76 Y42.674 E1.30105
G1 X55.987 Y43.728 E1.33148
G1 X57.062 Y44.913 E1.36158
G1 X57.816 Y46.164 E1.38905
G1 X58.518 Y48.123 E1.4282
G1 X58.696 Y49.243 E1.44953
G1 X58.539 Y51.499 E1.49207
G1 X58.275 Y52.709 E1.51536
G1 X57.312 Y54.768 E1.55812
G1 X56.26 Y56.002 E1.58862
G1 X55.072 Y57.037 E1.61826
G1 X53.894 Y57.798 E1.64464
G1 X51.892 Y58.515 E1.68464
G1 X50.764 Y58.697 E1.70614
G1 X48.5 Y58.539 E1.74883
G1 X47.266 Y58.269 E1.77259
G1 X45.24 Y57.326 E1.81462
G1 X44.013 Y56.272 E1.84505
G1 X42.938 Y55.087 E1.87515
G1 X42.184 Y53.836 E1.90262
G1 X41.482 Y51.877 E1.94177
G1 X41.304 Y50.757 E1.9631
G1 X41.461 Y48.5 E2.00566
G1 X41.731 Y47.266 E2.02942
G1 X42.674 Y45.24 E2.07146
G1 X43.728 Y44.013 E2.10188
G0 F3600 X43.997 Y44.309
G1 F1800 X45.152 Y43.261 E2.13122
G1 X46.335 Y42.548 E2.1572
G1 X48.225 Y41.871 E2.19496
G1 X49.261 Y41.706 E2.2147
G1 X51.415 Y41.852 E2.25531
G1 X52.604 Y42.112 E2.2782
G1 X54.542 Y43.014 E2.31841
G1 X55.691 Y43.997 E2.34686
G1 X56.739 Y45.152 E2.37619
G1 X57.452 Y46.335 E2.40218
G1 X58.129 Y48.225 E2.43994
G1 X58.294 Y49.261 E2.45967
G1 X58.148 Y51.414 E2.50027
G1 X57.893 Y52.583 E2.52277
G1 X56.974 Y54.548 E2.56358
G1 X55.997 Y55.7 E2.59199
G1 X54.809 Y56.735 E2.62163
G1 X53.716 Y57.436 E2.64605
G1 X51.79 Y58.126 E2.68454
G1 X50.745 Y58.295 E2.70445
G1 X48.585 Y58.148 E2.74518
G1 X47.396 Y57.888 E2.76807
G1 X45.458 Y56.986 E2.80828
G1 X44.309 Y56.003 E2.83672
G1 X43.261 Y54.848 E2.86606
G1 X42.548 Y53.665 E2.89204
G1 X41.871 Y51.775 E2.92981
G1 X41.706 Y50.739 E2.94954
G1 X41.852 Y48.585 E2.99015
G1 X42.112 Y47.396 E3.01304
G1 X43.014 Y45.458 E3.05325
G1 X43.997 Y44.309 E3.0817
G0 F3600 X44.266 Y44.605
G1 F1800 X45.391 Y43.584 E3.11028
G1 X46.506 Y42.912 E3.13476
G1 X48.36 Y42.248 E3.17181
G1 X49.278 Y42.108 E3.18928
G1 X51.33 Y42.243 E3.22796
G1 X52.474 Y42.493 E3.24999
G1 X54.327 Y43.356 E3.28844
G1 X55.395 Y44.266 E3.31483
G1 X56.416 Y45.391 E3.34341
G1 X57.088 Y46.506 E3.3679
G1 X57.752 Y48.36 E3.40494
G1 X57.892 Y49.278 E3.42241
G1 X57.757 Y51.329 E3.46107
G1 X57.511 Y52.457 E3.48279
G1 X56.636 Y54.328 E3.52164
G1 X55.733 Y55.399 E3.54799
G1 X54.593 Y56.398 E3.57651
G1 X53.539 Y57.074 E3.60006
G1 X51.688 Y57.737 E3.63704
G1 X50.725 Y57.893 E3.65539
G1 X48.67 Y57.757 E3.69414
G1 X47.526 Y57.507 E3.71616
G1 X45.673 Y56.644 E3.75461
G1 X44.605 Y55.734 E3.78101
G1 X43.584 Y54.609 E3.80958
G1 X42.912 Y53.494 E3.83407
G1 X42.248 Y51.64 E3.87112
G1 X42.108 Y50.722 E3.88858
G1 X42.243 Y48.67 E3.92727
G1 X42.493 Y47.526 E3.94929
G1 X43.356 Y45.673 E3.98774
G1 X44.266 Y44.605 E4.01414
G0 F3600 X44.535 Y44.901
G1 F1800 X45.63 Y43.907 E4.04196
G1 X46.677 Y43.276 E4.06495
G1 X48.463 Y42.636 E4.10064
G1 X49.294 Y42.51 E4.11645
G1 X51.244 Y42.634 E4.1532
G1 X52.345 Y42.875 E4.1744
G1 X54.11 Y43.696 E4.21102
G1 X55.099 Y44.535 E4.23542
G1 X56.093 Y45.63 E4.26324
G1 X56.724 Y46.677 E4.28623
G1 X57.364 Y48.463 E4.32192
G1 X57.49 Y49.294 E4.33773
G1 X57.366 Y51.244 E4.37448
G1 X57.129 Y52.331 E4.39541
G1 X56.298 Y54.108 E4.43231
G1 X55.468 Y55.099 E4.45663
G1 X54.377 Y56.061 E4.48399
G1 X53.362 Y56.712 E4.50667
G1 X51.586 Y57.348 E4.54216
G1 X50.705 Y57.491 E4.55894
G1 X48.756 Y57.366 E4.59568
G1 X47.655 Y57.125 E4.61688
G1 X45.89 Y56.304 E4.6535
G1 X44.901 Y55.465 E4.6779
G1 X43.907 Y54.37 E4.70571
G1 X43.276 Y53.323 E4.72871
G1 X42.636 Y51.537 E4.7644
G1 X42.51 Y50.706 E4.78021
G1 X42.634 Y48.756 E4.81696
G1 X42.875 Y47.655 E4.83816
G1 X43.696 Y45.89 E4.87478
G1 X44.535 Y44.901 E4.89917
G0 F3600 X44.804 Y45.197
G1 F1800 X45.869 Y44.23 E4.92623
G1 X46.848 Y43.64 E4.94773
G1 X48.561 Y43.026 E4.98196
G1 X49.315 Y42.912 E4.99631
G1 X51.159 Y43.025 E5.03106
G1 X52.215 Y43.256 E5.05139
G1 X53.893 Y44.037 E5.08621
G1 X54.803 Y44.804 E5.1086
G1 X55.77 Y45.869 E5.13566
G1 X56.36 Y46.848 E5.15716
G1 X56.974 Y48.561 E5.19139
G1 X57.088 Y49.315 E5.20573
G1 X56.975 Y51.159 E5.24048
G1 X56.747 Y52.205 E5.26062
G1 X55.959 Y53.891 E5.29563
G1 X55.202 Y54.8 E5.31788
G1 X54.161 Y55.724 E5.34406
G1 X53.185 Y56.35 E5.36587
G1 X51.484 Y56.959 E5.39986
G1 X50.684 Y57.089 E5.41511
G1 X48.841 Y56.975 E5.44984
G1 X47.785 Y56.744 E5.47017
G1 X46.107 Y55.963 E5.50499
G1 X45.197 Y55.196 E5.52738
G1 X44.23 Y54.131 E5.55443
G1 X43.64 Y53.152 E5.57594
G1 X43.026 Y51.439 E5.61017
G1 X42.912 Y50.685 E5.62451
G1 X43.025 Y48.841 E5.65926
G1 X43.256 Y47.785 E5.6796
G1 X44.037 Y46.107 E5.71441
G1 X44.804 Y45.197 E5.7368
G0 F3600 X45.073 Y45.493
G1 F1800 X46.108 Y44.553 E5.7631
G1 X47.019 Y44.004 E5.78311
G1 X48.659 Y43.416 E5.81588
G1 X49.337 Y43.314 E5.82877
G1 X51.074 Y43.416 E5.8615
G1 X52.085 Y43.637 E5.88097
G1 X53.676 Y44.378 E5.91399
G1 X54.507 Y45.073 E5.93436
G1 X55.447 Y46.108 E5.96066
G1 X55.996 Y47.019 E5.98067
G1 X56.584 Y48.659 E6.01344
G1 X56.686 Y49.337 E6.02634
G1 X56.584 Y51.074 E6.05907
G1 X56.365 Y52.079 E6.07842
G1 X55.62 Y53.674 E6.11153
G1 X54.935 Y54.502 E6.13175
G1 X53.945 Y55.387 E6.15673
G1 X53.008 Y55.988 E6.17767
G1 X51.382 Y56.57 E6.21015
G1 X50.662 Y56.687 E6.22387
G1 X48.926 Y56.584 E6.25659
G1 X47.915 Y56.363 E6.27605
G1 X46.324 Y55.622 E6.30907
G1 X45.493 Y54.927 E6.32944
G1 X44.553 Y53.892 E6.35574
G1 X44.004 Y52.981 E6.37575
G1 X43.416 Y51.341 E6.40852
G1 X43.314 Y50.663 E6.42142
G1 X43.416 Y48.926 E6.45415
G1 X43.637 Y47.915 E6.47362
G1 X44.378 Y46.324 E6.50663
G1 X45.073 Y45.493 E6.52701
G0 F3600 X45.342 Y45.789
G1 F1800 X46.347 Y44.876 E6.55255
G1 X47.19 Y44.368 E6.57107
G1 X48.757 Y43.806 E6.60238
G1 X49.359 Y43.716 E6.61383
G1 X50.989 Y43.807 E6.64454
G1 X51.955 Y44.018 E6.66314
G1 X53.461 Y44.72 E6.69439
G1 X54.211 Y45.342 E6.71272
G1 X55.124 Y46.347 E6.73826
G1 X55.632 Y47.19 E6.75678
G1 X56.194 Y48.757 E6.78809
G1 X56.284 Y49.359 E6.79954
G1 X56.193 Y50.989 E6.83025
G1 X55.983 Y51.953 E6.84881
G1 X55.28 Y53.457 E6.88004
G1 X54.667 Y54.205 E6.89823
G1 X53.729 Y55.05 E6.92198
G1 X52.831 Y55.626 E6.94204
G1 X51.247 Y56.193 E6.97369
G1 X50.642 Y56.285 E6.9852
G1 X49.011 Y56.193 E7.01593
G1 X48.045 Y55.982 E7.03453
G1 X46.539 Y55.28 E7.06579
G1 X45.789 Y54.658 E7.08412
G1 X44.876 Y53.653 E7.10966
G1 X44.368 Y52.81 E7.12817
G1 X43.806 Y51.243 E7.15948
G1 X43.716 Y50.641 E7.17093
G1 X43.807 Y49.011 E7.20164
G1 X44.018 Y48.045 E7.22024
G1 X44.72 Y46.539 E7.2515
G1 X45.342 Y45.789 E7.26983
G0 F3600 X45.611 Y46.085
G1 F1800 X46.586 Y45.199 E7.29461
G1 X47.361 Y44.732 E7.31163
G1 X48.856 Y44.196 E7.3415
G1 X49.382 Y44.117 E7.35151
G1 X50.904 Y44.198 E7.38018
G1 X51.825 Y44.399 E7.39791
G1 X53.247 Y45.062 E7.42742
G1 X53.915 Y45.611 E7.44369
G1 X54.801 Y46.586 E7.46847
G1 X55.268 Y47.361 E7.48549
G1 X55.804 Y48.856 E7.51536
G1 X55.883 Y49.382 E7.52537
G1 X55.802 Y50.904 E7.55404
G1 X55.601 Y51.827 E7.57181
G1 X54.941 Y53.24 E7.60114
G1 X54.398 Y53.909 E7.61735
G1 X53.513 Y54.713 E7.63984
G1 X52.654 Y55.264 E7.65904
G1 X51.149 Y55.803 E7.68911
G1 X50.618 Y55.883 E7.69921
G1 X49.096 Y55.802 E7.72788
G1 X48.175 Y55.601 E7.74562
G1 X46.753 Y54.938 E7.77513
G1 X46.085 Y54.389 E7.79139
G1 X45.199 Y53.414 E7.81617
G1 X44.732 Y52.639 E7.83319
G1 X44.196 Y51.144 E7.86307
G1 X44.117 Y50.618 E7.87307
G1 X44.198 Y49.096 E7.90174
G1 X44.399 Y48.175 E7.91948
G1 X45.062 Y46.753 E7.94899
G1 X45.611 Y46.085 E7.96525
G0 F3600 X45.88 Y46.381
G1 F1800 X46.825 Y45.522 E7.98928
G1 X47.536 Y45.094 E8.00489
G1 X48.949 Y44.587 E8.03313
G1 X49.406 Y44.518 E8.04182
G1 X50.819 Y44.589 E8.06843
G1 X51.699 Y44.781 E8.08538
G1 X53.032 Y45.403 E8.11305
G1 X53.619 Y45.88 E8.12727
G1 X54.478 Y46.825 E8.1513
G1 X54.906 Y47.536 E8.16691
G1 X55.413 Y48.949 E8.19514
G1 X55.482 Y49.406 E8.20384
G1 X55.411 Y50.819 E8.23045
G1 X55.219 Y51.701 E8.24743
G1 X54.6 Y53.025 E8.27492
G1 X54.127 Y53.614 E8.28913
G1 X53.297 Y54.376 E8.31033
G1 X52.477 Y54.902 E8.32865
G1 X51.051 Y55.413 E8.35715
G1 X50.594 Y55.482 E8.36584
G1 X49.181 Y55.411 E8.39245
G1 X48.301 Y55.219 E8.4094
G1 X46.968 Y54.597 E8.43707
G1 X46.381 Y54.12 E8.45129
G1 X45.522 Y53.175 E8.47532
G1 X45.094 Y52.464 E8.49093
G1 X44.587 Y51.051 E8.51917
G1 X44.518 Y50.594 E8.52786
G1 X44.589 Y49.181 E8.55447
G1 X44.781 Y48.301 E8.57142
G1 X45.403 Y46.968 E8.59909
G1 X45.88 Y46.381 E8.61331
G0 F3600 X46.149 Y46.677
G1 F1800 X47.064 Y45.845 E8.63658
G1 X47.707 Y45.458 E8.65069
G1 X49.084 Y44.964 E8.67821
G1 X49.388 Y44.918 E8.684
G1 X50.734 Y44.98 E8.70934
G1 X51.573 Y45.163 E8.72549
G1 X52.817 Y45.744 E8.75132
G1 X53.323 Y46.149 E8.76351
G1 X54.155 Y47.064 E8.78678
G1 X54.542 Y47.707 E8.80089
G1 X55.036 Y49.084 E8.82841
G1 X55.082 Y49.388 E8.83419
G1 X55.02 Y50.734 E8.85954
G1 X54.837 Y51.575 E8.87573
G1 X54.259 Y52.811 E8.9014
G1 X53.856 Y53.319 E8.91359
G1 X53.026 Y54.081 E8.93479
G1 X52.301 Y54.54 E8.95093
G1 X50.916 Y55.036 E8.9786
G1 X50.612 Y55.082 E8.98439
G1 X49.266 Y55.02 E9.00973
G1 X48.427 Y54.837 E9.02589
G1 X47.183 Y54.256 E9.05171
G1 X46.677 Y53.851 E9.0639
G1 X45.845 Y52.936 E9.08717
G1 X45.458 Y52.293 E9.10128
G1 X44.964 Y50.916 E9.1288
G1 X44.918 Y50.612 E9.13459
G1 X44.98 Y49.266 E9.15993
G1 X45.163 Y48.427 E9.17608
G1 X45.744 Y47.183 E9.20191
G1 X46.149 Y46.677 E9.2141
G0 F3600 X46.418 Y46.973
G1 F1800 X47.303 Y46.168 E9.23661
G1 X47.878 Y45.822 E9.24923
G1 X49.219 Y45.341 E9.27603
G1 X49.371 Y45.318 E9.27892
G1 X50.649 Y45.371 E9.30298
G1 X51.447 Y45.545 E9.31834
G1 X52.605 Y46.086 E9.34239
G1 X53.027 Y46.418 E9.35249
G1 X53.832 Y47.303 E9.37499
G1 X54.178 Y47.878 E9.38761
G1 X54.659 Y49.219 E9.41441
G1 X54.682 Y49.371 E9.4173
G1 X54.629 Y50.649 E9.44137
G1 X54.455 Y51.449 E9.45677
G1 X53.917 Y52.599 E9.48065
G1 X53.585 Y53.024 E9.49079
G1 X52.755 Y53.786 E9.51199
G1 X52.126 Y54.177 E9.52592
G1 X50.781 Y54.659 E9.55279
G1 X50.629 Y54.682 E9.55569
G1 X49.351 Y54.629 E9.57975
G1 X48.553 Y54.455 E9.59511
G1 X47.395 Y53.914 E9.61915
G1 X46.973 Y53.582 E9.62925
G1 X46.168 Y52.697 E9.65176
G1 X45.822 Y52.122 E9.66438
G1 X45.341 Y50.781 E9.69118
G1 X45.318 Y50.629 E9.69407
G1 X45.371 Y49.351 E9.71813
G1 X45.545 Y48.553 E9.73349
G1 X46.086 Y47.395 E9.75754
G1 X46.418 Y46.973 E9.76764
G0 F3600 X46.687 Y47.269
G1 F1800 X47.543 Y46.491 E9.7894
G1 X48.049 Y46.186 E9.80051
G1 X49.354 Y45.718 E9.82659
G1 X50.632 Y45.771 E9.85065
G1 X51.32 Y45.926 E9.86391
G1 X52.391 Y46.427 E9.88616
G1 X52.731 Y46.687 E9.89421
G1 X53.509 Y47.543 E9.91597
G1 X53.814 Y48.049 E9.92708
G1 X54.282 Y49.354 E9.95316
G1 X54.229 Y50.632 E9.97722
G1 X54.074 Y51.32 E9.99048
G1 X53.573 Y52.39 E10.01271
G1 X53.315 Y52.729 E10.02072
G1 X52.513 Y53.465 E10.0412
G1 X51.952 Y53.814 E10.05363
G1 X50.646 Y54.282 E10.07972
G1 X49.368 Y54.229 E10.10378
G1 X48.68 Y54.074 E10.11705
G1 X47.609 Y53.573 E10.13929
G1 X47.269 Y53.313 E10.14734
G1 X46.491 Y52.457 E10.1691
G1 X46.186 Y51.951 E10.18021
G1 X45.718 Y50.646 E10.20629
G1 X45.771 Y49.368 E10.23035
G1 X45.926 Y48.68 E10.24362
G1 X46.427 Y47.609 E10.26586
G1 X46.687 Y47.269 E10.27391
G0 F3600 X46.956 Y47.565
G1 F1800 X47.782 Y46.814 E10.29491
G1 X48.224 Y46.548 E10.30462
G1 X49.413 Y46.121 E10.32838
G1 X50.615 Y46.171 E10.35101
G1 X51.19 Y46.306 E10.36212
G1 X52.184 Y46.771 E10.38276
G1 X52.435 Y46.956 E10.38863
G1 X53.186 Y47.782 E10.40963
G1 X53.452 Y48.224 E10.41933
G1 X53.879 Y49.413 E10.44309
G1 X53.829 Y50.615 E10.46572
G1 X53.694 Y51.19 E10.47683
G1 X53.229 Y52.184 E10.49748
G1 X53.045 Y52.434 E10.50332
G1 X52.271 Y53.144 E10.52307
G1 X51.774 Y53.453 E10.53408
G1 X50.587 Y53.879 E10.5578
G1 X49.385 Y53.829 E10.58043
G1 X48.81 Y53.694 E10.59154
G1 X47.816 Y53.229 E10.61219
G1 X47.565 Y53.044 E10.61805
G1 X46.814 Y52.218 E10.63905
G1 X46.548 Y51.776 E10.64876
G1 X46.121 Y50.587 E10.67252
G1 X46.171 Y49.385 E10.69515
G1 X46.306 Y48.81 E10.70626
G1 X46.771 Y47.816 E10.7269
G1 X46.956 Y47.565 E10.73277
G0 F3600 X47.225 Y47.861
G1 F1800 X48.051 Y47.11 E10.75377
G1 X48.359 Y46.924 E10.76054
G1 X49.472 Y46.524 E10.78278
G1 X50.598 Y46.571 E10.80398
G1 X51.057 Y46.685 E10.81288
G1 X52.014 Y47.133 E10.83275
G1 X52.139 Y47.225 E10.83567
G1 X52.89 Y48.051 E10.85667
G1 X53.076 Y48.359 E10.86344
G1 X53.476 Y49.472 E10.88569
G1 X53.429 Y50.598 E10.90689
G1 X53.315 Y51.057 E10.91578
G1 X52.867 Y52.014 E10.93566
G1 X52.775 Y52.139 E10.93858
G1 X52.001 Y52.849 E10.95834
G1 X51.597 Y53.092 E10.96721
G1 X50.528 Y53.476 E10.98857
G1 X49.402 Y53.429 E11.00977
G1 X48.943 Y53.315 E11.01867
G1 X47.986 Y52.867 E11.03854
G1 X47.861 Y52.775 E11.04146
G1 X47.11 Y51.949 E11.06246
G1 X46.924 Y51.641 E11.06923
G1 X46.524 Y50.528 E11.09148
G1 X46.571 Y49.402 E11.11268
G1 X46.685 Y48.943 E11.12157
G1 X47.133 Y47.986 E11.14145
G1 X47.225 Y47.861 E11.14437
G0 F3600 X47.495 Y48.156
G1 F1800 X48.269 Y47.446 E11.16413
G1 X48.494 Y47.3 E11.16917
G1 X49.531 Y46.927 E11.1899
G1 X50.581 Y46.971 E11.20967
G1 X50.887 Y47.047 E11.2156
G1 X51.844 Y47.495 E11.23548
G1 X52.554 Y48.269 E11.25524
G1 X52.7 Y48.494 E11.26028
G1 X53.073 Y49.531 E11.28101
G1 X53.029 Y50.581 E11.30078
G1 X52.953 Y50.887 E11.30671
G1 X52.505 Y51.844 E11.32659
G1 X51.731 Y52.554 E11.34634
G1 X51.462 Y52.716 E11.35225
G1 X50.469 Y53.073 E11.3721
G1 X49.419 Y53.029 E11.39187
G1 X49.113 Y52.953 E11.3978
G1 X48.156 Y52.505 E11.41768
G1 X47.446 Y51.731 E11.43743
G1 X47.3 Y51.506 E11.44248
G1 X46.927 Y50.469 E11.46321
G1 X46.971 Y49.419 E11.48298
G1 X47.047 Y49.113 E11.48891
G1 X47.495 Y48.156 E11.50878
G0 F3600 X47.824 Y48.397
G1 F1800 X48.539 Y47.741 E11.52704
G1 X48.673 Y47.66 E11.52998
G1 X49.59 Y47.33 E11.54831
G1 X50.564 Y47.371 E11.56665
G1 X50.717 Y47.409 E11.56962
G1 X51.603 Y47.824 E11.58802
G1 X52.259 Y48.539 E11.60627
G1 X52.34 Y48.673 E11.60922
G1 X52.67 Y49.59 E11.62755
G1 X52.629 Y50.564 E11.64589
G1 X52.591 Y50.717 E11.64886
G1 X52.176 Y51.603 E11.66726
G1 X51.461 Y52.259 E11.68551
G1 X51.327 Y52.34 E11.68846
G1 X50.41 Y52.67 E11.70679
G1 X49.436 Y52.629 E11.72513
G1 X49.283 Y52.591 E11.72809
G1 X48.397 Y52.176 E11.7465
G1 X47.741 Y51.461 E11.76475
G1 X47.66 Y51.327 E11.76769
G1 X47.33 Y50.41 E11.78603
G1 X47.371 Y49.436 E11.80436
G1 X47.409 Y49.283 E11.80733
G1 X47.824 Y48.397 E11.82573
G0 F3600 X48.153 Y48.638
G1 F1800 X48.809 Y48.036 E11.84248
G1 X49.65 Y47.733 E11.8593
G1 X50.547 Y47.771 E11.87618
G1 X51.362 Y48.153 E11.89312
G1 X51.964 Y48.809 E11.90986
G1 X52.267 Y49.65 E11.92668
G1 X52.229 Y50.547 E11.94357
G1 X51.847 Y51.362 E11.9605
G1 X51.191 Y51.964 E11.97725
G1 X50.35 Y52.267 E11.99406
G1 X49.453 Y52.229 E12.01095
G1 X48.638 Y51.847 E12.02788
G1 X48.036 Y51.191 E12.04463
G1 X47.733 Y50.35 E12.06144
G1 X47.771 Y49.453 E12.07833
G1 X48.153 Y48.638 E12.09526
G0 F3600 X48.81 Y49.122
G1 F1800 X49.233 Y48.733 E12.10607
G1 X49.77 Y48.539 E12.11681
G1 X50.355 Y48.565 E12.12783
G1 X50.878 Y48.81 E12.13869
G1 X51.267 Y49.233 E12.1495
G1 X51.461 Y49.77 E12.16024
G1 X51.435 Y50.355 E12.17126
G1 X51.19 Y50.878 E12.18212
G1 X50.767 Y51.267 E12.19293
G1 X50.23 Y51.461 E12.20367
G1 X49.645 Y51.435 E12.21469
G1 X49.122 Y51.19 E12.22555
G1 X48.733 Y50.767 E12.23636
G1 X48.539 Y50.23 E12.2471
G1 X48.565 Y49.645 E12.25812
G1 X48.81 Y49.122 E12.26898
G0 F3600 X48.481 Y48.881
G1 F1800 X49.022 Y48.384 E12.2828
G1 X49.71 Y48.136 E12.29656
G1 X50.451 Y48.168 E12.31051
G1 X51.119 Y48.481 E12.32438
G1 X51.616 Y49.022 E12.3382
G1 X51.864 Y49.71 E12.35196
G1 X51.832 Y50.451 E12.36591
G1 X51.519 Y51.119 E12.37979
G1 X50.978 Y51.616 E12.39361
G1 X50.29 Y51.864 E12.40736
G1 X49.549 Y51.832 E12.42131
G1 X48.881 Y51.519 E12.43519
G1 X48.384 Y50.978 E12.44901
G1 X48.136 Y50.29 E12.46277
G1 X48.168 Y49.549 E12.47672
G1 X48.481 Y48.881 E12.49059
G1 F1500 E5.99059
;MESH:15977_Sphere_with_Grid_v1.obj
G0 F3600 X49.388 Y49.431
G0 X50.296 Y50.591
;TYPE:WALL-INNER
G1 F1500 E12.49059
G1 F1800 X50.496 Y50.439 E12.49532
G1 X50.62 Y50.224 E12.49999
G1 X50.658 Y49.864 E12.5068
G1 X50.486 Y49.55 E12.51353
G1 X50.226 Y49.378 E12.5194
G1 X49.867 Y49.338 E12.52619
G1 X49.697 Y49.409 E12.52966
G1 X49.504 Y49.557 E12.53423
G1 X49.397 Y49.723 E12.53795
G1 X49.337 Y50.129 E12.54567
G1 X49.408 Y50.3 E12.54915
G1 X49.561 Y50.498 E12.55386
G1 X49.772 Y50.62 E12.55844
G1 X50.132 Y50.658 E12.56525
G1 X50.296 Y50.591 E12.56858
G0 F3600 X50.562 Y50.875
;TYPE:WALL-OUTER
G1 F1800 X50.653 Y50.847 E12.57037
G1 X50.851 Y50.649 E12.57564
G1 X51.031 Y50.278 E12.5834
G1 X51.059 Y49.787 E12.59265
G1 X50.924 Y49.458 E12.59934
G1 X50.875 Y49.434 E12.60037
G1 X50.847 Y49.344 E12.60214
G1 X50.65 Y49.149 E12.60735
G1 X50.278 Y48.965 E12.61516
G1 X49.788 Y48.937 E12.62439
G1 X49.346 Y49.15 E12.63362
G1 X49.149 Y49.347 E12.63886
G1 X48.965 Y49.718 E12.64665
G1 X48.937 Y50.208 E12.65588
G1 X49.15 Y50.651 E12.66513
G1 X49.348 Y50.851 E12.67042
G1 X49.718 Y51.031 E12.67816
G1 X50.209 Y51.059 E12.68741
G1 X50.538 Y50.924 E12.6941
G1 X50.562 Y50.875 E12.69513
G0 F3600 X50.653 Y50.847
G0 X50.727 Y50.773
G0 X50.175 Y50.161
;TYPE:SKIN
G1 F780.9 X50.051 Y50.236 E12.69827
G1 X49.892 Y50.215 E12.70175
G1 X49.756 Y50.044 E12.70649
G1 X49.821 Y49.831 E12.71131
G1 X49.948 Y49.756 E12.71451
G1 X50.165 Y49.824 E12.71944
G1 X50.237 Y49.944 E12.72247
G1 X50.175 Y50.161 E12.72737
;MESH:NONMESH
G0 F600 X50.175 Y50.161 Z0.36
G0 F3600 X50.416 Y50.737
;TIME_ELAPSED:26.613722
;LAYER:1
;note -- min layer time used
M106 S255
;TYPE:WALL-INNER
;MESH:15977_Sphere_with_Grid_v1.obj
G1 F600 X50.658 Y50.533 E12.72856
G1 X50.85 Y50.13 E12.73024
G1 X50.82 Y49.776 E12.73157
G1 X50.737 Y49.58 E12.73237
G1 X50.532 Y49.338 E12.73357
G1 X50.13 Y49.146 E12.73524
G1 X49.785 Y49.176 E12.73655
G1 X49.575 Y49.263 E12.7374
G1 X49.338 Y49.464 E12.73857
G1 X49.147 Y49.866 E12.74025
G1 X49.176 Y50.211 E12.74155
G1 X49.263 Y50.421 E12.7424
G1 X49.464 Y50.658 E12.74357
G1 X49.866 Y50.85 E12.74525
G1 X50.22 Y50.82 E12.74658
G1 X50.416 Y50.737 E12.74739
G0 F5400 X50.292 Y51.223
;TYPE:WALL-OUTER
G1 F600 X50.753 Y51.003 E12.74931
G1 X51.068 Y50.658 E12.75106
G1 X51.243 Y50.224 E12.75283
G1 X51.262 Y50.008 E12.75364
G1 X51.223 Y49.704 E12.75479
G1 X51.003 Y49.243 E12.75672
G1 X50.657 Y48.929 E12.75847
G1 X50.224 Y48.753 E12.76023
G1 X50.008 Y48.734 E12.76105
G1 X49.709 Y48.775 E12.76218
G1 X49.243 Y48.993 E12.76412
G1 X48.929 Y49.339 E12.76588
G1 X48.753 Y49.772 E12.76763
G1 X48.734 Y49.991 E12.76846
G1 X48.775 Y50.287 E12.76959
G1 X48.993 Y50.753 E12.77152
G1 X49.338 Y51.068 E12.77328
G1 X49.772 Y51.243 E12.77504
G1 X49.991 Y51.262 E12.77587
G1 X50.292 Y51.223 E12.77701
G0 F5400 X50.472 Y51.137
G0 X50.312 Y50.897
G0 X50.021 Y50.001
G0 X50.046 Y49.988
;TYPE:SKIN
G1 F512.8 X50.017 Y50.038 E12.77726
G1 X49.959 Y50.038 E12.77752
G1 X49.93 Y49.988 E12.77777
G1 X49.959 Y49.938 E12.77803
G1 X50.017 Y49.938 E12.77828
G1 X50.046 Y49.988 E12.77854
G0 F5400 X50.204 Y50.403
G1 F600 X49.962 Y50.466 E12.77948
G1 X49.764 Y50.395 E12.78027
G1 X49.65 Y50.302 E12.78082
G1 X49.522 Y49.97 E12.78216
G1 X49.597 Y49.764 E12.78299
G1 X49.69 Y49.65 E12.78354
G1 X49.882 Y49.548 E12.78436
G1 X50.017 Y49.524 E12.78487
G1 X50.308 Y49.658 E12.78608
G1 X50.4 Y49.775 E12.78664
G1 X50.467 Y50.034 E12.78764
G1 X50.4 Y50.219 E12.78838
G1 X50.204 Y50.403 E12.7894
;MESH:NONMESH
G0 X50.204 Y50.403 Z0.42
G0 F5400 X50.507 Y50.752
;TIME_ELAPSED:28.397219
;LAYER:2
;note -- min layer time used
;TYPE:WALL-INNER
;MESH:15977_Sphere_with_Grid_v1.obj
G1 F600 X50.718 Y50.543 E12.79051
G1 X50.832 Y50.364 E12.79131
G1 X50.896 Y50.099 E12.79234
G1 X50.896 Y49.895 E12.7931
G1 X50.752 Y49.488 E12.79473
G1 X50.544 Y49.278 E12.79584
G1 X50.366 Y49.166 E12.79663
G1 X50.114 Y49.104 E12.79761
G1 X49.882 Y49.104 E12.79848
G1 X49.488 Y49.244 E12.80005
G1 X49.278 Y49.452 E12.80117
G1 X49.165 Y49.631 E12.80196
G1 X49.104 Y49.88 E12.80293
G1 X49.125 Y50.228 E12.80424
G1 X49.244 Y50.507 E12.80538
G1 X49.453 Y50.718 E12.8065
G1 X49.633 Y50.832 E12.8073
G1 X49.897 Y50.896 E12.80832
G1 X50.103 Y50.896 E12.8091
G1 X50.507 Y50.752 E12.81071
G0 F7200 X50.189 Y51.296
;TYPE:WALL-OUTER
G1 F600 X50.734 Y51.09 E12.8129
G1 X51.053 Y50.774 E12.81459
G1 X51.189 Y50.556 E12.81556
G1 X51.269 Y50.329 E12.81646
G1 X51.296 Y49.811 E12.81841
G1 X51.09 Y49.262 E12.82062
G1 X50.775 Y48.942 E12.82231
G1 X50.556 Y48.808 E12.82328
G1 X50.192 Y48.704 E12.8247
G1 X49.685 Y48.726 E12.82661
G1 X49.262 Y48.906 E12.82834
G1 X48.943 Y49.222 E12.83003
G1 X48.807 Y49.443 E12.831
G1 X48.704 Y49.804 E12.83242
G1 X48.727 Y50.315 E12.83434
G1 X48.906 Y50.734 E12.83605
G1 X49.222 Y51.053 E12.83774
G1 X49.443 Y51.189 E12.83872
G1 X49.672 Y51.269 E12.83963
G1 X50.189 Y51.296 E12.84158
G0 F7200 X50.375 Y51.226
G0 X50.345 Y50.387
G0 X50.071 Y49.994
;TYPE:SKIN
G1 F409.6 X50.035 Y50.057 E12.84198
G1 X49.962 Y50.057 E12.84238
G1 X49.925 Y49.994 E12.84279
G1 X49.961 Y49.931 E12.84319
G1 X50.034 Y49.931 E12.84359
G1 X50.071 Y49.994 E12.84399
G0 F7200 X50.285 Y50.425
G1 F600 X50.038 Y50.511 E12.84497
G1 X49.804 Y50.481 E12.84586
G1 X49.556 Y50.276 E12.84707
G1 X49.498 Y50.142 E12.84762
G1 X49.509 Y49.807 E12.84888
G1 X49.706 Y49.568 E12.85005
G1 X49.942 Y49.488 E12.85099
G1 X50.194 Y49.517 E12.85194
G1 X50.425 Y49.707 E12.85306
G1 X50.511 Y49.954 E12.85405
G1 X50.481 Y50.188 E12.85494
G1 X50.285 Y50.425 E12.85609
G0 F7200 X50.131 Y50.158
;MESH:NONMESH
G0 F600 X50.131 Y50.158 Z0.48
G0 F7200 X50.479 Y50.818
;TIME_ELAPSED:30.331568
;LAYER:3
;note -- min layer time used
;TYPE:WALL-INNER
;MESH:15977_Sphere_with_Grid_v1.obj
G1 F600 X50.703 Y50.656 E12.85713
G1 X50.819 Y50.475 E12.85794
G1 X50.936 Y50.126 E12.85933
G1 X50.936 Y49.868 E12.8603
G1 X50.818 Y49.517 E12.86169
G1 X50.656 Y49.295 E12.86272
G1 X50.244 Y49.083 E12.86447
G1 X49.863 Y49.062 E12.8659
G1 X49.511 Y49.183 E12.8673
G1 X49.295 Y49.344 E12.86832
G1 X49.083 Y49.752 E12.87005
G1 X49.061 Y50.136 E12.87149
G1 X49.183 Y50.485 E12.87288
G1 X49.343 Y50.703 E12.8739
G1 X49.521 Y50.819 E12.8747
G1 X49.87 Y50.936 E12.87609
G1 X50.244 Y50.914 E12.8775
G1 X50.479 Y50.818 E12.87845
G0 F7200 X50.704 Y51.158
;TYPE:WALL-OUTER
G1 F600 X50.973 Y50.957 E12.87971
G1 X51.159 Y50.7 E12.88091
G1 X51.336 Y50.209 E12.88287
G1 X51.336 Y49.788 E12.88445
G1 X51.158 Y49.292 E12.88644
G1 X50.957 Y49.027 E12.88769
G1 X50.703 Y48.841 E12.88887
G1 X50.317 Y48.681 E12.89045
G1 X49.729 Y48.66 E12.89266
G1 X49.289 Y48.842 E12.89445
G1 X48.914 Y49.173 E12.89633
G1 X48.681 Y49.679 E12.89843
G1 X48.659 Y50.264 E12.90063
G1 X48.842 Y50.707 E12.90243
G1 X49.043 Y50.973 E12.90369
G1 X49.296 Y51.159 E12.90487
G1 X49.787 Y51.336 E12.90683
G1 X50.317 Y51.317 E12.90883
G1 X50.704 Y51.158 E12.9104
G0 F7200 X50.864 Y51.039
G0 X50.688 Y50.776
G0 X50.076 Y49.992
;TYPE:SKIN
G1 F357.1 X50.034 Y50.065 E12.91093
G1 X49.95 Y50.065 E12.91146
G1 X49.908 Y49.992 E12.912
G1 X49.95 Y49.919 E12.91253
G1 X50.034 Y49.919 E12.91306
G1 X50.076 Y49.992 E12.91359
G0 F7200 X50.417 Y50.383
G1 F600 X50.159 Y50.531 E12.91471
G1 X49.826 Y50.528 E12.91596
G1 X49.613 Y50.417 E12.91687
G1 X49.457 Y50.144 E12.91805
G1 X49.442 Y49.923 E12.91888
G1 X49.57 Y49.622 E12.92011
G1 X49.853 Y49.457 E12.92135
G1 X50.069 Y49.443 E12.92216
G1 X50.38 Y49.572 E12.92343
G1 X50.531 Y49.833 E12.92456
G1 X50.528 Y50.166 E12.92582
G1 X50.417 Y50.383 E12.92673
G0 F7200 X49.845 Y50.022
;MESH:NONMESH
G0 F600 X49.845 Y50.022 Z0.54
G0 F7200 X49.861 Y50.035
G0 X50.507 Y50.856
;TIME_ELAPSED:32.378364
;LAYER:4
;note -- min layer time used
;TYPE:WALL-INNER
;MESH:15977_Sphere_with_Grid_v1.obj
G1 F600 X50.791 Y50.599 E12.92817
G1 X50.987 Y50.171 E12.92994
G1 X50.967 Y49.77 E12.93145
G1 X50.856 Y49.491 E12.93258
G1 X50.599 Y49.205 E12.93403
G1 X50.176 Y49.01 E12.93578
G1 X49.757 Y49.033 E12.93736
G1 X49.494 Y49.139 E12.93843
G1 X49.205 Y49.397 E12.93989
G1 X49.009 Y49.824 E12.94165
G1 X49.033 Y50.237 E12.94321
G1 X49.201 Y50.596 E12.9447
G1 X49.487 Y50.853 E12.94615
G1 X49.824 Y50.988 E12.94751
G1 X50.024 Y51.003 E12.94827
G1 X50.507 Y50.856 E12.95017
G0 F7200 X50.31 Y51.365
;TYPE:WALL-OUTER
G1 F600 X50.725 Y51.2 E12.95185
G1 X51.173 Y50.786 E12.95414
G1 X51.382 Y50.262 E12.95627
G1 X51.406 Y49.938 E12.95749
G1 X51.365 Y49.686 E12.95845
G1 X51.199 Y49.272 E12.96013
G1 X50.83 Y48.869 E12.96218
G1 X50.266 Y48.614 E12.96451
G1 X49.939 Y48.594 E12.96574
G1 X49.68 Y48.633 E12.96673
G1 X49.272 Y48.797 E12.96838
G1 X48.83 Y49.205 E12.97065
G1 X48.614 Y49.734 E12.9728
G1 X48.594 Y50.057 E12.97401
G1 X48.633 Y50.315 E12.97499
G1 X48.867 Y50.828 E12.97712
G1 X49.271 Y51.197 E12.97917
G1 X49.734 Y51.382 E12.98105
G1 X50.058 Y51.406 E12.98227
G1 X50.31 Y51.365 E12.98323
G0 F7200 X50.495 Y51.292
G0 X50.191 Y50.655
G0 X50.197 Y50.022
;TYPE:SKIN
G1 F617 X50.103 Y50.171 E12.98388
G1 X49.966 Y50.198 E12.98439
G1 X49.822 Y50.105 E12.98502
G1 X49.782 Y49.97 E12.98553
G1 X49.866 Y49.834 E12.98612
G1 X50.014 Y49.793 E12.98668
G1 X50.171 Y49.89 E12.98735
G1 X50.197 Y50.022 E12.98784
G0 F7200 X50.299 Y50.527
G1 F600 X50.143 Y50.59 E12.98848
G1 X49.903 Y50.605 E12.98938
G1 X49.622 Y50.475 E12.99055
G1 X49.472 Y50.308 E12.99139
G1 X49.378 Y49.981 E12.99267
G1 X49.473 Y49.683 E12.99385
G1 X49.623 Y49.515 E12.9947
G1 X49.841 Y49.409 E12.99561
G1 X50.094 Y49.392 E12.99656
G1 X50.37 Y49.52 E12.99771
G1 X50.527 Y49.695 E12.99859
G1 X50.59 Y49.853 E12.99923
G1 X50.605 Y50.089 E13.00012
G1 X50.471 Y50.37 E13.00129
G1 X50.299 Y50.527 E13.00217
;MESH:NONMESH
G0 X50.299 Y50.527 Z0.6
G0 F7200 X50.402 Y50.952
;TIME_ELAPSED:34.523267
;LAYER:5
;note -- min layer time used
;TYPE:WALL-INNER
;MESH:15977_Sphere_with_Grid_v1.obj
G1 F600 X50.699 Y50.74 E13.00354
G1 X50.949 Y50.404 E13.00512
G1 X51.032 Y50.077 E13.00638
G1 X51.032 Y49.918 E13.00698
G1 X50.952 Y49.598 E13.00822
G1 X50.738 Y49.295 E13.00962
G1 X50.404 Y49.047 E13.01118
G1 X50.077 Y48.964 E13.01245
G1 X49.92 Y48.964 E13.01304
G1 X49.597 Y49.048 E13.0143
G1 X49.295 Y49.258 E13.01568
G1 X49.047 Y49.592 E13.01725
G1 X48.964 Y49.919 E13.01852
G1 X48.964 Y50.076 E13.01911
G1 X49.048 Y50.401 E13.02037
G1 X49.256 Y50.7 E13.02174
G1 X49.592 Y50.949 E13.02332
G1 X49.919 Y51.032 E13.02458
G1 X50.079 Y51.032 E13.02519
G1 X50.402 Y50.952 E13.02644
G0 F7200 X50.55 Y51.328
;TYPE:WALL-OUTER
G1 F600 X50.982 Y51.025 E13.02842
G1 X51.21 Y50.757 E13.02975
G1 X51.324 Y50.553 E13.03063
G1 X51.432 Y50.127 E13.03228
G1 X51.432 Y49.869 E13.03325
G1 X51.328 Y49.45 E13.03487
G1 X51.024 Y49.013 E13.03688
G1 X50.757 Y48.786 E13.0382
G1 X50.553 Y48.672 E13.03907
G1 X50.127 Y48.564 E13.04073
G1 X49.87 Y48.564 E13.04169
G1 X49.45 Y48.672 E13.04333
G1 X49.013 Y48.972 E13.04532
G1 X48.786 Y49.239 E13.04664
G1 X48.672 Y49.443 E13.04752
G1 X48.564 Y49.869 E13.04917
G1 X48.564 Y50.126 E13.05014
G1 X48.672 Y50.547 E13.05177
G1 X48.787 Y50.763 E13.05269
G1 X48.971 Y50.982 E13.05377
G1 X49.239 Y51.21 E13.05509
G1 X49.443 Y51.324 E13.05597
G1 X49.869 Y51.432 E13.05763
G1 X50.127 Y51.432 E13.0586
G1 X50.55 Y51.328 E13.06024
G0 F7200 X50.713 Y51.214
G0 X50.36 Y50.627
G0 X49.933 Y49.772
;TYPE:SKIN
G1 F582.5 X50.069 Y49.781 E13.06076
G1 X50.212 Y49.921 E13.06154
G1 X50.22 Y50.06 E13.06208
G1 X50.062 Y50.22 E13.06295
G1 X49.906 Y50.209 E13.06356
G1 X49.838 Y50.156 E13.06389
G1 X49.766 Y50 E13.06456
G1 X49.78 Y49.921 E13.06487
G1 X49.933 Y49.772 E13.06569
G0 F7200 X50.426 Y50.467
G1 F600 X50.253 Y50.595 E13.0665
G1 X50.045 Y50.647 E13.06731
G1 X49.739 Y50.591 E13.06848
G1 X49.527 Y50.431 E13.06948
G1 X49.402 Y50.251 E13.0703
G1 X49.349 Y50.04 E13.07112
G1 X49.401 Y49.739 E13.07227
G1 X49.561 Y49.531 E13.07326
G1 X49.745 Y49.401 E13.07411
G1 X49.952 Y49.349 E13.07491
G1 X50.253 Y49.401 E13.07606
G1 X50.467 Y49.566 E13.07708
G1 X50.595 Y49.741 E13.07789
G1 X50.647 Y50.039 E13.07903
G1 X50.592 Y50.25 E13.07985
G1 X50.426 Y50.467 E13.08088
G0 F7200 X50.257 Y50.321
;MESH:NONMESH
G0 F600 X50.257 Y50.321 Z0.66
G0 F7200 X50.207 Y51.063
;TIME_ELAPSED:36.778238
;LAYER:6
;note -- min layer time used
;TYPE:WALL-INNER
;MESH:15977_Sphere_with_Grid_v1.obj
G1 F600 X50.69 Y50.83 E13.0829
G1 X50.817 Y50.704 E13.08357
G1 X51.037 Y50.273 E13.08539
G1 X51.079 Y50.073 E13.08616
G1 X51.059 Y49.779 E13.08727
G1 X50.832 Y49.311 E13.08922
G1 X50.705 Y49.181 E13.08991
G1 X50.273 Y48.96 E13.09173
G1 X50.032 Y48.912 E13.09266
G1 X49.78 Y48.939 E13.09361
G1 X49.304 Y49.171 E13.0956
G1 X49.179 Y49.294 E13.09626
G1 X48.96 Y49.723 E13.09807
G1 X48.912 Y49.967 E13.09901
G1 X48.939 Y50.216 E13.09995
G1 X49.173 Y50.696 E13.10196
G1 X49.461 Y50.926 E13.10335
G1 X49.846 Y51.06 E13.10488
G1 X50.207 Y51.063 E13.10624
G0 F7200 X50.287 Y51.463
;TYPE:WALL-OUTER
G1 F600 X50.849 Y51.225 E13.10854
G1 X51.187 Y50.885 E13.11034
G1 X51.437 Y50.355 E13.11254
G1 X51.486 Y50.03 E13.11378
G1 X51.451 Y49.679 E13.11511
G1 X51.255 Y49.217 E13.117
G1 X51.05 Y48.947 E13.11827
G1 X50.767 Y48.732 E13.11961
G1 X50.355 Y48.56 E13.12129
G1 X50.032 Y48.51 E13.12252
G1 X49.679 Y48.548 E13.12385
G1 X49.221 Y48.74 E13.12572
G1 X48.809 Y49.116 E13.12782
G1 X48.56 Y49.641 E13.13001
G1 X48.51 Y49.967 E13.13125
G1 X48.548 Y50.317 E13.13257
G1 X48.741 Y50.775 E13.13444
G1 X48.946 Y51.049 E13.13573
G1 X49.23 Y51.263 E13.13707
G1 X49.697 Y51.46 E13.13897
G1 X50.287 Y51.463 E13.14119
G0 F7200 X50.471 Y51.385
G0 X50.49 Y50.488
;TYPE:SKIN
G1 F600 X50.131 Y50.68 E13.14272
G1 X49.913 Y50.68 E13.14354
G1 X49.657 Y50.594 E13.14456
G1 X49.51 Y50.497 E13.14522
G1 X49.312 Y50.12 E13.14683
G1 X49.326 Y49.83 E13.14792
G1 X49.502 Y49.506 E13.1493
G1 X49.868 Y49.312 E13.15086
G1 X50.165 Y49.326 E13.15198
G1 X50.491 Y49.506 E13.15338
G1 X50.684 Y49.87 E13.15493
G1 X50.665 Y50.166 E13.15605
G1 X50.49 Y50.488 E13.15743
G0 F7200 X49.889 Y50.455
G1 F600 X49.512 Y50.077 E13.15944
G0 F7200 X49.65 Y49.65
G1 F600 X50.342 Y50.342 E13.16312
G0 F7200 X50.488 Y49.922
G1 F600 X50.082 Y49.517 E13.16527
G0 F7200 X49.904 Y49.972
;MESH:NONMESH
G0 F600 X49.904 Y49.972 Z0.72
G0 F7200 X50.213 Y50.728
G0 X50.488 Y51.384
;TIME_ELAPSED:39.225803
;LAYER:7
;note -- min layer time used
;TYPE:WALL-OUTER
;MESH:15977_Sphere_with_Grid_v1.obj
G1 F468.8 X50.27 Y51.442 E13.16636
G1 F470.6 X49.938 Y51.464 E13.16796
G1 F471.5 X49.636 Y51.415 E13.16942
G1 F468.8 X49.178 Y51.21 E13.17184
G1 F473.4 X48.818 Y50.862 E13.17423
G1 F471.5 X48.62 Y50.488 E13.17625
G1 F466 X48.558 Y50.269 E13.17735
G1 F468.8 X48.533 Y49.937 E13.17896
G1 F474.3 X48.581 Y49.64 E13.18039
G1 F472.4 X48.787 Y49.178 E13.18281
G1 X49.132 Y48.82 E13.18518
G1 F468.8 X49.508 Y48.62 E13.18723
G1 F465.1 X49.73 Y48.558 E13.18835
G1 F469.7 X50.059 Y48.534 E13.18994
G1 F474.3 X50.356 Y48.581 E13.19137
G1 F471.5 X50.822 Y48.787 E13.19381
G1 F472.4 X51.175 Y49.132 E13.19616
G1 F470.6 X51.38 Y49.509 E13.19822
G1 F465.1 X51.442 Y49.726 E13.19932
G1 F468.8 X51.463 Y50.057 E13.20092
G1 F473.4 X51.417 Y50.361 E13.20238
G1 F470.6 X51.209 Y50.822 E13.20481
G1 F472.4 X50.863 Y51.177 E13.20718
G1 F473.4 X50.488 Y51.384 E13.20922
G0 F7200 X50.296 Y51.435
G0 X50.496 Y50.813
G1 F476.2 X50.743 Y50.596 E13.21078
G1 F475.2 X50.918 Y50.262 E13.21257
G1 F472.4 X50.946 Y49.851 E13.21454
G1 F470.6 X50.828 Y49.523 E13.21621
G1 F472.4 X50.594 Y49.254 E13.21791
G1 F475.2 X50.259 Y49.077 E13.21971
G1 F474.3 X49.874 Y49.049 E13.22155
G1 F472.4 X49.523 Y49.172 E13.22333
G1 F475.2 X49.27 Y49.381 E13.22488
G1 F478.1 X49.077 Y49.737 E13.2268
G1 F475.2 X49.049 Y50.122 E13.22863
G1 F476.2 X49.224 Y50.562 E13.23087
G1 X49.582 Y50.863 E13.23309
G1 F472.4 X49.944 Y50.954 E13.23487
G1 F470.6 X50.286 Y50.913 E13.23653
G1 F474.3 X50.496 Y50.813 E13.23763
G0 F7200 X50.646 Y50.682
;MESH:NONMESH
G0 F600 X50.646 Y50.682 Z0.78
G0 F7200 X50.275 Y51.471
;TIME_ELAPSED:41.254478
;LAYER:8
;note -- min layer time used
;TYPE:WALL-OUTER
;MESH:15977_Sphere_with_Grid_v1.obj
G1 F466 X50.001 Y51.496 E13.23897
G1 X49.682 Y51.464 E13.24052
G1 F466.9 X49.43 Y51.382 E13.2418
G1 X49.133 Y51.223 E13.24343
G1 F463.3 X48.954 Y51.066 E13.24459
G1 F465.1 X48.712 Y50.762 E13.24647
G1 F469.7 X48.525 Y50.275 E13.24898
G1 F466.9 X48.502 Y50.003 E13.2503
G1 F467.8 X48.535 Y49.68 E13.25187
G1 X48.619 Y49.421 E13.25318
G1 F466.9 X48.77 Y49.141 E13.25472
G1 F462.4 X48.935 Y48.951 E13.25595
G1 F465.1 X49.235 Y48.714 E13.2578
G1 F470.6 X49.721 Y48.525 E13.26031
G1 F466.9 X49.993 Y48.503 E13.26162
G1 F468.8 X50.32 Y48.536 E13.26321
G1 F466.9 X50.571 Y48.615 E13.26448
G1 X50.855 Y48.769 E13.26604
G1 F464.2 X51.046 Y48.934 E13.26727
G1 F465.1 X51.289 Y49.239 E13.26916
G1 F469.7 X51.471 Y49.721 E13.27164
G1 F466.9 X51.496 Y49.995 E13.27297
G1 X51.464 Y50.319 E13.27454
G1 X51.382 Y50.57 E13.27582
G1 F467.8 X51.228 Y50.855 E13.27738
G1 F465.1 X51.062 Y51.046 E13.27861
G1 X50.757 Y51.289 E13.2805
G1 F468.8 X50.275 Y51.471 E13.28298
G0 F7200 X50.076 Y51.489
G0 X50.457 Y50.871
G1 F470.6 X50.818 Y50.55 E13.2853
G1 F468.8 X50.96 Y50.219 E13.28703
G1 X50.971 Y49.839 E13.28886
G1 F469.7 X50.871 Y49.538 E13.29039
G1 F470.6 X50.549 Y49.18 E13.2927
G1 F468.8 X50.221 Y49.037 E13.29442
G1 X49.842 Y49.024 E13.29625
G1 F470.6 X49.534 Y49.129 E13.29781
G1 F469.7 X49.181 Y49.449 E13.3001
G1 F468.8 X49.037 Y49.78 E13.30184
G1 X49.024 Y50.154 E13.30364
G1 F470.6 X49.128 Y50.461 E13.30519
G1 F469.7 X49.445 Y50.815 E13.30748
G1 F467.8 X49.781 Y50.96 E13.30924
G1 X50.157 Y50.971 E13.31106
G1 F468.8 X50.457 Y50.871 E13.31258
G0 F7200 X50.606 Y50.739
;MESH:NONMESH
G0 F600 X50.606 Y50.739 Z0.84
G0 F7200 X50.368 Y51.467
;TIME_ELAPSED:43.351583
;LAYER:9
;note -- min layer time used
;TYPE:WALL-OUTER
;MESH:15977_Sphere_with_Grid_v1.obj
G1 F461.5 X50.002 Y51.52 E13.31439
G1 F458.9 X49.664 Y51.483 E13.31606
G1 F457.1 X49.414 Y51.399 E13.31736
G1 F458 X49.084 Y51.211 E13.31924
G1 F460.7 X48.732 Y50.84 E13.32174
G1 F459.8 X48.5 Y50.289 E13.32468
G1 F458 X48.477 Y49.998 E13.32612
G1 F457.1 X48.514 Y49.664 E13.32778
G1 F456.3 X48.598 Y49.414 E13.32908
G1 F458 X48.789 Y49.08 E13.33098
G1 F460.7 X49.156 Y48.732 E13.33345
G1 F459.8 X49.702 Y48.501 E13.33636
G1 F458.9 X49.998 Y48.476 E13.33783
G1 F458 X50.332 Y48.514 E13.33948
G1 F455.4 X50.582 Y48.598 E13.34079
G1 F457.1 X50.916 Y48.789 E13.34269
G1 F460.7 X51.264 Y49.156 E13.34517
G1 F459.8 X51.495 Y49.703 E13.34808
G1 F458 X51.519 Y49.998 E13.34954
G1 X51.482 Y50.332 E13.3512
G1 F456.3 X51.398 Y50.582 E13.3525
G1 F457.1 X51.212 Y50.912 E13.35437
G1 F459.8 X50.84 Y51.264 E13.35689
G1 F461.5 X50.368 Y51.467 E13.3594
G0 F7200 X50.171 Y51.495
G0 X50.569 Y50.816
G1 F459.8 X50.77 Y50.628 E13.36075
G1 X50.967 Y50.232 E13.36292
G1 X50.991 Y49.903 E13.36454
G1 F460.7 X50.816 Y49.427 E13.36703
G1 X50.632 Y49.23 E13.36835
G1 F459.8 X50.232 Y49.029 E13.37055
G1 X49.903 Y49.005 E13.37217
G1 F460.7 X49.427 Y49.18 E13.37465
G1 X49.23 Y49.364 E13.37597
G1 F459.8 X49.029 Y49.764 E13.37817
G1 X49.005 Y50.093 E13.37979
G1 F460.7 X49.18 Y50.569 E13.38227
G1 X49.368 Y50.77 E13.38362
G1 F459.8 X49.691 Y50.945 E13.38543
G1 F458 X50.002 Y50.995 E13.38698
G1 F461.5 X50.273 Y50.952 E13.38832
G1 X50.569 Y50.816 E13.38991
G0 F7200 X50.715 Y50.68
;MESH:NONMESH
G0 F600 X50.715 Y50.68 Z0.9
G0 F7200 X50.66 Y51.391
;TIME_ELAPSED:45.512318
;LAYER:10
;note -- min layer time used
;TYPE:WALL-OUTER
;MESH:15977_Sphere_with_Grid_v1.obj
G1 F451.1 X50.229 Y51.519 E13.39216
G1 F447.8 X49.694 Y51.514 E13.39486
G1 F445.3 X49.334 Y51.391 E13.39679
G1 F446.1 X49.119 Y51.262 E13.39806
G1 F444.4 X48.858 Y51.031 E13.39983
G1 X48.607 Y50.66 E13.4021
G1 F451.1 X48.477 Y50.229 E13.40436
G1 F449.4 X48.482 Y49.695 E13.40704
G1 F446.1 X48.608 Y49.334 E13.40897
G1 F447.8 X48.735 Y49.117 E13.41024
G1 F444.4 X48.965 Y48.858 E13.412
G1 X49.335 Y48.607 E13.41427
G1 F451.1 X49.768 Y48.477 E13.41653
G1 F449.4 X50.302 Y48.482 E13.41921
G1 F446.9 X50.663 Y48.608 E13.42115
G1 F447.8 X50.882 Y48.736 E13.42242
G1 F444.4 X51.138 Y48.964 E13.42417
G1 F446.1 X51.391 Y49.336 E13.42644
G1 F451.1 X51.519 Y49.769 E13.4287
G1 F448.6 X51.514 Y50.302 E13.43138
G1 F446.1 X51.391 Y50.662 E13.43331
G1 X51.261 Y50.881 E13.4346
G1 F444.4 X51.032 Y51.138 E13.43635
G1 F446.1 X50.66 Y51.391 E13.43862
G0 F7200 X50.469 Y51.447
G0 X50.438 Y50.903
G1 F448.6 X50.739 Y50.671 E13.44053
G1 F447.8 X50.899 Y50.445 E13.44193
G1 F446.1 X50.986 Y50.177 E13.44336
G1 F448.6 X50.993 Y49.88 E13.44485
G1 F451.1 X50.903 Y49.558 E13.44652
G1 F448.6 X50.671 Y49.257 E13.44844
G1 F449.4 X50.43 Y49.091 E13.44991
G1 F447.8 X50.177 Y49.01 E13.45124
G1 F449.4 X49.88 Y49.003 E13.45274
G1 F451.1 X49.557 Y49.096 E13.45442
G1 F448.6 X49.207 Y49.382 E13.45669
G1 F449.4 X49.097 Y49.551 E13.45771
G1 F446.1 X49.01 Y49.82 E13.45914
G1 F449.4 X49.003 Y50.116 E13.46062
G1 F451.1 X49.096 Y50.439 E13.46231
G1 F449.4 X49.382 Y50.789 E13.46458
G1 F448.6 X49.552 Y50.9 E13.4656
G1 F445.3 X49.819 Y50.986 E13.46702
G1 F447.8 X50.116 Y50.993 E13.46852
G1 F451.1 X50.438 Y50.903 E13.47019
G0 F7200 X50.596 Y50.781
;MESH:NONMESH
G0 F600 X50.596 Y50.781 Z0.96
G0 F7200 X50.598 Y51.44
;TIME_ELAPSED:47.745081
;LAYER:11
;note -- min layer time used
;TYPE:WALL-OUTER
;MESH:15977_Sphere_with_Grid_v1.obj
G1 F436.4 X50.269 Y51.537 E13.47196
G1 X49.726 Y51.535 E13.47477
G1 F434.8 X49.402 Y51.443 E13.47652
G1 F433.2 X49.099 Y51.273 E13.47833
G1 X48.721 Y50.891 E13.48113
G1 F435.6 X48.556 Y50.597 E13.48288
G1 F436.4 X48.46 Y50.265 E13.48467
G1 F435.6 X48.465 Y49.724 E13.48747
G1 F433.2 X48.559 Y49.402 E13.48922
G1 X48.721 Y49.097 E13.49102
G1 F432.4 X49.11 Y48.723 E13.49383
G1 F433.2 X49.4 Y48.556 E13.49558
G1 F436.4 X49.727 Y48.46 E13.49734
G1 F434.8 X50.27 Y48.464 E13.50016
G1 F433.2 X50.594 Y48.558 E13.50192
G1 F434 X50.896 Y48.721 E13.5037
G1 F431.7 X51.276 Y49.111 E13.50655
G1 X51.44 Y49.399 E13.50828
G1 F435.6 X51.536 Y49.727 E13.51005
G1 F434.8 X51.534 Y50.273 E13.51289
G1 F433.2 X51.441 Y50.592 E13.51462
G1 F434.8 X51.276 Y50.896 E13.51642
G1 F433.2 X50.889 Y51.276 E13.51924
G1 F432.4 X50.598 Y51.44 E13.52099
G0 F7200 X50.407 Y51.496
G0 X50.444 Y50.904
G1 F439.6 X50.84 Y50.557 E13.52369
G1 F436.4 X50.984 Y50.206 E13.52565
G1 F434.8 X50.994 Y49.831 E13.5276
G1 F435.6 X50.925 Y49.594 E13.52888
G1 F436.4 X50.6 Y49.188 E13.53157
G1 F434.8 X50.203 Y49.012 E13.53382
G1 X49.831 Y49.002 E13.53576
G1 F436.4 X49.595 Y49.071 E13.53703
G1 F435.6 X49.175 Y49.412 E13.53983
G1 F434.8 X49.012 Y49.794 E13.54199
G1 F435.6 X49.001 Y50.166 E13.54392
G1 F436.4 X49.071 Y50.404 E13.5452
G1 F435.6 X49.275 Y50.704 E13.54708
G1 F434.8 X49.595 Y50.926 E13.5491
G1 F436.4 X49.908 Y51.005 E13.55077
G1 F438 X50.165 Y50.997 E13.5521
G1 X50.444 Y50.904 E13.55361
G0 F7200 X50.594 Y50.773
;MESH:NONMESH
G0 F600 X50.594 Y50.773 Z1.02
G0 F7200 X50.59 Y51.461
;TIME_ELAPSED:50.063323
;LAYER:12
;note -- min layer time used
;TYPE:WALL-OUTER
;MESH:15977_Sphere_with_Grid_v1.obj
G1 F425.5 X50.271 Y51.552 E13.55537
G1 F424.8 X50.002 Y51.577 E13.55681
G1 F427 X49.397 Y51.457 E13.56007
G1 F425.5 X49.14 Y51.32 E13.56161
G1 F426.3 X48.834 Y51.063 E13.56373
G1 F427 X48.539 Y50.59 E13.56668
G1 F424.8 X48.444 Y50.268 E13.56846
G1 F425.5 X48.422 Y49.998 E13.5699
G1 F427 X48.538 Y49.402 E13.57311
G1 F426.3 X48.68 Y49.14 E13.57468
G1 F427 X48.934 Y48.834 E13.57679
G1 F427.8 X49.405 Y48.54 E13.57972
G1 F425.5 X49.728 Y48.447 E13.5815
G1 F427 X50 Y48.422 E13.58294
G1 X50.601 Y48.538 E13.58618
G1 F425.5 X50.855 Y48.679 E13.58772
G1 F427 X51.163 Y48.934 E13.58983
G1 F427.8 X51.457 Y49.402 E13.59275
G1 F425.5 X51.553 Y49.729 E13.59456
G1 X51.577 Y49.998 E13.59599
G1 F426.3 X51.457 Y50.599 E13.59923
G1 F425.5 X51.32 Y50.856 E13.60078
G1 F426.3 X51.062 Y51.162 E13.6029
G1 F427.8 X50.59 Y51.461 E13.60585
G0 F7200 X50.398 Y51.515
G0 X50.4 Y50.93
G1 F427.8 X50.673 Y50.759 E13.60755
G1 F428.6 X50.935 Y50.389 E13.60993
G1 F427 X51.013 Y49.971 E13.61218
G1 F430.1 X50.912 Y49.557 E13.61442
G1 F431.7 X50.759 Y49.324 E13.61588
G1 F428.6 X50.404 Y49.066 E13.61819
G1 F427 X49.972 Y48.984 E13.62051
G1 X49.587 Y49.074 E13.6226
G1 F428.6 X49.323 Y49.237 E13.62424
G1 X49.065 Y49.596 E13.62656
G1 F427 X48.984 Y50.025 E13.62887
G1 F425.5 X49.069 Y50.396 E13.63089
G1 F427 X49.238 Y50.673 E13.63261
G1 F428.6 X49.607 Y50.935 E13.63499
G1 F426.3 X50.027 Y51.013 E13.63725
G1 F425.5 X50.4 Y50.93 E13.63928
G0 F7200 X50.569 Y50.824
;MESH:NONMESH
G0 F600 X50.569 Y50.824 Z1.08
G0 F7200 X50.527 Y51.502
;TIME_ELAPSED:52.440803
;LAYER:13
;note -- min layer time used
;TYPE:WALL-OUTER
;MESH:15977_Sphere_with_Grid_v1.obj
G1 F419.6 X50.297 Y51.565 E13.64056
G1 F421.1 X49.924 Y51.589 E13.64257
G1 F420.3 X49.463 Y51.495 E13.64509
G1 F418.1 X49.084 Y51.3 E13.64739
G1 F419.6 X48.814 Y51.065 E13.64932
G1 X48.658 Y50.857 E13.65072
G1 X48.431 Y50.295 E13.65398
G1 X48.408 Y49.924 E13.65598
G1 X48.501 Y49.463 E13.65851
G1 F418.1 X48.696 Y49.084 E13.66081
G1 F419.6 X48.931 Y48.814 E13.66273
G1 X49.139 Y48.658 E13.66413
G1 X49.704 Y48.431 E13.66741
G1 F421.1 X50.073 Y48.408 E13.66939
G1 F419.6 X50.537 Y48.501 E13.67194
G1 F418.1 X50.916 Y48.697 E13.67424
G1 X51.184 Y48.931 E13.67616
G1 F418.8 X51.338 Y49.139 E13.67756
G1 F418.1 X51.502 Y49.47 E13.67955
G1 F419.6 X51.565 Y49.699 E13.68083
G1 X51.588 Y50.072 E13.68284
G1 X51.495 Y50.537 E13.68539
G1 F418.1 X51.299 Y50.916 E13.68769
G1 X51.065 Y51.185 E13.68962
G1 X50.86 Y51.338 E13.691
G1 X50.527 Y51.502 E13.693
G0 F7200 X50.334 Y51.554
G0 X50.489 Y50.892
G1 F420.3 X50.687 Y50.756 E13.69429
G1 F419.6 X50.949 Y50.36 E13.69685
G1 F421.1 X51.012 Y50.091 E13.69833
G1 X51.001 Y49.796 E13.69991
G1 F422.5 X50.91 Y49.542 E13.70135
G1 F421.8 X50.755 Y49.308 E13.70285
G1 F422.5 X50.44 Y49.08 E13.70493
G1 F424 X50.107 Y48.985 E13.70678
G1 F422.5 X49.8 Y48.995 E13.70842
G1 X49.544 Y49.085 E13.70987
G1 X49.319 Y49.233 E13.7113
G1 F423.3 X49.08 Y49.556 E13.71345
G1 X48.983 Y49.909 E13.7154
G1 F421.1 X48.995 Y50.2 E13.71696
G1 F422.5 X49.085 Y50.452 E13.71839
G1 X49.233 Y50.677 E13.71983
G1 F423.3 X49.556 Y50.916 E13.72197
G1 X49.936 Y51.017 E13.72407
G1 F421.1 X50.202 Y51.001 E13.7255
G1 X50.489 Y50.892 E13.72714
G0 F7200 X50.654 Y50.779
;MESH:NONMESH
G0 F600 X50.654 Y50.779 Z1.14
G0 F7200 X50.7 Y51.113
;TIME_ELAPSED:54.871274
;LAYER:14
;note -- min layer time used
;TYPE:WALL-INNER
;MESH:15977_Sphere_with_Grid_v1.obj
G1 F670.4 X50.929 Y50.929 E13.72813
G1 X51.205 Y50.521 E13.72979
G1 F666.7 X51.306 Y50.122 E13.73118
G1 F664.8 X51.288 Y49.745 E13.73247
G1 X51.112 Y49.295 E13.73411
G1 F668.5 X50.928 Y49.068 E13.73509
G1 F666.7 X50.521 Y48.791 E13.73676
G1 F668.5 X50.124 Y48.69 E13.73814
G1 F674.2 X49.744 Y48.71 E13.73942
G1 F672.3 X49.294 Y48.886 E13.74104
G1 F670.4 X49.067 Y49.07 E13.74202
G1 F668.5 X48.791 Y49.475 E13.74368
G1 X48.69 Y49.872 E13.74506
G1 F674.2 X48.706 Y50.233 E13.74627
G1 F676.1 X48.887 Y50.703 E13.74795
G1 F672.3 X49.07 Y50.929 E13.74893
G1 F670.4 X49.49 Y51.21 E13.75063
G1 F668.5 X49.745 Y51.284 E13.75153
G1 X50.124 Y51.306 E13.75281
G1 F659.3 X50.52 Y51.201 E13.75421
G1 F657.5 X50.7 Y51.113 E13.7549
G0 F7200 X50.488 Y50.798
;TYPE:WALL-OUTER
G1 F600 X50.149 Y50.923 E13.75626
G1 X49.917 Y50.932 E13.75713
G1 X49.616 Y50.853 E13.7583
G1 X49.349 Y50.672 E13.75952
G1 X49.198 Y50.49 E13.76041
G1 X49.074 Y50.155 E13.76175
G1 X49.073 Y49.851 E13.76289
G1 X49.154 Y49.591 E13.76392
G1 X49.324 Y49.349 E13.76503
G1 X49.507 Y49.198 E13.76592
G1 X49.843 Y49.074 E13.76727
G1 X50.106 Y49.068 E13.76826
G1 X50.384 Y49.145 E13.76935
G1 X50.661 Y49.337 E13.77061
G1 X50.811 Y49.528 E13.77153
G1 X50.921 Y49.844 E13.77279
G1 X50.928 Y50.105 E13.77377
G1 X50.842 Y50.405 E13.77494
G1 X50.662 Y50.662 E13.77612
G1 X50.488 Y50.798 E13.77695
G0 F7200 X50.301 Y50.867
G0 X50.656 Y51.563
G1 F600 X50.909 Y51.432 E13.77803
G1 X51.197 Y51.197 E13.77942
G1 X51.432 Y50.909 E13.78082
G1 X51.563 Y50.656 E13.7819
G1 X51.687 Y50.16 E13.78382
G1 X51.665 Y49.682 E13.78562
G1 X51.565 Y49.347 E13.78693
G1 X51.431 Y49.086 E13.78804
G1 X51.197 Y48.799 E13.78943
G1 X50.909 Y48.565 E13.79083
G1 X50.656 Y48.433 E13.7919
G1 X50.16 Y48.31 E13.79382
G1 X49.682 Y48.335 E13.79562
G1 X49.347 Y48.431 E13.79693
G1 X49.086 Y48.568 E13.79804
G1 X48.798 Y48.8 E13.79944
G1 X48.565 Y49.087 E13.80083
G1 X48.433 Y49.34 E13.8019
G1 X48.31 Y49.836 E13.80382
G1 X48.335 Y50.314 E13.80562
G1 X48.431 Y50.645 E13.80692
G1 X48.569 Y50.91 E13.80804
G1 X48.8 Y51.198 E13.80943
G1 X49.086 Y51.431 E13.81082
G1 X49.35 Y51.564 E13.81193
G1 X49.682 Y51.661 E13.81323
G1 X50.16 Y51.686 E13.81503
G1 X50.656 Y51.563 E13.81696
G0 F7200 X50.833 Y51.472
;MESH:NONMESH
G0 F600 X50.833 Y51.472 Z1.2
G0 F7200 X50.705 Y51.12
;TIME_ELAPSED:57.372424
;LAYER:15
;note -- min layer time used
;TYPE:WALL-INNER
;MESH:15977_Sphere_with_Grid_v1.obj
G1 F643.4 X50.975 Y50.89 E13.8182
G1 F629.9 X51.19 Y50.556 E13.81962
G1 X51.29 Y50.291 E13.82064
G1 F631.6 X51.312 Y49.938 E13.8219
G1 F621.8 X51.235 Y49.541 E13.82337
G1 F631.6 X51.119 Y49.292 E13.82435
G1 F641.7 X50.891 Y49.022 E13.8256
G1 F631.6 X50.556 Y48.808 E13.82702
G1 X50.288 Y48.706 E13.82804
G1 X49.938 Y48.684 E13.8293
G1 F621.8 X49.544 Y48.761 E13.83075
G1 F631.6 X49.292 Y48.881 E13.83175
G1 F641.7 X49.021 Y49.106 E13.83299
G1 F631.6 X48.808 Y49.44 E13.83441
G1 F629.9 X48.706 Y49.708 E13.83543
G1 F631.6 X48.684 Y50.061 E13.8367
G1 F625 X48.76 Y50.452 E13.83814
G1 F634.9 X48.88 Y50.704 E13.83913
G1 F643.4 X49.108 Y50.976 E13.84037
G1 F628.3 X49.44 Y51.19 E13.84179
G1 F626.6 X49.705 Y51.29 E13.84281
G1 F628.3 X50.061 Y51.312 E13.84409
G1 F623.4 X50.454 Y51.236 E13.84554
G1 F636.6 X50.705 Y51.12 E13.84652
G0 F7200 X50.459 Y50.817
;TYPE:WALL-OUTER
G1 F600 X50.189 Y50.916 E13.84761
G1 X49.743 Y50.902 E13.84928
G1 X49.371 Y50.695 E13.85089
G1 X49.184 Y50.461 E13.85201
G1 X49.08 Y50.189 E13.85311
G1 X49.094 Y49.742 E13.85479
G1 X49.302 Y49.37 E13.85639
G1 X49.513 Y49.199 E13.85742
G1 X49.812 Y49.08 E13.85863
G1 X50.254 Y49.094 E13.86029
G1 X50.626 Y49.302 E13.86189
G1 X50.817 Y49.541 E13.86304
G1 X50.917 Y49.811 E13.86413
G1 X50.903 Y50.253 E13.86579
G1 X50.715 Y50.601 E13.86728
G1 X50.459 Y50.817 E13.86854
G0 F7200 X50.272 Y50.885
G0 X50.579 Y51.608
G1 F600 X50.917 Y51.447 E13.86995
G1 X51.265 Y51.149 E13.87167
G1 X51.547 Y50.733 E13.87356
G1 X51.67 Y50.37 E13.875
G1 X51.709 Y49.916 E13.87672
G1 X51.609 Y49.416 E13.87864
G1 X51.446 Y49.079 E13.88005
G1 X51.149 Y48.731 E13.88177
G1 X50.733 Y48.453 E13.88365
G1 X50.369 Y48.326 E13.8851
G1 X49.916 Y48.287 E13.88681
G1 X49.417 Y48.387 E13.88872
G1 X49.079 Y48.554 E13.89014
G1 X48.731 Y48.847 E13.89185
G1 X48.453 Y49.263 E13.89374
G1 X48.325 Y49.627 E13.89519
G1 X48.287 Y50.084 E13.89691
G1 X48.387 Y50.579 E13.89881
G1 X48.553 Y50.917 E13.90023
G1 X48.848 Y51.265 E13.90195
G1 X49.262 Y51.547 E13.90383
G1 X49.626 Y51.671 E13.90528
G1 X50.084 Y51.71 E13.90701
G1 X50.579 Y51.608 E13.90891
G0 F7200 X50.759 Y51.522
;MESH:NONMESH
G0 F600 X50.759 Y51.522 Z1.26
G0 F7200 X50.447 Y51.248
;TIME_ELAPSED:59.931696
;LAYER:16
;note -- min layer time used
;TYPE:WALL-INNER
;MESH:15977_Sphere_with_Grid_v1.obj
G1 F601.5 X50.881 Y50.99 E13.9108
G1 X51.082 Y50.764 E13.91194
G1 F607.6 X51.247 Y50.447 E13.91327
G1 F610.7 X51.329 Y50.055 E13.91475
G1 F606.1 X51.252 Y49.564 E13.9166
G1 F601.5 X50.991 Y49.118 E13.91854
G1 F604.5 X50.764 Y48.914 E13.91968
G1 F609.1 X50.45 Y48.752 E13.92099
G1 F613.8 X50.055 Y48.671 E13.92247
G1 F609.1 X49.556 Y48.747 E13.92434
G1 F601.5 X49.118 Y49.005 E13.92625
G1 X48.914 Y49.232 E13.92739
G1 F607.6 X48.752 Y49.546 E13.9287
G1 F612.2 X48.671 Y49.941 E13.93019
G1 F606.1 X48.746 Y50.44 E13.93207
G1 F598.5 X49.006 Y50.881 E13.934
G1 F600 X49.232 Y51.082 E13.93514
G1 F604.5 X49.551 Y51.247 E13.93648
G1 F609.1 X49.941 Y51.329 E13.93796
G1 X50.447 Y51.248 E13.93986
G0 F7200 X50.577 Y51.627
;TYPE:WALL-OUTER
G1 F600 X50.926 Y51.456 E13.94132
G1 X51.155 Y51.284 E13.9424
G1 X51.413 Y50.99 E13.94387
G1 X51.625 Y50.58 E13.9456
G1 X51.726 Y50.082 E13.94751
G1 X51.701 Y49.69 E13.94899
G1 X51.628 Y49.423 E13.95003
G1 X51.456 Y49.07 E13.95151
G1 X51.284 Y48.845 E13.95258
G1 X50.99 Y48.583 E13.95406
G1 X50.581 Y48.375 E13.95578
G1 X50.082 Y48.274 E13.9577
G1 X49.692 Y48.299 E13.95917
G1 X49.421 Y48.37 E13.96022
G1 X49.07 Y48.54 E13.96169
G1 X48.845 Y48.711 E13.96275
G1 X48.583 Y49.006 E13.96424
G1 X48.375 Y49.415 E13.96596
G1 X48.274 Y49.914 E13.96788
G1 X48.299 Y50.304 E13.96935
G1 X48.369 Y50.578 E13.97041
G1 X48.54 Y50.926 E13.97187
G1 X48.712 Y51.155 E13.97295
G1 X49.006 Y51.413 E13.97442
G1 X49.416 Y51.625 E13.97616
G1 X49.914 Y51.726 E13.97807
G1 X50.303 Y51.701 E13.97954
G1 X50.577 Y51.627 E13.9806
G0 F7200 X50.756 Y51.54
G0 X50.401 Y50.844
G1 F600 X50.014 Y50.936 E13.9821
G1 X49.623 Y50.855 E13.9836
G1 X49.372 Y50.695 E13.98472
G1 X49.152 Y50.401 E13.9861
G1 X49.064 Y50.014 E13.9876
G1 X49.153 Y49.593 E13.98922
G1 X49.302 Y49.371 E13.99022
G1 X49.596 Y49.152 E13.9916
G1 X50.016 Y49.064 E13.99322
G1 X50.403 Y49.153 E13.99471
G1 X50.625 Y49.302 E13.99572
G1 X50.857 Y49.628 E13.99722
G1 X50.936 Y49.983 E13.99859
G1 X50.842 Y50.404 E14.00021
G1 X50.695 Y50.625 E14.00121
G1 X50.401 Y50.844 E14.00259
G0 F7200 X50.207 Y50.89
;MESH:NONMESH
G0 F600 X50.207 Y50.89 Z1.32
G0 F7200 X50.185 Y51.315
;TIME_ELAPSED:62.537404
;LAYER:17
;note -- min layer time used
;TYPE:WALL-INNER
;MESH:15977_Sphere_with_Grid_v1.obj
G1 F606.1 X50.753 Y51.092 E14.00486
G1 F613.8 X51.02 Y50.848 E14.00619
G1 F612.2 X51.187 Y50.567 E14.0074
G1 F606.1 X51.318 Y50.149 E14.00903
G1 X51.318 Y49.826 E14.01023
G1 F610.7 X51.093 Y49.245 E14.01254
G1 F617 X50.847 Y48.975 E14.01387
G1 F612.2 X50.567 Y48.809 E14.01507
G1 F607.6 X50.149 Y48.678 E14.0167
G1 X49.826 Y48.678 E14.0179
G1 F609.1 X49.245 Y48.903 E14.02021
G1 F613.8 X48.975 Y49.149 E14.02155
G1 F610.7 X48.81 Y49.429 E14.02275
G1 F607.6 X48.678 Y49.851 E14.0244
G1 F606.1 X48.678 Y50.174 E14.0256
G1 X48.904 Y50.753 E14.02791
G1 F613.8 X49.148 Y51.02 E14.02924
G1 F610.7 X49.442 Y51.194 E14.03051
G1 F609.1 X49.721 Y51.301 E14.03161
G1 X50.185 Y51.315 E14.03333
G0 F7200 X50.494 Y51.653
;TYPE:WALL-OUTER
G1 F600 X50.978 Y51.424 E14.03535
G1 X51.327 Y51.1 E14.03714
G1 X51.552 Y50.732 E14.03876
G1 X51.716 Y50.209 E14.04082
G1 X51.716 Y49.783 E14.04243
G1 X51.653 Y49.502 E14.04351
G1 X51.424 Y49.022 E14.04551
G1 X51.099 Y48.668 E14.04732
G1 X50.732 Y48.444 E14.04894
G1 X50.209 Y48.281 E14.051
G1 X49.783 Y48.28 E14.0526
G1 X49.502 Y48.342 E14.05368
G1 X49.022 Y48.572 E14.05569
G1 X48.668 Y48.897 E14.05749
G1 X48.444 Y49.264 E14.05911
G1 X48.281 Y49.791 E14.06119
G1 X48.28 Y50.217 E14.06279
G1 X48.342 Y50.494 E14.06386
G1 X48.572 Y50.978 E14.06587
G1 X48.896 Y51.327 E14.06766
G1 X49.268 Y51.555 E14.06931
G1 X49.644 Y51.693 E14.07081
G1 X50.221 Y51.715 E14.07298
G1 X50.494 Y51.653 E14.07404
G0 F7200 X50.674 Y51.568
G0 X50.454 Y50.817
G1 F600 X50.06 Y50.935 E14.07559
G1 X49.739 Y50.9 E14.0768
G1 X49.384 Y50.705 E14.07832
G1 X49.196 Y50.484 E14.07942
G1 X49.06 Y50.032 E14.08119
G1 X49.092 Y49.748 E14.08227
G1 X49.316 Y49.356 E14.08396
G1 X49.541 Y49.179 E14.08504
G1 X49.964 Y49.06 E14.0867
G1 X50.248 Y49.092 E14.08777
G1 X50.612 Y49.291 E14.08933
G1 X50.817 Y49.541 E14.09055
G1 X50.936 Y49.964 E14.0922
G1 X50.904 Y50.248 E14.09328
G1 X50.705 Y50.612 E14.09484
G1 X50.454 Y50.817 E14.09606
G0 F7200 X50.263 Y50.874
;MESH:NONMESH
G0 F600 X50.263 Y50.874 Z1.38
G0 F7200 X50.512 Y51.239
;TIME_ELAPSED:65.138693
;LAYER:18
;note -- min layer time used
;TYPE:WALL-INNER
;MESH:15977_Sphere_with_Grid_v1.obj
G1 F570.1 X50.732 Y51.115 E14.09706
G1 F571.4 X51.106 Y50.755 E14.09911
G1 F579.7 X51.311 Y50.282 E14.10111
G1 X51.342 Y49.994 E14.10224
G1 F578.3 X51.239 Y49.485 E14.10427
G1 F572.8 X51.117 Y49.268 E14.10525
G1 F574.2 X50.753 Y48.888 E14.10732
G1 F581.1 X50.285 Y48.686 E14.1093
G1 F583.9 X49.993 Y48.656 E14.11043
G1 F582.5 X49.485 Y48.757 E14.11244
G1 F571.4 X49.268 Y48.879 E14.11342
G1 X48.888 Y49.243 E14.1155
G1 F581.1 X48.686 Y49.711 E14.11748
G1 F583.9 X48.656 Y50.003 E14.11862
G1 F582.5 X48.757 Y50.512 E14.12063
G1 F571.4 X48.88 Y50.731 E14.12162
G1 X49.243 Y51.108 E14.12369
G1 F581.1 X49.718 Y51.311 E14.12569
G1 X50.003 Y51.342 E14.12681
G1 F578.3 X50.512 Y51.239 E14.12883
G0 F7200 X50.381 Y50.854
;TYPE:WALL-OUTER
G1 F600 X50.048 Y50.936 E14.13012
G1 X49.754 Y50.904 E14.13124
G1 X49.466 Y50.768 E14.13243
G1 X49.142 Y50.381 E14.13433
G1 X49.06 Y50.046 E14.13563
G1 X49.092 Y49.753 E14.13674
G1 X49.228 Y49.466 E14.13794
G1 X49.615 Y49.142 E14.13983
G1 X49.95 Y49.06 E14.14113
G1 X50.243 Y49.092 E14.14224
G1 X50.53 Y49.228 E14.14344
G1 X50.854 Y49.615 E14.14533
G1 X50.936 Y49.947 E14.14662
G1 X50.904 Y50.243 E14.14774
G1 X50.756 Y50.547 E14.14901
G1 X50.381 Y50.854 E14.15084
G0 F7200 X50.187 Y50.901
G0 X50.667 Y51.618
G1 F600 X50.961 Y51.46 E14.15209
G1 X51.234 Y51.241 E14.15341
G1 X51.445 Y50.983 E14.15466
G1 X51.618 Y50.666 E14.15602
G1 X51.711 Y50.363 E14.15721
G1 X51.751 Y49.995 E14.15861
G1 X51.718 Y49.675 E14.15982
G1 X51.618 Y49.329 E14.16117
G1 X51.46 Y49.04 E14.16241
G1 X51.24 Y48.765 E14.16373
G1 X50.982 Y48.551 E14.165
G1 X50.666 Y48.378 E14.16635
G1 X50.364 Y48.286 E14.16754
G1 X49.995 Y48.249 E14.16893
G1 X49.674 Y48.278 E14.17015
G1 X49.329 Y48.379 E14.1715
G1 X49.039 Y48.535 E14.17274
G1 X48.765 Y48.756 E14.17406
G1 X48.551 Y49.014 E14.17532
G1 X48.378 Y49.33 E14.17668
G1 X48.286 Y49.632 E14.17787
G1 X48.249 Y50.001 E14.17926
G1 X48.278 Y50.326 E14.18049
G1 X48.379 Y50.667 E14.18183
G1 X48.536 Y50.96 E14.18308
G1 X48.756 Y51.23 E14.18439
G1 X49.014 Y51.445 E14.18565
G1 X49.33 Y51.618 E14.18701
G1 X49.637 Y51.71 E14.18821
G1 X50.001 Y51.751 E14.18959
G1 X50.325 Y51.718 E14.19082
G1 X50.667 Y51.618 E14.19216
G0 F7200 X50.843 Y51.524
;MESH:NONMESH
G0 F600 X50.843 Y51.524 Z1.44
G0 F7200 X50.237 Y51.323
;TIME_ELAPSED:67.815611
;LAYER:19
;note -- min layer time used
;TYPE:WALL-INNER
;MESH:15977_Sphere_with_Grid_v1.obj
G1 F566 X50.731 Y51.124 E14.19428
G1 F564.7 X51.005 Y50.896 E14.1957
G1 F563.4 X51.256 Y50.461 E14.19772
G1 F564.7 X51.342 Y50.056 E14.19937
G1 F566 X51.265 Y49.546 E14.20143
G1 F559.4 X51.124 Y49.267 E14.20269
G1 F566 X50.896 Y48.993 E14.20411
G1 X50.461 Y48.74 E14.20612
G1 F564.7 X50.054 Y48.654 E14.20778
G1 X49.549 Y48.73 E14.20982
G1 F559.4 X49.267 Y48.875 E14.2111
G1 F566 X48.993 Y49.102 E14.21252
G1 F564.7 X48.741 Y49.532 E14.21451
G1 X48.654 Y49.942 E14.21619
G1 F566 X48.73 Y50.448 E14.21823
G1 F562.1 X48.875 Y50.731 E14.21951
G1 F566 X49.102 Y51.005 E14.22093
G1 F564.7 X49.534 Y51.257 E14.22292
G1 F556.8 X49.941 Y51.335 E14.2246
G1 F562.1 X50.237 Y51.323 E14.22579
G0 F7200 X50.593 Y51.655
;TYPE:WALL-OUTER
G1 F600 X50.96 Y51.471 E14.22734
G1 X51.302 Y51.181 E14.22903
G1 X51.473 Y50.961 E14.23007
G1 X51.652 Y50.595 E14.23161
G1 X51.754 Y50.082 E14.23357
G1 X51.729 Y49.7 E14.23501
G1 X51.655 Y49.402 E14.23617
G1 X51.472 Y49.036 E14.23771
G1 X51.18 Y48.697 E14.23939
G1 X50.96 Y48.523 E14.24045
G1 X50.595 Y48.344 E14.24198
G1 X50.082 Y48.242 E14.24394
G1 X49.696 Y48.267 E14.2454
G1 X49.403 Y48.34 E14.24654
G1 X49.036 Y48.528 E14.24809
G1 X48.697 Y48.816 E14.24976
G1 X48.522 Y49.036 E14.25082
G1 X48.344 Y49.398 E14.25234
G1 X48.242 Y49.914 E14.25431
G1 X48.267 Y50.296 E14.25575
G1 X48.341 Y50.593 E14.25691
G1 X48.529 Y50.96 E14.25846
G1 X48.816 Y51.302 E14.26014
G1 X49.035 Y51.473 E14.26118
G1 X49.401 Y51.652 E14.26272
G1 X49.914 Y51.754 E14.26468
G1 X50.3 Y51.729 E14.26614
G1 X50.593 Y51.655 E14.26728
G0 F7200 X50.771 Y51.566
G0 X50.41 Y50.844
G1 F600 X50.145 Y50.924 E14.26832
G1 X49.769 Y50.905 E14.26973
G1 X49.375 Y50.698 E14.27141
G1 X49.153 Y50.412 E14.27277
G1 X49.072 Y50.144 E14.27382
G1 X49.067 Y49.889 E14.27478
G1 X49.168 Y49.563 E14.27607
G1 X49.298 Y49.374 E14.27693
G1 X49.589 Y49.153 E14.2783
G1 X49.882 Y49.068 E14.27945
G1 X50.107 Y49.067 E14.2803
G1 X50.433 Y49.167 E14.28158
G1 X50.644 Y49.317 E14.28255
G1 X50.825 Y49.56 E14.28369
G1 X50.924 Y49.852 E14.28485
G1 X50.929 Y50.107 E14.28581
G1 X50.829 Y50.433 E14.2871
G1 X50.707 Y50.615 E14.28792
G1 X50.41 Y50.844 E14.28933
G0 F7200 X50.219 Y50.901
;MESH:NONMESH
G0 F600 X50.219 Y50.901 Z1.5
G0 F7200 X50.517 Y51.243
;TIME_ELAPSED:70.517422
;LAYER:20
;note -- min layer time used
;TYPE:WALL-INNER
;MESH:15977_Sphere_with_Grid_v1.obj
G1 F559.4 X50.964 Y50.937 E14.29152
G1 F556.8 X51.116 Y50.75 E14.29249
G1 F559.4 X51.314 Y50.303 E14.29447
G1 F564.7 X51.349 Y49.987 E14.29574
G1 F558.1 X51.242 Y49.48 E14.29783
G1 F550.5 X50.953 Y49.048 E14.29997
G1 X50.763 Y48.888 E14.30098
G1 F558.1 X50.299 Y48.682 E14.30304
G1 F564.7 X49.987 Y48.647 E14.30429
G1 F562.1 X49.48 Y48.754 E14.30637
G1 F553 X49.048 Y49.044 E14.3085
G1 F550.5 X48.887 Y49.236 E14.30952
G1 F559.4 X48.682 Y49.7 E14.31157
G1 F564.7 X48.647 Y50.009 E14.31281
G1 F560.7 X48.753 Y50.517 E14.3149
G1 F554.3 X49.047 Y50.951 E14.31704
G1 F551.7 X49.229 Y51.105 E14.31801
G1 F558.1 X49.697 Y51.314 E14.32009
G1 F563.4 X50.009 Y51.349 E14.32134
G1 F560.7 X50.517 Y51.243 E14.32343
G0 F7200 X50.672 Y51.629
;TYPE:WALL-OUTER
G1 F600 X50.968 Y51.476 E14.32469
G1 X51.242 Y51.249 E14.32603
G1 X51.457 Y50.994 E14.32728
G1 X51.63 Y50.674 E14.32865
G1 X51.719 Y50.387 E14.32978
G1 X51.763 Y49.993 E14.33127
G1 X51.738 Y49.693 E14.3324
G1 X51.629 Y49.324 E14.33385
G1 X51.475 Y49.031 E14.3351
G1 X51.252 Y48.753 E14.33644
G1 X50.996 Y48.54 E14.33769
G1 X50.674 Y48.37 E14.33906
G1 X50.385 Y48.277 E14.3402
G1 X49.993 Y48.233 E14.34169
G1 X49.693 Y48.258 E14.34282
G1 X49.324 Y48.367 E14.34427
G1 X49.031 Y48.521 E14.34551
G1 X48.753 Y48.744 E14.34685
G1 X48.539 Y49.004 E14.34812
G1 X48.369 Y49.322 E14.34948
G1 X48.277 Y49.614 E14.35063
G1 X48.233 Y50.003 E14.3521
G1 X48.258 Y50.306 E14.35324
G1 X48.367 Y50.672 E14.35468
G1 X48.521 Y50.969 E14.35594
G1 X48.743 Y51.242 E14.35726
G1 X49.005 Y51.457 E14.35854
G1 X49.322 Y51.63 E14.3599
G1 X49.613 Y51.719 E14.36104
G1 X50.003 Y51.763 E14.36252
G1 X50.306 Y51.738 E14.36366
G1 X50.672 Y51.629 E14.3651
G0 F7200 X50.849 Y51.538
G0 X50.413 Y50.839
G1 F600 X50.041 Y50.936 E14.36654
G1 X49.753 Y50.904 E14.36763
G1 X49.433 Y50.743 E14.36898
G1 X49.158 Y50.413 E14.3706
G1 X49.06 Y50.041 E14.37205
G1 X49.093 Y49.751 E14.37314
G1 X49.253 Y49.433 E14.37448
G1 X49.586 Y49.158 E14.37611
G1 X49.977 Y49.059 E14.37763
G1 X50.25 Y49.093 E14.37866
G1 X50.593 Y49.273 E14.38012
G1 X50.838 Y49.586 E14.38161
G1 X50.936 Y49.955 E14.38305
G1 X50.904 Y50.247 E14.38415
G1 X50.722 Y50.593 E14.38563
G1 X50.413 Y50.839 E14.38711
G0 F7200 X50.22 Y50.889
;MESH:NONMESH
G0 F600 X50.22 Y50.889 Z1.56
G0 F7200 X50.515 Y51.246
;TIME_ELAPSED:73.234316
;LAYER:21
;note -- min layer time used
;TYPE:WALL-INNER
;MESH:15977_Sphere_with_Grid_v1.obj
G1 F553 X50.939 Y50.972 E14.38917
G1 X51.188 Y50.632 E14.39089
G1 F549.2 X51.327 Y50.244 E14.39259
G1 F545.5 X51.349 Y49.999 E14.3936
G1 F546.7 X51.245 Y49.476 E14.39581
G1 F551.7 X50.972 Y49.057 E14.39785
G1 X50.632 Y48.808 E14.39958
G1 F549.2 X50.247 Y48.67 E14.40126
G1 F543 X49.767 Y48.672 E14.40325
G1 F545.5 X49.485 Y48.748 E14.40446
G1 F554.3 X49.06 Y49.025 E14.40653
G1 F553 X48.806 Y49.367 E14.40827
G1 F550.5 X48.67 Y49.752 E14.40994
G1 F544.2 X48.672 Y50.229 E14.41192
G1 F546.7 X48.749 Y50.512 E14.41313
G1 F554.3 X49.025 Y50.938 E14.4152
G1 F551.7 X49.366 Y51.189 E14.41693
G1 F550.5 X49.756 Y51.327 E14.41863
G1 F546.7 X50.001 Y51.349 E14.41964
G1 X50.515 Y51.246 E14.42181
G0 F7200 X50.675 Y51.634
;TYPE:WALL-OUTER
G1 F600 X51.022 Y51.445 E14.42329
G1 X51.244 Y51.258 E14.42438
G1 X51.561 Y50.829 E14.42639
G1 X51.739 Y50.336 E14.42836
G1 X51.771 Y49.999 E14.42964
G1 X51.742 Y49.69 E14.4308
G1 X51.633 Y49.317 E14.43227
G1 X51.449 Y48.978 E14.43372
G1 X51.258 Y48.751 E14.43483
G1 X50.829 Y48.435 E14.43684
G1 X50.337 Y48.258 E14.4388
G1 X49.998 Y48.229 E14.44008
G1 X49.689 Y48.254 E14.44125
G1 X49.325 Y48.362 E14.44268
G1 X48.978 Y48.55 E14.44416
G1 X48.755 Y48.738 E14.44526
G1 X48.434 Y49.168 E14.44728
G1 X48.258 Y49.663 E14.44926
G1 X48.229 Y50.001 E14.45053
G1 X48.254 Y50.307 E14.45169
G1 X48.363 Y50.671 E14.45312
G1 X48.551 Y51.023 E14.45462
G1 X48.738 Y51.244 E14.45571
G1 X49.168 Y51.561 E14.45772
G1 X49.665 Y51.738 E14.4597
G1 X50.001 Y51.771 E14.46097
G1 X50.306 Y51.742 E14.46213
G1 X50.675 Y51.634 E14.46357
G0 F7200 X50.85 Y51.539
G0 X50.293 Y50.888
G1 F600 X49.909 Y50.932 E14.46503
G1 X49.648 Y50.869 E14.46604
G1 X49.307 Y50.63 E14.4676
G1 X49.108 Y50.294 E14.46907
G1 X49.064 Y49.911 E14.47052
G1 X49.127 Y49.648 E14.47154
G1 X49.366 Y49.307 E14.47311
G1 X49.702 Y49.108 E14.47458
G1 X50.085 Y49.064 E14.47603
G1 X50.38 Y49.141 E14.47717
G1 X50.693 Y49.366 E14.47862
G1 X50.889 Y49.703 E14.48009
G1 X50.932 Y50.087 E14.48154
G1 X50.855 Y50.38 E14.48268
G1 X50.63 Y50.693 E14.48413
G1 X50.293 Y50.888 E14.4856
G0 F7200 X50.095 Y50.91
;MESH:NONMESH
G0 F600 X50.095 Y50.91 Z1.62
G0 F7200 X50.572 Y51.224
;TIME_ELAPSED:75.973328
;LAYER:22
;note -- min layer time used
;TYPE:WALL-INNER
;MESH:15977_Sphere_with_Grid_v1.obj
G1 F555.6 X50.937 Y50.968 E14.48741
G1 F551.7 X51.101 Y50.779 E14.48843
G1 F549.2 X51.33 Y50.236 E14.49086
G1 X51.323 Y49.72 E14.49298
G1 F551.7 X51.224 Y49.424 E14.49425
G1 F555.6 X50.968 Y49.059 E14.49606
G1 F551.7 X50.778 Y48.894 E14.49709
G1 F545.5 X50.263 Y48.672 E14.49941
G1 X49.924 Y48.647 E14.50082
G1 F551.7 X49.424 Y48.772 E14.50293
G1 F550.5 X49.088 Y49.003 E14.5046
G1 F547.9 X48.894 Y49.22 E14.5058
G1 F545.5 X48.672 Y49.734 E14.50812
G1 F541.8 X48.647 Y50.072 E14.50953
G1 F549.2 X48.772 Y50.572 E14.51165
G1 F550.5 X49.003 Y50.908 E14.51332
G1 F545.5 X49.223 Y51.101 E14.51453
G1 F544.2 X49.564 Y51.279 E14.51613
G1 F543 X50.072 Y51.348 E14.51826
G1 F549.2 X50.572 Y51.224 E14.52038
G0 F7200 X50.405 Y50.844
;TYPE:WALL-OUTER
G1 F600 X50.115 Y50.927 E14.52151
G1 X49.729 Y50.892 E14.52297
G1 X49.379 Y50.703 E14.52447
G1 X49.152 Y50.405 E14.52587
G1 X49.069 Y50.131 E14.52695
G1 X49.068 Y49.898 E14.52783
G1 X49.156 Y49.593 E14.52902
G1 X49.293 Y49.379 E14.52998
G1 X49.591 Y49.152 E14.53139
G1 X49.865 Y49.069 E14.53247
G1 X50.102 Y49.068 E14.53336
G1 X50.404 Y49.156 E14.53454
G1 X50.618 Y49.294 E14.5355
G1 X50.827 Y49.56 E14.53677
G1 X50.927 Y49.865 E14.53798
G1 X50.923 Y50.136 E14.539
G1 X50.827 Y50.436 E14.54018
G1 X50.702 Y50.618 E14.54101
G1 X50.405 Y50.844 E14.54242
G0 F7200 X50.213 Y50.898
G0 X50.758 Y51.599
G1 F600 X51.187 Y51.311 E14.54436
G1 X51.449 Y51.017 E14.54584
G1 X51.672 Y50.582 E14.54768
G1 X51.741 Y50.333 E14.54865
G1 X51.77 Y49.911 E14.55025
G1 X51.732 Y49.623 E14.55134
G1 X51.599 Y49.238 E14.55287
G1 X51.311 Y48.809 E14.55481
G1 X51.017 Y48.547 E14.5563
G1 X50.586 Y48.324 E14.55812
G1 X50.334 Y48.255 E14.5591
G1 X49.911 Y48.226 E14.5607
G1 X49.623 Y48.264 E14.56179
G1 X49.238 Y48.397 E14.56333
G1 X48.809 Y48.684 E14.56527
G1 X48.547 Y48.982 E14.56676
G1 X48.324 Y49.414 E14.56859
G1 X48.255 Y49.663 E14.56956
G1 X48.225 Y50.085 E14.57115
G1 X48.264 Y50.373 E14.57225
G1 X48.397 Y50.758 E14.57378
G1 X48.684 Y51.187 E14.57572
G1 X48.983 Y51.449 E14.57722
G1 X49.41 Y51.672 E14.57903
G1 X49.662 Y51.742 E14.58001
G1 X50.085 Y51.771 E14.58161
G1 X50.373 Y51.732 E14.5827
G1 X50.758 Y51.599 E14.58423
G0 F7200 X50.923 Y51.488
;MESH:NONMESH
G0 F600 X50.923 Y51.488 Z1.68
G0 F7200 X50.595 Y51.211
;TIME_ELAPSED:78.713804
;LAYER:23
;note -- min layer time used
;TYPE:WALL-INNER
;MESH:15977_Sphere_with_Grid_v1.obj
G1 F547.9 X50.907 Y50.997 E14.58579
G1 F540.5 X51.099 Y50.776 E14.58701
G1 F539.3 X51.277 Y50.44 E14.58861
G1 F544.2 X51.348 Y49.97 E14.59058
G1 F549.2 X51.211 Y49.404 E14.59297
G1 F546.7 X50.996 Y49.088 E14.59455
G1 F540.5 X50.777 Y48.898 E14.59576
G1 X50.443 Y48.721 E14.59734
G1 F546.7 X49.97 Y48.648 E14.59931
G1 F555.6 X49.404 Y48.787 E14.60168
G1 F553 X49.085 Y49.004 E14.60326
G1 F541.8 X48.898 Y49.219 E14.60444
G1 X48.72 Y49.56 E14.60605
G1 F547.9 X48.648 Y50.03 E14.60801
G1 F553 X48.787 Y50.595 E14.61038
G1 F550.5 X49.003 Y50.91 E14.61195
G1 F546.7 X49.218 Y51.102 E14.61314
G1 F547.9 X49.734 Y51.327 E14.61546
G1 X50.027 Y51.348 E14.61667
G1 F550.5 X50.595 Y51.211 E14.61906
G0 F7200 X50.437 Y50.826
;TYPE:WALL-OUTER
G1 F600 X50.132 Y50.927 E14.62027
G1 X49.822 Y50.917 E14.62144
G1 X49.544 Y50.818 E14.62255
G1 X49.37 Y50.694 E14.62335
G1 X49.171 Y50.437 E14.62457
G1 X49.069 Y50.133 E14.62578
G1 X49.095 Y49.753 E14.62721
G1 X49.302 Y49.37 E14.62885
G1 X49.56 Y49.17 E14.63008
G1 X49.867 Y49.069 E14.6313
G1 X50.271 Y49.105 E14.63282
G1 X50.624 Y49.301 E14.63434
G1 X50.824 Y49.555 E14.63556
G1 X50.933 Y49.901 E14.63692
G1 X50.902 Y50.24 E14.6382
G1 X50.695 Y50.624 E14.63984
G1 X50.437 Y50.826 E14.64108
G0 F7200 X50.247 Y50.888
G0 X50.765 Y51.598
G1 F600 X51.186 Y51.316 E14.64298
G1 X51.45 Y51.017 E14.64448
G1 X51.672 Y50.594 E14.64628
G1 X51.741 Y50.334 E14.64729
G1 X51.77 Y49.934 E14.6488
G1 X51.598 Y49.234 E14.65151
G1 X51.315 Y48.809 E14.65343
G1 X51.018 Y48.547 E14.65492
G1 X50.598 Y48.328 E14.65671
G1 X50.333 Y48.255 E14.65774
G1 X49.934 Y48.226 E14.65924
G1 X49.235 Y48.402 E14.66196
G1 X48.808 Y48.685 E14.66388
G1 X48.547 Y48.978 E14.66536
G1 X48.328 Y49.406 E14.66717
G1 X48.255 Y49.663 E14.66817
G1 X48.226 Y50.063 E14.66968
G1 X48.402 Y50.765 E14.67241
G1 X48.684 Y51.187 E14.67431
G1 X48.979 Y51.449 E14.6758
G1 X49.402 Y51.668 E14.67759
G1 X49.663 Y51.741 E14.67861
G1 X50.062 Y51.77 E14.68012
G1 X50.765 Y51.598 E14.68284
G0 F7200 X50.931 Y51.487
;MESH:NONMESH
G0 F600 X50.931 Y51.487 Z1.74
G0 F7200 X50.569 Y51.226
;TIME_ELAPSED:81.453724
;LAYER:24
;note -- min layer time used
;TYPE:WALL-INNER
;MESH:15977_Sphere_with_Grid_v1.obj
G1 F551.7 X50.943 Y50.97 E14.68469
G1 F546.7 X51.092 Y50.787 E14.68567
G1 F541.8 X51.278 Y50.428 E14.68735
G1 F544.2 X51.348 Y49.925 E14.68946
G1 F546.7 X51.225 Y49.426 E14.69158
G1 F547.9 X50.969 Y49.054 E14.69344
G1 F559.4 X50.594 Y48.789 E14.69529
G1 F553 X50.263 Y48.674 E14.69672
G1 F545.5 X49.724 Y48.673 E14.69895
G1 F555.6 X49.425 Y48.773 E14.70024
G1 F551.7 X49.054 Y49.031 E14.70208
G1 F558.1 X48.79 Y49.403 E14.70393
G1 F551.7 X48.674 Y49.734 E14.70536
G1 F545.5 X48.673 Y50.276 E14.70761
G1 F554.3 X48.772 Y50.57 E14.70887
G1 F551.7 X49.03 Y50.943 E14.71073
G1 F545.5 X49.214 Y51.094 E14.71171
G1 F544.2 X49.732 Y51.326 E14.71406
G1 F547.9 X50.279 Y51.323 E14.71632
G1 F549.2 X50.569 Y51.226 E14.71758
G0 F7200 X50.396 Y50.846
;TYPE:WALL-OUTER
G1 F600 X50.155 Y50.923 E14.71853
G1 X49.862 Y50.924 E14.71963
G1 X49.591 Y50.842 E14.72069
G1 X49.35 Y50.673 E14.7218
G1 X49.169 Y50.429 E14.72294
G1 X49.077 Y50.179 E14.72395
G1 X49.068 Y49.914 E14.72494
G1 X49.141 Y49.623 E14.72607
G1 X49.327 Y49.35 E14.72732
G1 X49.599 Y49.15 E14.72859
G1 X49.838 Y49.074 E14.72953
G1 X50.082 Y49.068 E14.73045
G1 X50.405 Y49.153 E14.7317
G1 X50.65 Y49.327 E14.73283
G1 X50.855 Y49.621 E14.73418
G1 X50.923 Y49.84 E14.73505
G1 X50.932 Y50.082 E14.73596
G1 X50.843 Y50.404 E14.73721
G1 X50.673 Y50.65 E14.73834
G1 X50.396 Y50.846 E14.73962
G0 F7200 X50.206 Y50.906
G0 X50.757 Y51.603
G1 F600 X51.224 Y51.282 E14.74175
G1 X51.444 Y51.023 E14.74303
G1 X51.672 Y50.582 E14.74489
G1 X51.741 Y50.333 E14.74587
G1 X51.77 Y49.911 E14.74746
G1 X51.732 Y49.626 E14.74854
G1 X51.603 Y49.238 E14.75008
G1 X51.282 Y48.772 E14.75221
G1 X51.023 Y48.551 E14.75349
G1 X50.586 Y48.324 E14.75534
G1 X50.334 Y48.255 E14.75632
G1 X49.912 Y48.226 E14.75791
G1 X49.627 Y48.268 E14.759
G1 X49.238 Y48.397 E14.76054
G1 X48.772 Y48.718 E14.76267
G1 X48.552 Y48.977 E14.76395
G1 X48.323 Y49.414 E14.7658
G1 X48.255 Y49.662 E14.76677
G1 X48.225 Y50.084 E14.76836
G1 X48.268 Y50.373 E14.76946
G1 X48.397 Y50.757 E14.77098
G1 X48.718 Y51.225 E14.77312
G1 X48.977 Y51.445 E14.7744
G1 X49.41 Y51.672 E14.77624
G1 X49.662 Y51.741 E14.77722
G1 X50.085 Y51.771 E14.77882
G1 X50.374 Y51.732 E14.77991
G1 X50.757 Y51.603 E14.78143
G0 F7200 X50.921 Y51.49
;MESH:NONMESH
G0 F600 X50.921 Y51.49 Z1.8
G0 F7200 X50.519 Y51.246
;TIME_ELAPSED:84.194139
;LAYER:25
;note -- min layer time used
;TYPE:WALL-INNER
;MESH:15977_Sphere_with_Grid_v1.obj
G1 F555.6 X50.949 Y50.962 E14.78353
G1 F549.2 X51.12 Y50.747 E14.78466
G1 F541.8 X51.293 Y50.376 E14.78636
G1 F544.2 X51.342 Y49.869 E14.78847
G1 F551.7 X51.245 Y49.477 E14.79013
G1 X50.962 Y49.047 E14.79223
G1 F564.7 X50.573 Y48.781 E14.79412
G1 F562.1 X50.274 Y48.68 E14.79538
G1 F547.9 X49.867 Y48.654 E14.79706
G1 F551.7 X49.477 Y48.751 E14.79871
G1 F554.3 X49.047 Y49.034 E14.8008
G1 F566 X48.78 Y49.428 E14.8027
G1 F560.7 X48.68 Y49.723 E14.80396
G1 F547.9 X48.654 Y50.129 E14.80563
G1 F553 X48.75 Y50.519 E14.80727
G1 F555.6 X49.034 Y50.949 E14.80937
G1 F564.7 X49.424 Y51.215 E14.81125
G1 F558.1 X49.721 Y51.319 E14.81253
G1 F546.7 X50.127 Y51.342 E14.8142
G1 F554.3 X50.519 Y51.246 E14.81585
G0 F7200 X50.67 Y51.636
;TYPE:WALL-OUTER
G1 F600 X51.022 Y51.446 E14.81735
G1 X51.248 Y51.255 E14.81847
G1 X51.477 Y50.972 E14.81984
G1 X51.731 Y50.44 E14.82205
G1 X51.762 Y49.828 E14.82436
G1 X51.636 Y49.325 E14.82631
G1 X51.445 Y48.974 E14.82781
G1 X51.255 Y48.748 E14.82892
G1 X50.973 Y48.519 E14.83029
G1 X50.435 Y48.269 E14.83252
G1 X49.828 Y48.234 E14.83481
G1 X49.325 Y48.36 E14.83676
G1 X48.974 Y48.551 E14.83826
G1 X48.748 Y48.741 E14.83937
G1 X48.519 Y49.023 E14.84074
G1 X48.268 Y49.567 E14.843
G1 X48.234 Y50.168 E14.84526
G1 X48.36 Y50.67 E14.84721
G1 X48.55 Y51.022 E14.84871
G1 X48.741 Y51.248 E14.84983
G1 X49.023 Y51.477 E14.85119
G1 X49.564 Y51.732 E14.85344
G1 X50.168 Y51.762 E14.85572
G1 X50.67 Y51.636 E14.85766
G0 F7200 X50.846 Y51.541
G0 X50.412 Y50.84
G1 F600 X50.178 Y50.919 E14.85859
G1 X49.918 Y50.932 E14.85957
G1 X49.598 Y50.845 E14.86082
G1 X49.362 Y50.688 E14.86189
G1 X49.169 Y50.434 E14.86309
G1 X49.077 Y50.177 E14.86411
G1 X49.068 Y49.916 E14.8651
G1 X49.15 Y49.599 E14.86633
G1 X49.334 Y49.335 E14.86754
G1 X49.588 Y49.156 E14.86871
G1 X49.819 Y49.077 E14.86963
G1 X50.08 Y49.068 E14.87061
G1 X50.401 Y49.15 E14.87186
G1 X50.661 Y49.334 E14.87305
G1 X50.84 Y49.588 E14.87422
G1 X50.919 Y49.818 E14.87514
G1 X50.929 Y50.113 E14.87625
G1 X50.846 Y50.402 E14.87738
G1 X50.688 Y50.634 E14.87844
G1 X50.412 Y50.84 E14.87973
G0 F7200 X50.223 Y50.903
;MESH:NONMESH
G0 F600 X50.223 Y50.903 Z1.86
G0 F7200 X50.513 Y51.247
;TIME_ELAPSED:86.924583
;LAYER:26
;note -- min layer time used
;TYPE:WALL-INNER
;MESH:15977_Sphere_with_Grid_v1.obj
G1 F554.3 X50.955 Y50.952 E14.88189
G1 F546.7 X51.24 Y50.515 E14.88405
G1 F544.2 X51.346 Y50.006 E14.88621
G1 F549.2 X51.246 Y49.481 E14.8884
G1 F553 X50.951 Y49.039 E14.89057
G1 F546.7 X50.515 Y48.756 E14.89272
G1 F543 X50.006 Y48.65 E14.89488
G1 F551.7 X49.484 Y48.749 E14.89705
G1 F554.3 X49.041 Y49.044 E14.89922
G1 F547.9 X48.755 Y49.487 E14.90139
G1 F546.7 X48.674 Y49.742 E14.9025
G1 F547.9 X48.65 Y49.99 E14.90352
G1 F551.7 X48.749 Y50.513 E14.9057
G1 F555.6 X49.044 Y50.955 E14.90786
G1 F546.7 X49.484 Y51.24 E14.91002
G1 F545.5 X49.742 Y51.322 E14.91115
G1 F547.9 X49.99 Y51.346 E14.91217
G1 F550.5 X50.513 Y51.247 E14.91435
G0 F7200 X50.677 Y51.631
;TYPE:WALL-OUTER
G1 F600 X50.995 Y51.457 E14.91572
G1 X51.25 Y51.249 E14.91696
G1 X51.457 Y50.999 E14.91818
G1 X51.633 Y50.675 E14.91956
G1 X51.738 Y50.307 E14.921
G1 X51.767 Y50.002 E14.92216
G1 X51.723 Y49.61 E14.92364
G1 X51.631 Y49.316 E14.9248
G1 X51.457 Y49.005 E14.92614
G1 X51.248 Y48.746 E14.92739
G1 X50.999 Y48.539 E14.92861
G1 X50.675 Y48.363 E14.93
G1 X50.307 Y48.258 E14.93144
G1 X50.002 Y48.229 E14.93259
G1 X49.61 Y48.273 E14.93407
G1 X49.32 Y48.365 E14.93522
G1 X49.004 Y48.539 E14.93658
G1 X48.746 Y48.747 E14.93782
G1 X48.543 Y48.997 E14.93903
G1 X48.363 Y49.325 E14.94044
G1 X48.259 Y49.69 E14.94187
G1 X48.229 Y49.994 E14.94302
G1 X48.273 Y50.386 E14.9445
G1 X48.366 Y50.676 E14.94565
G1 X48.539 Y50.995 E14.94701
G1 X48.747 Y51.25 E14.94825
G1 X48.997 Y51.456 E14.94947
G1 X49.324 Y51.633 E14.95087
G1 X49.69 Y51.737 E14.9523
G1 X49.994 Y51.767 E14.95345
G1 X50.386 Y51.723 E14.95493
G1 X50.677 Y51.631 E14.95608
G0 F7200 X50.852 Y51.535
G0 X50.412 Y50.84
G1 F600 X50.103 Y50.931 E14.95729
G1 X49.752 Y50.901 E14.95862
G1 X49.354 Y50.678 E14.96034
G1 X49.156 Y50.412 E14.96158
G1 X49.065 Y50.103 E14.96279
G1 X49.095 Y49.752 E14.96412
G1 X49.296 Y49.377 E14.96572
G1 X49.587 Y49.156 E14.9671
G1 X49.897 Y49.065 E14.96831
G1 X50.276 Y49.107 E14.96975
G1 X50.62 Y49.297 E14.97122
G1 X50.839 Y49.586 E14.97259
G1 X50.931 Y49.897 E14.97381
G1 X50.889 Y50.276 E14.97524
G1 X50.699 Y50.62 E14.97672
G1 X50.412 Y50.84 E14.97808
G0 F7200 X50.221 Y50.896
;MESH:NONMESH
G0 F600 X50.221 Y50.896 Z1.92
G0 F7200 X50.457 Y51.255
;TIME_ELAPSED:89.655921
;LAYER:27
;note -- min layer time used
;TYPE:WALL-INNER
;MESH:15977_Sphere_with_Grid_v1.obj
G1 F555.6 X50.776 Y51.098 E14.97953
G1 F566 X51.125 Y50.73 E14.98155
G1 F558.1 X51.259 Y50.457 E14.98278
G1 F555.6 X51.341 Y50.056 E14.98444
G1 F562.1 X51.268 Y49.544 E14.98652
G1 F570.1 X50.982 Y49.08 E14.98868
G1 F568.7 X50.732 Y48.872 E14.98997
G1 F560.7 X50.458 Y48.739 E14.99119
G1 F559.4 X50.056 Y48.655 E14.99285
G1 F566 X49.545 Y48.728 E14.99491
G1 F567.4 X49.103 Y48.994 E14.99696
G1 F563.4 X48.871 Y49.265 E14.99839
G1 F560.7 X48.739 Y49.535 E14.9996
G1 F558.1 X48.655 Y49.952 E15.00132
G1 F563.4 X48.728 Y50.452 E15.00335
G1 F567.4 X48.993 Y50.894 E15.0054
G1 F554.3 X49.269 Y51.119 E15.00685
G1 F550.5 X49.55 Y51.266 E15.00815
G1 F562.1 X50.055 Y51.344 E15.0102
G1 F554.3 X50.457 Y51.255 E15.01188
G0 F7200 X50.594 Y51.657
;TYPE:WALL-OUTER
G1 F600 X50.96 Y51.474 E15.01342
G1 X51.181 Y51.302 E15.01447
G1 X51.471 Y50.96 E15.01616
G1 X51.657 Y50.594 E15.0177
G1 X51.758 Y50.082 E15.01966
G1 X51.733 Y49.7 E15.0211
G1 X51.655 Y49.399 E15.02227
G1 X51.474 Y49.035 E15.0238
G1 X51.302 Y48.816 E15.02485
G1 X50.961 Y48.525 E15.02654
G1 X50.594 Y48.343 E15.02808
G1 X50.082 Y48.238 E15.03004
G1 X49.697 Y48.267 E15.0315
G1 X49.402 Y48.341 E15.03264
G1 X49.035 Y48.523 E15.03418
G1 X48.816 Y48.694 E15.03523
G1 X48.525 Y49.036 E15.03692
G1 X48.343 Y49.399 E15.03844
G1 X48.238 Y49.914 E15.04042
G1 X48.263 Y50.296 E15.04186
G1 X48.341 Y50.597 E15.04303
G1 X48.523 Y50.96 E15.04456
G1 X48.694 Y51.18 E15.04561
G1 X49.036 Y51.472 E15.0473
G1 X49.403 Y51.656 E15.04884
G1 X49.697 Y51.733 E15.04999
G1 X50.082 Y51.758 E15.05144
G1 X50.594 Y51.657 E15.0534
G0 F7200 X50.772 Y51.568
G0 X50.512 Y50.783
G1 F600 X50.116 Y50.929 E15.05499
G1 X49.756 Y50.902 E15.05635
G1 X49.354 Y50.681 E15.05807
G1 X49.102 Y50.279 E15.05986
G1 X49.071 Y49.86 E15.06144
G1 X49.169 Y49.562 E15.06262
G1 X49.351 Y49.324 E15.06375
G1 X49.718 Y49.102 E15.06536
G1 X50.137 Y49.071 E15.06694
G1 X50.433 Y49.168 E15.06811
G1 X50.667 Y49.343 E15.06921
G1 X50.895 Y49.717 E15.07086
G1 X50.925 Y50.135 E15.07244
G1 X50.827 Y50.435 E15.07362
G1 X50.512 Y50.783 E15.07539
G0 F7200 X50.325 Y50.852
;MESH:NONMESH
G0 F600 X50.325 Y50.852 Z1.98
G0 F7200 X50.248 Y51.316
;TIME_ELAPSED:92.360253
;LAYER:28
;note -- min layer time used
;TYPE:WALL-INNER
;MESH:15977_Sphere_with_Grid_v1.obj
G1 F579.7 X50.758 Y51.109 E15.07753
G1 F588.2 X51.159 Y50.664 E15.07983
G1 F575.5 X51.275 Y50.394 E15.08098
G1 F568.7 X51.343 Y49.997 E15.08258
G1 F574.2 X51.246 Y49.499 E15.08458
G1 F579.7 X51.107 Y49.236 E15.08574
G1 F572.8 X50.751 Y48.894 E15.08768
G1 F562.1 X50.395 Y48.723 E15.08927
G1 F572.8 X49.994 Y48.656 E15.09087
G1 F576.9 X49.493 Y48.755 E15.09287
G1 F578.3 X49.245 Y48.885 E15.09396
G1 F568.7 X48.895 Y49.245 E15.09595
G1 F562.1 X48.724 Y49.601 E15.09754
G1 F572.8 X48.656 Y50.002 E15.09914
G1 X48.755 Y50.503 E15.10116
G1 F558.1 X48.897 Y50.744 E15.10229
G1 F559.4 X49.157 Y51.046 E15.10389
G1 F572.8 X49.599 Y51.28 E15.10587
G1 F571.4 X50.009 Y51.34 E15.1075
G1 X50.248 Y51.316 E15.10845
G0 F7200 X50.66 Y51.625
;TYPE:WALL-OUTER
G1 F600 X50.987 Y51.447 E15.10985
G1 X51.35 Y51.117 E15.1117
G1 X51.463 Y50.964 E15.11241
G1 X51.674 Y50.516 E15.11428
G1 X51.754 Y50.007 E15.11621
G1 X51.718 Y49.67 E15.11749
G1 X51.625 Y49.336 E15.11879
G1 X51.448 Y49.01 E15.12019
G1 X51.117 Y48.65 E15.12203
G1 X50.964 Y48.537 E15.12274
G1 X50.516 Y48.326 E15.12461
G1 X50.006 Y48.246 E15.12655
G1 X49.67 Y48.277 E15.12782
G1 X49.337 Y48.375 E15.12913
G1 X49.009 Y48.553 E15.13053
G1 X48.65 Y48.879 E15.13235
G1 X48.537 Y49.031 E15.13307
G1 X48.326 Y49.48 E15.13493
G1 X48.246 Y49.99 E15.13687
G1 X48.278 Y50.326 E15.13814
G1 X48.374 Y50.659 E15.13945
G1 X48.553 Y50.987 E15.14085
G1 X48.88 Y51.351 E15.14269
G1 X49.032 Y51.463 E15.14341
G1 X49.479 Y51.674 E15.14526
G1 X50.001 Y51.754 E15.14725
G1 X50.325 Y51.718 E15.14848
G1 X50.66 Y51.625 E15.14979
G0 F7200 X50.835 Y51.53
G0 X50.537 Y50.767
G1 F600 X50.133 Y50.924 E15.15142
G1 X49.778 Y50.906 E15.15275
G1 X49.38 Y50.702 E15.15444
G1 X49.103 Y50.276 E15.15635
G1 X49.064 Y50.028 E15.15729
G1 X49.138 Y49.631 E15.15881
G1 X49.429 Y49.252 E15.16061
G1 X49.715 Y49.103 E15.16182
G1 X49.99 Y49.063 E15.16287
G1 X50.402 Y49.15 E15.16445
G1 X50.766 Y49.455 E15.16624
G1 X50.898 Y49.738 E15.16741
G1 X50.935 Y50.019 E15.16848
G1 X50.829 Y50.432 E15.17008
G1 X50.537 Y50.767 E15.17176
G0 F7200 X50.351 Y50.839
;MESH:NONMESH
G0 F600 X50.351 Y50.839 Z2.04
G0 F7200 X50.262 Y51.309
;TIME_ELAPSED:95.041595
;LAYER:29
;note -- min layer time used
;TYPE:WALL-INNER
;MESH:15977_Sphere_with_Grid_v1.obj
G1 F581.1 X50.742 Y51.113 E15.17377
G1 F574.2 X50.993 Y50.881 E15.17511
G1 F585.4 X51.179 Y50.618 E15.17636
G1 F582.5 X51.303 Y50.26 E15.17782
G1 F572.8 X51.337 Y49.925 E15.17915
G1 F582.5 X51.309 Y49.734 E15.1799
G1 F581.1 X51.116 Y49.257 E15.1819
G1 F574.2 X50.882 Y49.004 E15.18325
G1 F588.2 X50.616 Y48.817 E15.1845
G1 F586.8 X50.26 Y48.697 E15.18595
G1 F572.8 X49.925 Y48.663 E15.18727
G1 F583.9 X49.731 Y48.69 E15.18803
G1 F585.4 X49.257 Y48.882 E15.19
G1 F575.5 X49.005 Y49.114 E15.19135
G1 F583.9 X48.817 Y49.382 E15.19261
G1 X48.697 Y49.736 E15.19406
G1 F574.2 X48.662 Y50.067 E15.19536
G1 F583.9 X48.69 Y50.265 E15.19614
G1 F582.5 X48.881 Y50.741 E15.19812
G1 F570.1 X49.111 Y50.99 E15.19947
G1 F578.3 X49.381 Y51.181 E15.20076
G1 F579.7 X49.739 Y51.303 E15.20223
G1 F572.8 X50.066 Y51.338 E15.20353
G1 F581.1 X50.262 Y51.309 E15.2043
G0 F7200 X50.753 Y51.572
;TYPE:WALL-OUTER
G1 F600 X50.978 Y51.444 E15.20527
G1 X51.294 Y51.165 E15.20686
G1 X51.435 Y50.986 E15.20771
G1 X51.644 Y50.582 E15.20942
G1 X51.713 Y50.33 E15.21041
G1 X51.743 Y49.914 E15.21198
G1 X51.708 Y49.642 E15.21301
G1 X51.572 Y49.242 E15.2146
G1 X51.448 Y49.021 E15.21555
G1 X51.166 Y48.703 E15.21715
G1 X50.991 Y48.566 E15.21799
G1 X50.583 Y48.356 E15.21971
G1 X50.33 Y48.287 E15.2207
G1 X49.914 Y48.257 E15.22227
G1 X49.641 Y48.293 E15.2233
G1 X49.242 Y48.423 E15.22488
G1 X49.021 Y48.552 E15.22585
G1 X48.703 Y48.83 E15.22743
G1 X48.566 Y49.008 E15.22828
G1 X48.356 Y49.414 E15.23
G1 X48.287 Y49.666 E15.23098
G1 X48.257 Y50.086 E15.23257
G1 X48.293 Y50.355 E15.23359
G1 X48.424 Y50.754 E15.23517
G1 X48.549 Y50.976 E15.23613
G1 X48.826 Y51.293 E15.23771
G1 X49.009 Y51.434 E15.23858
G1 X49.414 Y51.644 E15.24029
G1 X49.67 Y51.713 E15.24129
G1 X50.086 Y51.743 E15.24286
G1 X50.354 Y51.708 E15.24388
G1 X50.753 Y51.572 E15.24546
G0 F7200 X50.926 Y51.474
G0 X50.561 Y50.746
G1 F600 X50.31 Y50.879 E15.24653
G1 X50.025 Y50.936 E15.24763
G1 X49.564 Y50.826 E15.24941
G1 X49.249 Y50.56 E15.25096
G1 X49.106 Y50.283 E15.25213
G1 X49.064 Y50.025 E15.25312
G1 X49.157 Y49.595 E15.25477
G1 X49.436 Y49.249 E15.25644
G1 X49.746 Y49.097 E15.25774
G1 X50.006 Y49.064 E15.25873
G1 X50.436 Y49.169 E15.26039
G1 X50.746 Y49.435 E15.26193
G1 X50.879 Y49.686 E15.263
G1 X50.936 Y49.969 E15.26409
G1 X50.808 Y50.466 E15.26602
G1 X50.561 Y50.746 E15.26742
G0 F7200 X50.385 Y50.839
;MESH:NONMESH
G0 F600 X50.385 Y50.839 Z2.1
G0 F7200 X50.512 Y51.224
;TIME_ELAPSED:97.703516
;LAYER:30
;note -- min layer time used
;TYPE:WALL-INNER
;MESH:15977_Sphere_with_Grid_v1.obj
G1 F606.1 X50.89 Y50.992 E15.26907
G1 F600 X51.082 Y50.763 E15.2702
G1 F595.5 X51.234 Y50.494 E15.27137
G1 F606.1 X51.333 Y49.998 E15.27325
G1 F601.5 X51.223 Y49.485 E15.27522
G1 F603 X50.992 Y49.11 E15.27687
G1 F600 X50.762 Y48.914 E15.27801
G1 F598.5 X50.497 Y48.764 E15.27915
G1 F609.1 X49.997 Y48.667 E15.28104
G1 F603 X49.484 Y48.773 E15.283
G1 F604.5 X49.112 Y49.003 E15.28464
G1 F603 X48.914 Y49.236 E15.28578
G1 F601.5 X48.765 Y49.496 E15.2869
G1 F609.1 X48.667 Y50.002 E15.28881
G1 F604.5 X48.774 Y50.515 E15.29077
G1 F606.1 X49.003 Y50.888 E15.2924
G1 F603 X49.235 Y51.082 E15.29353
G1 F600 X49.494 Y51.231 E15.29466
G1 F607.6 X50.001 Y51.333 E15.29658
G1 F604.5 X50.512 Y51.224 E15.29853
G0 F7200 X50.661 Y51.597
;TYPE:WALL-OUTER
G1 F600 X51.159 Y51.284 E15.30074
G1 X51.415 Y50.996 E15.30219
G1 X51.603 Y50.649 E15.30368
G1 X51.694 Y50.355 E15.30484
G1 X51.731 Y49.999 E15.30618
G1 X51.702 Y49.698 E15.30732
G1 X51.597 Y49.335 E15.30874
G1 X51.284 Y48.841 E15.31094
G1 X50.996 Y48.581 E15.3124
G1 X50.653 Y48.397 E15.31387
G1 X50.355 Y48.302 E15.31504
G1 X49.998 Y48.269 E15.31639
G1 X49.697 Y48.294 E15.31753
G1 X49.335 Y48.399 E15.31895
G1 X49.068 Y48.537 E15.32008
G1 X48.841 Y48.712 E15.32115
G1 X48.582 Y49.004 E15.32262
G1 X48.397 Y49.347 E15.32409
G1 X48.302 Y49.641 E15.32525
G1 X48.269 Y50.001 E15.32661
G1 X48.294 Y50.299 E15.32774
G1 X48.4 Y50.662 E15.32916
G1 X48.712 Y51.159 E15.33137
G1 X49.004 Y51.414 E15.33282
G1 X49.344 Y51.599 E15.33428
G1 X49.641 Y51.694 E15.33545
G1 X50.001 Y51.731 E15.33682
G1 X50.298 Y51.702 E15.33794
G1 X50.661 Y51.597 E15.33936
G0 F7200 X50.83 Y51.491
G0 X50.277 Y50.893
G1 F600 X49.984 Y50.935 E15.34047
G1 X49.588 Y50.841 E15.342
G1 X49.277 Y50.595 E15.3435
G1 X49.116 Y50.309 E15.34473
G1 X49.064 Y49.986 E15.34596
G1 X49.155 Y49.589 E15.34749
G1 X49.382 Y49.293 E15.3489
G1 X49.724 Y49.104 E15.35037
G1 X49.975 Y49.064 E15.35132
G1 X50.374 Y49.141 E15.35285
G1 X50.695 Y49.371 E15.35434
G1 X50.893 Y49.723 E15.35586
G1 X50.936 Y50.013 E15.35696
G1 X50.841 Y50.408 E15.35849
G1 X50.629 Y50.695 E15.35983
G1 X50.277 Y50.893 E15.36135
G0 F7200 X50.08 Y50.921
;MESH:NONMESH
G0 F600 X50.08 Y50.921 Z2.16
G0 F7200 X50.717 Y51.114
;TIME_ELAPSED:100.321931
;LAYER:31
;note -- min layer time used
;TYPE:WALL-INNER
;MESH:15977_Sphere_with_Grid_v1.obj
G1 F628.3 X51.088 Y50.755 E15.36321
G1 F625 X51.297 Y50.269 E15.36512
G1 F612.2 X51.298 Y49.753 E15.36702
G1 F613.8 X51.115 Y49.281 E15.36888
G1 F626.6 X50.753 Y48.907 E15.37076
G1 F625 X50.278 Y48.704 E15.37262
G1 F621.8 X50.071 Y48.676 E15.37338
G1 X49.559 Y48.746 E15.37526
G1 F625 X49.281 Y48.881 E15.37637
G1 F626.6 X48.886 Y49.278 E15.37839
G1 F623.4 X48.704 Y49.718 E15.38011
G1 F621.8 X48.676 Y49.928 E15.38088
G1 X48.746 Y50.437 E15.38275
G1 F620.2 X49.009 Y50.882 E15.38463
G1 F623.4 X49.423 Y51.194 E15.38651
G1 F613.8 X49.928 Y51.315 E15.38842
G1 F607.6 X50.24 Y51.302 E15.38958
G1 F621.8 X50.717 Y51.114 E15.39144
G0 F7200 X50.502 Y50.788
;TYPE:WALL-OUTER
G1 F600 X50.118 Y50.927 E15.39297
G1 X49.584 Y50.838 E15.39501
G1 X49.348 Y50.671 E15.3961
G1 X49.102 Y50.267 E15.39788
G1 X49.078 Y49.834 E15.39951
G1 X49.233 Y49.46 E15.40103
G1 X49.465 Y49.231 E15.40226
G1 X49.729 Y49.102 E15.40336
G1 X50.123 Y49.069 E15.40485
G1 X50.528 Y49.226 E15.40649
G1 X50.788 Y49.494 E15.40789
G1 X50.893 Y49.726 E15.40885
G1 X50.927 Y50.121 E15.41034
G1 X50.77 Y50.528 E15.41198
G1 X50.502 Y50.788 E15.41339
G0 F7200 X50.314 Y50.856
G0 X50.573 Y51.619
G1 F600 X50.922 Y51.448 E15.41485
G1 X51.151 Y51.276 E15.41593
G1 X51.408 Y50.983 E15.41739
G1 X51.549 Y50.736 E15.41846
G1 X51.68 Y50.369 E15.41993
G1 X51.715 Y50.085 E15.421
G1 X51.693 Y49.689 E15.4225
G1 X51.62 Y49.424 E15.42353
G1 X51.449 Y49.074 E15.425
G1 X51.276 Y48.849 E15.42606
G1 X50.982 Y48.588 E15.42754
G1 X50.736 Y48.447 E15.42861
G1 X50.369 Y48.32 E15.43007
G1 X50.084 Y48.282 E15.43115
G1 X49.692 Y48.306 E15.43263
G1 X49.422 Y48.377 E15.43368
G1 X49.074 Y48.547 E15.43514
G1 X48.849 Y48.72 E15.4362
G1 X48.588 Y49.014 E15.43768
G1 X48.448 Y49.26 E15.43875
G1 X48.32 Y49.627 E15.44021
G1 X48.282 Y49.915 E15.4413
G1 X48.306 Y50.304 E15.44277
G1 X48.377 Y50.574 E15.44382
G1 X48.548 Y50.922 E15.44528
G1 X48.72 Y51.151 E15.44636
G1 X49.013 Y51.408 E15.44782
G1 X49.26 Y51.549 E15.44889
G1 X49.627 Y51.679 E15.45036
G1 X49.915 Y51.715 E15.45145
G1 X50.303 Y51.693 E15.45291
G1 X50.573 Y51.619 E15.45396
G0 F7200 X50.752 Y51.532
;MESH:NONMESH
G0 F600 X50.752 Y51.532 Z2.22
G0 F7200 X50.488 Y51.219
;TIME_ELAPSED:102.898928
;LAYER:32
;note -- min layer time used
;TYPE:WALL-INNER
;MESH:15977_Sphere_with_Grid_v1.obj
G1 F657.5 X50.854 Y51.001 E15.45543
G1 F659.3 X51.122 Y50.687 E15.45684
G1 F654 X51.288 Y50.278 E15.45836
G1 X51.316 Y49.999 E15.45933
G1 F646.9 X51.223 Y49.514 E15.46106
G1 F650.4 X50.999 Y49.141 E15.46257
G1 F652.2 X50.688 Y48.874 E15.46398
G1 F657.5 X50.284 Y48.711 E15.46548
G1 F663 X49.999 Y48.682 E15.46645
G1 F654 X49.505 Y48.78 E15.46819
G1 F655.7 X49.148 Y48.992 E15.46962
G1 F657.5 X48.875 Y49.308 E15.47106
G1 X48.711 Y49.713 E15.47256
G1 F661.2 X48.682 Y50 E15.47354
G1 F654 X48.778 Y50.487 E15.47525
G1 F659.3 X48.997 Y50.855 E15.47672
G1 X49.309 Y51.122 E15.47813
G1 F655.7 X49.714 Y51.285 E15.47963
G1 F657.5 X50.003 Y51.316 E15.48063
G1 F648.6 X50.488 Y51.219 E15.48235
G0 F7200 X50.644 Y51.576
;TYPE:WALL-OUTER
G1 F600 X51.101 Y51.293 E15.48437
G1 X51.441 Y50.906 E15.48631
G1 X51.663 Y50.358 E15.48853
G1 X51.702 Y49.999 E15.48989
G1 X51.663 Y49.626 E15.4913
G1 X51.576 Y49.352 E15.49238
G1 X51.293 Y48.891 E15.49442
G1 X50.906 Y48.555 E15.49635
G1 X50.362 Y48.337 E15.49855
G1 X49.999 Y48.298 E15.49992
G1 X49.629 Y48.337 E15.50132
G1 X49.352 Y48.424 E15.50242
G1 X48.895 Y48.703 E15.50443
G1 X48.555 Y49.09 E15.50637
G1 X48.337 Y49.634 E15.50857
G1 X48.298 Y50 E15.50996
G1 X48.337 Y50.367 E15.51135
G1 X48.424 Y50.645 E15.51244
G1 X48.704 Y51.101 E15.51446
G1 X49.09 Y51.441 E15.51639
G1 X49.634 Y51.659 E15.5186
G1 X50.002 Y51.702 E15.51999
G1 X50.367 Y51.663 E15.52137
G1 X50.644 Y51.576 E15.52246
G0 F7200 X50.813 Y51.471
G0 X50.276 Y50.892
G1 F600 X49.999 Y50.932 E15.52352
G1 X49.775 Y50.91 E15.52436
G1 X49.468 Y50.771 E15.52563
G1 X49.279 Y50.602 E15.52658
G1 X49.118 Y50.309 E15.52784
G1 X49.064 Y49.998 E15.52903
G1 X49.093 Y49.746 E15.52998
G1 X49.217 Y49.481 E15.53109
G1 X49.399 Y49.277 E15.53211
G1 X49.72 Y49.105 E15.53348
G1 X49.978 Y49.065 E15.53447
G1 X50.222 Y49.086 E15.53539
G1 X50.515 Y49.217 E15.53659
G1 X50.739 Y49.426 E15.53775
G1 X50.891 Y49.719 E15.53899
G1 X50.932 Y49.999 E15.54005
G1 X50.904 Y50.25 E15.541
G1 X50.779 Y50.514 E15.5421
G1 X50.602 Y50.718 E15.54312
G1 X50.276 Y50.892 E15.54451
G0 F7200 X50.079 Y50.92
;MESH:NONMESH
G0 F600 X50.079 Y50.92 Z2.28
G0 F7200 X50.3 Y51.566
;TIME_ELAPSED:105.426807
;LAYER:33
;note -- min layer time used
;TYPE:WALL-OUTER
;MESH:15977_Sphere_with_Grid_v1.obj
G1 F413.8 X49.922 Y51.592 E15.54658
G1 F414.5 X49.45 Y51.5 E15.54919
G1 F415.2 X49.144 Y51.347 E15.55105
G1 X48.81 Y51.068 E15.55342
G1 F416.7 X48.651 Y50.86 E15.55484
G1 F415.2 X48.494 Y50.531 E15.55682
G1 X48.43 Y50.296 E15.55814
G1 F414.5 X48.404 Y49.923 E15.56018
G1 X48.499 Y49.446 E15.56283
G1 X48.649 Y49.144 E15.56467
G1 F415.2 X48.928 Y48.81 E15.56703
G1 F416.7 X49.137 Y48.651 E15.56845
G1 F414.5 X49.464 Y48.495 E15.57043
G1 F415.2 X49.699 Y48.433 E15.57175
G1 X50.074 Y48.405 E15.57379
G1 X50.55 Y48.499 E15.57643
G1 X50.852 Y48.649 E15.57826
G1 X51.186 Y48.928 E15.58063
G1 F416.7 X51.345 Y49.137 E15.58205
G1 F413.8 X51.502 Y49.461 E15.58402
G1 X51.566 Y49.703 E15.58538
G1 F414.5 X51.592 Y50.074 E15.58741
G1 X51.5 Y50.55 E15.59005
G1 F415.2 X51.348 Y50.851 E15.59188
G1 F415.9 X51.068 Y51.186 E15.59425
G1 F416.7 X50.86 Y51.345 E15.59567
G1 F415.2 X50.3 Y51.566 E15.59894
G0 F7200 X50.101 Y51.579
G0 X50.469 Y50.905
G1 F418.8 X50.669 Y50.771 E15.60024
G1 F416.7 X50.944 Y50.386 E15.6028
G1 F415.9 X51.017 Y49.978 E15.60505
G1 F418.1 X50.905 Y49.53 E15.60754
G1 X50.771 Y49.327 E15.60886
G1 F416.7 X50.387 Y49.053 E15.61141
G1 F417.4 X49.843 Y48.989 E15.61437
G1 F418.1 X49.571 Y49.073 E15.61591
G1 F416.7 X49.327 Y49.225 E15.61747
G1 X49.055 Y49.604 E15.62
G1 X48.98 Y50.022 E15.6223
G1 F418.1 X49.091 Y50.469 E15.62478
G1 F418.8 X49.225 Y50.669 E15.62608
G1 F415.9 X49.628 Y50.948 E15.62874
G1 X50.157 Y51.007 E15.63163
G1 F418.1 X50.469 Y50.905 E15.6334
G0 F7200 X50.634 Y50.794
;MESH:NONMESH
G0 F600 X50.634 Y50.794 Z2.34
G0 F7200 X50.529 Y51.492
;TIME_ELAPSED:107.894427
;LAYER:34
;note -- min layer time used
;TYPE:WALL-OUTER
;MESH:15977_Sphere_with_Grid_v1.obj
G1 F421.8 X50.287 Y51.553 E15.63474
G1 F421.1 X49.924 Y51.578 E15.63669
G1 F424 X49.466 Y51.486 E15.63917
G1 F421.1 X49.087 Y51.289 E15.64146
G1 F419.6 X48.822 Y51.057 E15.64336
G1 F422.5 X48.663 Y50.851 E15.64475
G1 F424 X48.506 Y50.528 E15.64666
G1 F422.5 X48.443 Y50.285 E15.648
G1 F421.8 X48.417 Y49.925 E15.64993
G1 F424 X48.51 Y49.466 E15.65243
G1 F421.1 X48.708 Y49.087 E15.65472
G1 F419.6 X48.939 Y48.823 E15.65661
G1 F422.5 X49.149 Y48.663 E15.65802
G1 F424 X49.468 Y48.506 E15.65991
G1 F422.5 X49.711 Y48.443 E15.66125
G1 F421.8 X50.071 Y48.417 E15.66318
G1 F424 X50.533 Y48.51 E15.66569
G1 F421.1 X50.908 Y48.707 E15.66796
G1 F418.8 X51.174 Y48.94 E15.66987
G1 F421.1 X51.334 Y49.15 E15.67128
G1 F422.5 X51.493 Y49.468 E15.67318
G1 F421.1 X51.553 Y49.706 E15.6745
G1 X51.578 Y50.073 E15.67647
G1 F422.5 X51.489 Y50.529 E15.67895
G1 F421.1 X51.289 Y50.908 E15.68125
G1 F419.6 X51.057 Y51.174 E15.68315
G1 F422.5 X50.85 Y51.334 E15.68455
G1 F424 X50.529 Y51.492 E15.68645
G0 F7200 X50.336 Y51.54
G0 X50.323 Y50.963
G1 F422.5 X50.645 Y50.781 E15.68843
G1 F424 X50.889 Y50.483 E15.69048
G1 F425.5 X51.011 Y50.077 E15.69273
G1 F422.5 X50.963 Y49.674 E15.69489
G1 F421.1 X50.78 Y49.354 E15.69687
G1 F423.3 X50.482 Y49.107 E15.69893
G1 F425.5 X50.075 Y48.985 E15.70119
G1 F424 X49.674 Y49.034 E15.70334
G1 F423.3 X49.364 Y49.205 E15.70523
G1 F425.5 X49.083 Y49.557 E15.70762
G1 F427 X48.985 Y49.921 E15.70961
G1 F424 X49.034 Y50.323 E15.71176
G1 F423.3 X49.207 Y50.637 E15.71368
G1 F426.3 X49.557 Y50.913 E15.71604
G1 X49.92 Y51.011 E15.71803
G1 F422.5 X50.323 Y50.963 E15.72019
G0 F7200 X50.497 Y50.865
;MESH:NONMESH
G0 F600 X50.497 Y50.865 Z2.4
G0 F7200 X50.6 Y51.445
;TIME_ELAPSED:110.299865
;LAYER:35
;note -- min layer time used
;TYPE:WALL-OUTER
;MESH:15977_Sphere_with_Grid_v1.obj
G1 F428.6 X50.268 Y51.539 E15.72201
G1 F427.8 X50.003 Y51.563 E15.72342
G1 F430.1 X49.673 Y51.53 E15.72516
G1 F433.2 X49.404 Y51.447 E15.72662
G1 F431.7 X49.093 Y51.276 E15.72848
G1 X48.871 Y51.085 E15.73001
G1 X48.551 Y50.6 E15.73305
G1 F429.3 X48.457 Y50.268 E15.73486
G1 F427.8 X48.433 Y50.004 E15.73626
G1 F430.1 X48.469 Y49.669 E15.73803
G1 F433.2 X48.549 Y49.403 E15.73948
G1 F431.7 X48.72 Y49.093 E15.74133
G1 F427 X49.1 Y48.718 E15.74415
G1 X49.399 Y48.551 E15.74596
G1 F428.6 X49.728 Y48.457 E15.74776
G1 X49.992 Y48.434 E15.74916
G1 F430.9 X50.325 Y48.469 E15.75091
G1 F433.2 X50.6 Y48.55 E15.75241
G1 F431.7 X50.896 Y48.715 E15.75418
G1 F430.1 X51.129 Y48.912 E15.75578
G1 F430.9 X51.445 Y49.399 E15.75882
G1 F429.3 X51.539 Y49.728 E15.76062
G1 F428.6 X51.563 Y49.993 E15.76202
G1 F430.1 X51.53 Y50.323 E15.76376
G1 F433.2 X51.447 Y50.592 E15.76523
G1 F431.7 X51.276 Y50.904 E15.76709
G1 F430.1 X51.085 Y51.128 E15.76864
G1 F431.7 X50.6 Y51.445 E15.77166
G0 F7200 X50.408 Y51.499
G0 X50.357 Y50.943
G1 F431.7 X50.701 Y50.727 E15.77379
G1 F434.8 X50.907 Y50.443 E15.77561
G1 F435.6 X50.995 Y50.176 E15.77707
G1 F431.7 X50.943 Y49.643 E15.77987
G1 X50.727 Y49.295 E15.78201
G1 F433.2 X50.403 Y49.069 E15.78407
G1 F434.8 X50.131 Y48.995 E15.78553
G1 F433.2 X49.643 Y49.053 E15.78809
G1 F431.7 X49.288 Y49.276 E15.79028
G1 F434.8 X49.089 Y49.553 E15.79206
G1 X48.992 Y49.917 E15.79401
G1 F432.4 X49.053 Y50.357 E15.79633
G1 F431.7 X49.276 Y50.708 E15.7985
G1 F434.8 X49.553 Y50.907 E15.80028
G1 X49.919 Y51.005 E15.80224
G1 F431.7 X50.357 Y50.943 E15.80456
G0 F7200 X50.526 Y50.837
;MESH:NONMESH
G0 F600 X50.526 Y50.837 Z2.46
G0 F7200 X50.516 Y51.461
;TIME_ELAPSED:112.640848
;LAYER:36
;note -- min layer time used
;TYPE:WALL-OUTER
;MESH:15977_Sphere_with_Grid_v1.obj
G1 F441.2 X50.272 Y51.526 E15.80585
G1 F439.6 X49.928 Y51.545 E15.80762
G1 X49.472 Y51.453 E15.81001
G1 F443.6 X49.113 Y51.268 E15.81206
G1 F446.1 X48.759 Y50.918 E15.81458
G1 F444.4 X48.536 Y50.517 E15.81691
G1 F442.8 X48.449 Y49.926 E15.81996
G1 X48.542 Y49.472 E15.82232
G1 F444.4 X48.728 Y49.114 E15.82437
G1 F446.9 X49.081 Y48.759 E15.82689
G1 F445.3 X49.482 Y48.536 E15.82922
G1 F442.8 X50.072 Y48.449 E15.83226
G1 X50.524 Y48.542 E15.83461
G1 F443.6 X50.882 Y48.728 E15.83667
G1 F446.1 X51.237 Y49.081 E15.8392
G1 F445.3 X51.461 Y49.48 E15.84152
G1 F439.6 X51.524 Y49.724 E15.84281
G1 X51.547 Y50.072 E15.8446
G1 F442.8 X51.454 Y50.524 E15.84696
G1 F444.4 X51.268 Y50.883 E15.84901
G1 F446.1 X50.918 Y51.237 E15.85153
G1 F444.4 X50.516 Y51.461 E15.85387
G0 F7200 X50.324 Y51.512
G0 X50.39 Y50.927
G1 F446.9 X50.636 Y50.771 E15.85534
G1 F446.1 X50.824 Y50.573 E15.85672
G1 F444.4 X50.952 Y50.315 E15.85818
G1 F442.8 X51.005 Y50.021 E15.8597
G1 X50.945 Y49.649 E15.86163
G1 F445.3 X50.774 Y49.365 E15.86331
G1 F446.1 X50.573 Y49.171 E15.86472
G1 F447.8 X50.242 Y49.022 E15.86655
G1 F448.6 X49.969 Y48.992 E15.86793
G1 F445.3 X49.65 Y49.051 E15.86958
G1 X49.365 Y49.222 E15.87126
G1 F446.9 X49.171 Y49.423 E15.87267
G1 F444.4 X49.044 Y49.681 E15.87413
G1 F442.8 X48.991 Y49.976 E15.87566
G1 X49.049 Y50.34 E15.87754
G1 F444.4 X49.225 Y50.636 E15.87929
G1 F446.1 X49.418 Y50.821 E15.88064
G1 F442.8 X49.677 Y50.948 E15.88211
G1 F441.2 X50.141 Y50.996 E15.8845
G1 F444.4 X50.39 Y50.927 E15.88581
G0 F7200 X50.559 Y50.82
;MESH:NONMESH
G0 F600 X50.559 Y50.82 Z2.52
G0 F7200 X50.508 Y51.44
;TIME_ELAPSED:114.900077
;LAYER:37
;note -- min layer time used
;TYPE:WALL-OUTER
;MESH:15977_Sphere_with_Grid_v1.obj
G1 F449.4 X50.002 Y51.529 E15.88839
G1 F451.1 X49.715 Y51.502 E15.88983
G1 F454.5 X49.227 Y51.316 E15.89243
G1 F449.4 X48.863 Y51.018 E15.89479
G1 F447.8 X48.707 Y50.821 E15.89606
G1 F450.3 X48.559 Y50.507 E15.8978
G1 F451.1 X48.488 Y50.209 E15.89933
G1 F453.7 X48.495 Y49.713 E15.9018
G1 F454.5 X48.68 Y49.227 E15.90438
G1 F449.4 X48.978 Y48.863 E15.90674
G1 F447.8 X49.175 Y48.707 E15.90801
G1 F450.3 X49.489 Y48.559 E15.90975
G1 F449.4 X50 Y48.471 E15.91235
G1 F452 X50.283 Y48.495 E15.91377
G1 F454.5 X50.769 Y48.679 E15.91635
G1 F450.3 X51.133 Y48.977 E15.91871
G1 F448.6 X51.289 Y49.176 E15.91998
G1 F450.3 X51.44 Y49.488 E15.92172
G1 F449.4 X51.529 Y49.998 E15.92432
G1 F451.1 X51.502 Y50.281 E15.92574
G1 F454.5 X51.317 Y50.769 E15.92834
G1 F450.3 X51.019 Y51.133 E15.93069
G1 F448.6 X50.82 Y51.289 E15.93197
G1 F450.3 X50.508 Y51.44 E15.9337
G0 F7200 X50.312 Y51.474
G0 X50.525 Y50.85
G1 F454.5 X50.873 Y50.482 E15.93622
G1 X50.984 Y50.166 E15.93788
G1 F452.8 X50.992 Y49.89 E15.93926
G1 X50.85 Y49.471 E15.94146
G1 F454.5 X50.482 Y49.123 E15.94398
G1 X50.167 Y49.012 E15.94564
G1 F453.7 X49.884 Y49.008 E15.94705
G1 X49.473 Y49.145 E15.9492
G1 F454.5 X49.123 Y49.516 E15.95173
G1 X49.012 Y49.829 E15.95338
G1 F453.7 X49.008 Y50.111 E15.95479
G1 X49.145 Y50.523 E15.95695
G1 F454.5 X49.516 Y50.873 E15.95948
G1 X49.83 Y50.984 E15.96113
G1 F452.8 X50.105 Y50.992 E15.9625
G1 X50.525 Y50.85 E15.96471
G0 F7200 X50.662 Y50.705
;MESH:NONMESH
G0 F600 X50.662 Y50.705 Z2.58
G0 F7200 X50.572 Y51.392
;TIME_ELAPSED:117.099692
;LAYER:38
;note -- min layer time used
;TYPE:WALL-OUTER
;MESH:15977_Sphere_with_Grid_v1.obj
G1 F463.3 X50.29 Y51.479 E15.96615
G1 F465.1 X49.881 Y51.502 E15.96814
G1 F466.9 X49.302 Y51.337 E15.97105
G1 F466 X48.933 Y51.066 E15.97327
G1 F462.4 X48.739 Y50.823 E15.97479
G1 F461.5 X48.605 Y50.573 E15.97617
G1 F462.4 X48.52 Y50.29 E15.97762
G1 X48.492 Y50.002 E15.97903
G1 F464.2 X48.526 Y49.687 E15.98057
G1 F466.9 X48.663 Y49.3 E15.98255
G1 X48.93 Y48.933 E15.98475
G1 F462.4 X49.173 Y48.739 E15.98627
G1 F461.5 X49.423 Y48.605 E15.98765
G1 F462.4 X49.706 Y48.52 E15.9891
G1 F463.3 X49.994 Y48.492 E15.9905
G1 F465.1 X50.309 Y48.526 E15.99204
G1 F466.9 X50.696 Y48.663 E15.99403
G1 X51.063 Y48.93 E15.99622
G1 F462.4 X51.257 Y49.173 E15.99774
G1 F461.5 X51.392 Y49.424 E15.99913
G1 F463.3 X51.48 Y49.708 E16.00058
G1 F461.5 X51.507 Y49.993 E16.00198
G1 F463.3 X51.471 Y50.308 E16.00353
G1 F466.9 X51.333 Y50.696 E16.00552
G1 X51.066 Y51.063 E16.00771
G1 F463.3 X50.823 Y51.257 E16.00923
G1 F461.5 X50.572 Y51.392 E16.01062
G0 F7200 X50.381 Y51.45
G0 X50.345 Y50.928
G1 F464.2 X50.689 Y50.711 E16.0126
G1 F466.9 X50.886 Y50.441 E16.01421
G1 X50.989 Y50.043 E16.0162
G1 F465.1 X50.929 Y49.651 E16.01813
G1 X50.711 Y49.307 E16.0201
G1 F466.9 X50.441 Y49.11 E16.02172
G1 F467.8 X50.051 Y49.007 E16.02366
G1 F465.1 X49.663 Y49.065 E16.02557
G1 X49.307 Y49.285 E16.0276
G1 F466.9 X49.11 Y49.555 E16.02921
G1 F467.8 X49.007 Y49.945 E16.03116
G1 F465.1 X49.065 Y50.333 E16.03306
G1 X49.285 Y50.689 E16.0351
G1 F466 X49.557 Y50.888 E16.03673
G1 F466.9 X49.91 Y50.988 E16.0385
G1 F465.1 X50.345 Y50.928 E16.04063
G0 F7200 X50.514 Y50.822
;MESH:NONMESH
G0 F600 X50.514 Y50.822 Z2.64
G0 F7200 X50.488 Y51.402
;TIME_ELAPSED:119.214545
;LAYER:39
;note -- min layer time used
;TYPE:WALL-OUTER
;MESH:15977_Sphere_with_Grid_v1.obj
G1 F480 X50.273 Y51.459 E16.04168
G1 F476.2 X49.922 Y51.482 E16.04335
G1 X49.694 Y51.451 E16.04444
G1 F480 X49.154 Y51.224 E16.04719
G1 F481.9 X48.805 Y50.875 E16.0495
G1 F483.9 X48.595 Y50.488 E16.05156
G1 F480 X48.537 Y50.27 E16.05262
G1 F476.2 X48.514 Y49.922 E16.05427
G1 F477.1 X48.545 Y49.694 E16.05536
G1 F480 X48.772 Y49.154 E16.05811
G1 F483.9 X49.126 Y48.802 E16.06044
G1 X49.506 Y48.595 E16.06246
G1 F479 X50.076 Y48.514 E16.06517
G1 F478.1 X50.302 Y48.545 E16.06625
G1 F480 X50.842 Y48.772 E16.06901
G1 F483.9 X51.194 Y49.122 E16.07132
G1 X51.405 Y49.512 E16.07339
G1 F477.1 X51.482 Y50.074 E16.07607
G1 F476.2 X51.451 Y50.302 E16.07717
G1 F480 X51.223 Y50.843 E16.07993
G1 F483.9 X50.878 Y51.192 E16.08222
G1 X50.488 Y51.402 E16.08428
G0 F7200 X50.295 Y51.453
G0 X50.314 Y50.934
G1 F483.9 X50.609 Y50.771 E16.08585
G1 X50.812 Y50.557 E16.08723
G1 F480 X50.957 Y50.216 E16.08897
G1 F481.9 X50.98 Y49.922 E16.09035
G1 F483.9 X50.924 Y49.658 E16.09161
G1 F485.8 X50.771 Y49.386 E16.09306
G1 X50.557 Y49.184 E16.09443
G1 F480 X50.216 Y49.039 E16.09617
G1 F481.9 X49.92 Y49.017 E16.09756
G1 F482.9 X49.68 Y49.063 E16.09871
G1 F483.9 X49.393 Y49.225 E16.10024
G1 F482.9 X49.178 Y49.448 E16.10169
G1 F479 X49.04 Y49.771 E16.10335
G1 F481.9 X49.016 Y50.074 E16.10477
G1 F482.9 X49.062 Y50.314 E16.10591
G1 F483.9 X49.226 Y50.606 E16.10747
G1 F481.9 X49.448 Y50.818 E16.10891
G1 F479 X49.771 Y50.956 E16.11057
G1 F481.9 X50.074 Y50.98 E16.11199
G1 F482.9 X50.314 Y50.934 E16.11313
G0 F7200 X50.489 Y50.838
;MESH:NONMESH
G0 F600 X50.489 Y50.838 Z2.7
G0 F7200 X50.631 Y51.316
;TIME_ELAPSED:121.236695
;LAYER:40
;note -- min layer time used
;TYPE:WALL-OUTER
;MESH:15977_Sphere_with_Grid_v1.obj
G1 F495.9 X50.248 Y51.438 E16.11496
G1 F493.8 X49.938 Y51.453 E16.11638
G1 F495.9 X49.642 Y51.41 E16.11774
G1 F500 X49.382 Y51.322 E16.11898
G1 F499 X48.956 Y51.021 E16.12134
G1 F497.9 X48.685 Y50.632 E16.12349
G1 F491.8 X48.564 Y50.246 E16.12535
G1 F490.8 X48.541 Y49.94 E16.12676
G1 F495.9 X48.677 Y49.382 E16.12937
G1 F500 X48.975 Y48.956 E16.13172
G1 F495.9 X49.365 Y48.685 E16.13388
G1 F489.8 X49.75 Y48.564 E16.13574
G1 X50.058 Y48.541 E16.13717
G1 F495.9 X50.613 Y48.677 E16.13977
G1 F500 X51.032 Y48.969 E16.14207
G1 X51.318 Y49.375 E16.14431
G1 F492.8 X51.432 Y49.75 E16.14611
G1 F491.8 X51.456 Y50.059 E16.14753
G1 F495.9 X51.322 Y50.613 E16.15013
G1 F497.9 X51.021 Y51.04 E16.15249
G1 F495.9 X50.631 Y51.316 E16.15467
G0 F7200 X50.441 Y51.376
G0 X50.392 Y50.894
G1 F497.9 X50.67 Y50.71 E16.15618
G1 X50.876 Y50.424 E16.15778
G1 F495.9 X50.97 Y50.065 E16.15947
G1 X50.894 Y49.61 E16.16157
G1 F500 X50.703 Y49.32 E16.16314
G1 X50.424 Y49.12 E16.16469
G1 F495.9 X50.064 Y49.026 E16.16638
G1 X49.624 Y49.099 E16.16841
G1 F500 X49.327 Y49.285 E16.16999
G1 X49.121 Y49.572 E16.17159
G1 F495.9 X49.027 Y49.934 E16.17329
G1 F494.8 X49.105 Y50.389 E16.1754
G1 F497.9 X49.286 Y50.67 E16.17691
G1 F499 X49.582 Y50.881 E16.17855
G1 F500 X49.717 Y50.932 E16.17921
G1 X50.156 Y50.964 E16.18119
G1 F497.9 X50.392 Y50.894 E16.18231
G0 F7200 X50.558 Y50.784
;MESH:NONMESH
G0 F600 X50.558 Y50.784 Z2.76
