;FLAVOR:Marlin
;TIME:4145
;Filament used: 0.531436m
;Layer height: 0.06
;MINX:32.2
;MINY:32.2
;MINZ:0.3
;MAXX:67.8
;MAXY:67.8
;MAXZ:19.98
;TARGET_MACHINE.NAME:Unknown
;Generated with Cura_SteamEngine 5.10.2
M104 S200
M105
M109 S200
G21 ; set units to mm
G90 ; absolute positioning
M82 ; force absolute extrusion
M5  ; laser OFF safety
G0 X0 Y0 ; reset origin
M82 ;absolute extrusion mode
G92 E0
G92 E0
G1 F1500 E-6.5
;LAYER_COUNT:329
;LAYER:0
M107
G0 F3600 X34.39 Y34.552 Z0.3
;TYPE:SKIRT
G1 F1500 E0
G1 F1800 X35.743 Y33.46 E0.03271
G1 X37.722 Y32.474 E0.0743
G1 X39.246 Y32.252 E0.10327
G1 X60.622 Y32.2 E0.50536
G1 X62.679 Y32.622 E0.54486
G1 X64.45 Y33.617 E0.58307
G1 X65.448 Y34.39 E0.60682
G1 X66.54 Y35.743 E0.63952
G1 X67.526 Y37.722 E0.68111
G1 X67.748 Y39.246 E0.71008
G1 X67.8 Y60.622 E1.11218
G1 X67.378 Y62.679 E1.15168
G1 X66.383 Y64.45 E1.18989
G1 X65.61 Y65.448 E1.21364
G1 X64.257 Y66.54 E1.24634
G1 X62.278 Y67.526 E1.28793
G1 X60.754 Y67.748 E1.3169
G1 X39.284 Y67.8 E1.72077
G1 X37.282 Y67.361 E1.75932
G1 X35.496 Y66.361 E1.79782
G1 X34.553 Y65.622 E1.82036
G1 X33.472 Y64.276 E1.85283
G1 X32.474 Y62.26 E1.89515
G1 X32.252 Y60.754 E1.92378
G1 X32.2 Y39.378 E2.32588
G1 X32.622 Y37.321 E2.36538
G1 X33.617 Y35.55 E2.40359
G1 X34.39 Y34.552 E2.42733
G0 F3600 X34.678 Y34.833
G1 F1800 X35.96 Y33.799 E2.45832
G1 X37.842 Y32.861 E2.49787
G1 X39.304 Y32.648 E2.52566
G1 X60.581 Y32.6 E2.92589
G1 X62.538 Y33.002 E2.96348
G1 X64.205 Y33.933 E2.99939
G1 X65.167 Y34.678 E3.02228
G1 X66.201 Y35.96 E3.05326
G1 X67.139 Y37.842 E3.09282
G1 X67.352 Y39.304 E3.12061
G1 X67.4 Y60.581 E3.52084
G1 X66.998 Y62.538 E3.55842
G1 X66.067 Y64.205 E3.59434
G1 X65.322 Y65.167 E3.61722
G1 X64.04 Y66.201 E3.64821
G1 X62.158 Y67.139 E3.68776
G1 X60.696 Y67.352 E3.71555
G1 X39.328 Y67.4 E4.1175
G1 X37.424 Y66.982 E4.15417
G1 X35.743 Y66.046 E4.19036
G1 X34.837 Y65.336 E4.21201
G1 X33.808 Y64.055 E4.24292
G1 X32.861 Y62.142 E4.28307
G1 X32.648 Y60.696 E4.31056
G1 X32.6 Y39.419 E4.7108
G1 X33.002 Y37.462 E4.74838
G1 X33.933 Y35.795 E4.78429
G1 X34.678 Y34.833 E4.80718
G0 F3600 X34.966 Y35.114
G1 F1800 X36.177 Y34.138 E4.83644
G1 X37.962 Y33.248 E4.87396
G1 X39.362 Y33.044 E4.90057
G1 X60.539 Y33 E5.29892
G1 X62.397 Y33.382 E5.3346
G1 X63.96 Y34.249 E5.36822
G1 X64.886 Y34.966 E5.39025
G1 X65.862 Y36.177 E5.41951
G1 X66.752 Y37.962 E5.45703
G1 X66.956 Y39.362 E5.48364
G1 X67 Y60.539 E5.88199
G1 X66.618 Y62.397 E5.91768
G1 X65.751 Y63.96 E5.9513
G1 X65.034 Y64.886 E5.97333
G1 X63.823 Y65.862 E6.00258
G1 X62.038 Y66.752 E6.0401
G1 X60.638 Y66.956 E6.06672
G1 X39.373 Y67 E6.46672
G1 X37.567 Y66.603 E6.50151
G1 X35.99 Y65.731 E6.5354
G1 X35.121 Y65.05 E6.55617
G1 X34.144 Y63.834 E6.58551
G1 X33.248 Y62.024 E6.6235
G1 X33.044 Y60.638 E6.64986
G1 X33 Y39.461 E7.04821
G1 X33.382 Y37.603 E7.08389
G1 X34.249 Y36.04 E7.11751
G1 X34.966 Y35.114 E7.13954
G0 F3600 X35.251 Y35.398
G1 F1800 X36.397 Y34.475 E7.16722
G1 X38.082 Y33.635 E7.20263
G1 X39.42 Y33.44 E7.22807
G1 X60.497 Y33.4 E7.62454
G1 X62.257 Y33.762 E7.65834
G1 X63.766 Y34.599 E7.6908
G1 X64.602 Y35.251 E7.71074
G1 X65.525 Y36.397 E7.73842
G1 X66.365 Y38.082 E7.77384
G1 X66.56 Y39.42 E7.79927
G1 X66.6 Y60.497 E8.19574
G1 X66.238 Y62.257 E8.22954
G1 X65.401 Y63.766 E8.262
G1 X64.749 Y64.602 E8.28194
G1 X63.603 Y65.525 E8.30962
G1 X61.918 Y66.365 E8.34504
G1 X60.58 Y66.56 E8.37047
G1 X39.418 Y66.6 E8.76854
G1 X37.709 Y66.224 E8.80146
G1 X36.237 Y65.416 E8.83305
G1 X35.405 Y64.764 E8.85293
G1 X34.483 Y63.617 E8.88061
G1 X33.635 Y61.903 E8.91658
G1 X33.44 Y60.58 E8.94174
G1 X33.4 Y39.503 E9.33821
G1 X33.762 Y37.743 E9.37201
G1 X34.599 Y36.234 E9.40447
G1 X35.251 Y35.398 E9.42441
G0 F3600 X35.535 Y35.683
G1 F1800 X36.617 Y34.812 E9.45054
G1 X38.202 Y34.022 E9.48385
G1 X39.478 Y33.836 E9.50811
G1 X60.455 Y33.8 E9.9027
G1 X62.117 Y34.142 E9.93462
G1 X63.572 Y34.949 E9.96591
G1 X64.317 Y35.535 E9.98374
G1 X65.188 Y36.617 E10.00987
G1 X65.978 Y38.202 E10.04318
G1 X66.164 Y39.478 E10.06744
G1 X66.2 Y60.455 E10.46203
G1 X65.858 Y62.117 E10.49395
G1 X65.051 Y63.572 E10.52524
G1 X64.465 Y64.317 E10.54307
G1 X63.383 Y65.188 E10.5692
G1 X61.798 Y65.978 E10.60251
G1 X60.522 Y66.164 E10.62677
G1 X39.463 Y66.2 E11.0229
G1 X37.849 Y65.845 E11.05399
G1 X36.484 Y65.101 E11.08323
G1 X35.686 Y64.476 E11.1023
G1 X34.821 Y63.399 E11.12828
G1 X34.022 Y61.785 E11.16216
G1 X33.836 Y60.522 E11.18617
G1 X33.8 Y39.545 E11.58076
G1 X34.142 Y37.883 E11.61268
G1 X34.949 Y36.428 E11.64398
G1 X35.535 Y35.683 E11.66181
G0 F3600 X35.82 Y35.968
G1 F1800 X36.835 Y35.151 E11.68632
G1 X38.323 Y34.409 E11.71759
G1 X39.536 Y34.232 E11.74065
G1 X60.413 Y34.2 E12.13336
G1 X61.977 Y34.522 E12.1634
G1 X63.378 Y35.299 E12.19353
G1 X64.032 Y35.82 E12.20926
G1 X64.849 Y36.835 E12.23377
G1 X65.591 Y38.323 E12.26505
G1 X65.768 Y39.536 E12.28811
G1 X65.8 Y60.413 E12.68082
G1 X65.478 Y61.977 E12.71085
G1 X64.701 Y63.378 E12.74099
G1 X64.18 Y64.032 E12.75672
G1 X63.165 Y64.849 E12.78123
G1 X61.677 Y65.591 E12.8125
G1 X60.464 Y65.768 E12.83556
G1 X39.508 Y65.8 E13.22976
G1 X37.989 Y65.466 E13.25901
G1 X36.731 Y64.786 E13.28591
G1 X35.97 Y64.19 E13.30409
G1 X35.157 Y63.178 E13.32851
G1 X34.409 Y61.667 E13.36023
G1 X34.232 Y60.464 E13.3831
G1 X34.2 Y39.587 E13.77581
G1 X34.522 Y38.023 E13.80585
G1 X35.299 Y36.622 E13.83598
G1 X35.82 Y35.968 E13.85171
G0 F3600 X36.104 Y36.254
G1 F1800 X37.055 Y35.488 E13.87468
G1 X38.443 Y34.796 E13.90385
G1 X39.594 Y34.628 E13.92573
G1 X60.371 Y34.6 E14.31656
G1 X61.838 Y34.902 E14.34473
G1 X63.129 Y35.612 E14.37245
G1 X63.746 Y36.104 E14.38729
G1 X64.512 Y37.055 E14.41026
G1 X65.204 Y38.443 E14.43944
G1 X65.372 Y39.594 E14.46132
G1 X65.4 Y60.371 E14.85215
G1 X65.098 Y61.838 E14.88032
G1 X64.388 Y63.129 E14.90803
G1 X63.896 Y63.746 E14.92288
G1 X62.945 Y64.512 E14.94585
G1 X61.557 Y65.204 E14.97502
G1 X60.406 Y65.372 E14.9969
G1 X39.553 Y65.4 E15.38916
G1 X38.13 Y65.087 E15.41657
G1 X36.978 Y64.471 E15.44114
G1 X36.254 Y63.904 E15.45844
G1 X35.493 Y62.957 E15.48129
G1 X34.796 Y61.549 E15.51084
G1 X34.628 Y60.406 E15.53258
G1 X34.6 Y39.629 E15.9234
G1 X34.902 Y38.162 E15.95158
G1 X35.612 Y36.871 E15.97929
G1 X36.104 Y36.254 E15.99414
G0 F3600 X36.39 Y36.537
G1 F1800 X37.271 Y35.827 E16.01542
G1 X38.563 Y35.183 E16.04257
G1 X39.652 Y35.024 E16.06328
G1 X60.329 Y35 E16.45222
G1 X61.7 Y35.282 E16.47855
G1 X62.88 Y35.925 E16.50383
G1 X63.463 Y36.39 E16.51786
G1 X64.173 Y37.271 E16.53914
G1 X64.817 Y38.563 E16.5663
G1 X64.976 Y39.652 E16.587
G1 X65 Y60.329 E16.97594
G1 X64.718 Y61.7 E17.00227
G1 X64.075 Y62.88 E17.02755
G1 X63.61 Y63.463 E17.04158
G1 X62.729 Y64.173 E17.06286
G1 X61.437 Y64.817 E17.09002
G1 X60.348 Y64.976 E17.11072
G1 X39.598 Y65 E17.50104
G1 X38.27 Y64.708 E17.52662
G1 X37.167 Y64.118 E17.55015
G1 X36.539 Y63.619 E17.56523
G1 X35.829 Y62.736 E17.58655
G1 X35.183 Y61.431 E17.61394
G1 X35.024 Y60.348 E17.63453
G1 X35 Y39.671 E18.02347
G1 X35.282 Y38.3 E18.0498
G1 X35.925 Y37.12 E18.07508
G1 X36.39 Y36.537 E18.08911
G0 F3600 X36.674 Y36.822
G1 F1800 X37.491 Y36.164 E18.10884
G1 X38.683 Y35.57 E18.13389
G1 X39.71 Y35.42 E18.15342
G1 X60.287 Y35.4 E18.54048
G1 X61.562 Y35.662 E18.56497
G1 X62.631 Y36.238 E18.58781
G1 X63.178 Y36.674 E18.60097
G1 X63.836 Y37.491 E18.6207
G1 X64.43 Y38.683 E18.64575
G1 X64.58 Y39.71 E18.66527
G1 X64.6 Y60.287 E19.05234
G1 X64.338 Y61.562 E19.07682
G1 X63.762 Y62.631 E19.09967
G1 X63.326 Y63.178 E19.11282
G1 X62.509 Y63.836 E19.13256
G1 X61.317 Y64.43 E19.15761
G1 X60.29 Y64.58 E19.17713
G1 X39.643 Y64.6 E19.56551
G1 X38.41 Y64.329 E19.58926
G1 X37.356 Y63.765 E19.61175
G1 X36.825 Y63.336 E19.62459
G1 X36.165 Y62.515 E19.6444
G1 X35.57 Y61.313 E19.66963
G1 X35.42 Y60.29 E19.68908
G1 X35.4 Y39.713 E20.07615
G1 X35.662 Y38.438 E20.10063
G1 X36.238 Y37.369 E20.12347
G1 X36.674 Y36.822 E20.13663
G0 F3600 X36.956 Y37.109
G1 F1800 X37.711 Y36.501 E20.15486
G1 X38.803 Y35.957 E20.17781
G1 X39.768 Y35.816 E20.19616
G1 X60.246 Y35.8 E20.58136
G1 X61.424 Y36.042 E20.60398
G1 X62.441 Y36.59 E20.62571
G1 X62.891 Y36.956 E20.63662
G1 X63.499 Y37.711 E20.65486
G1 X64.043 Y38.803 E20.67781
G1 X64.184 Y39.768 E20.69615
G1 X64.2 Y60.246 E21.08136
G1 X63.958 Y61.424 E21.10398
G1 X63.41 Y62.441 E21.12571
G1 X63.044 Y62.891 E21.13662
G1 X62.289 Y63.499 E21.15485
G1 X61.197 Y64.043 E21.1778
G1 X60.232 Y64.184 E21.19615
G1 X39.688 Y64.2 E21.58259
G1 X38.55 Y63.95 E21.60451
G1 X37.578 Y63.43 E21.62524
G1 X37.111 Y63.052 E21.63655
G1 X36.501 Y62.294 E21.65485
G1 X35.957 Y61.195 E21.67791
G1 X35.816 Y60.232 E21.69622
G1 X35.8 Y39.754 E22.08143
G1 X36.042 Y38.576 E22.10405
G1 X36.59 Y37.559 E22.12578
G1 X36.956 Y37.109 E22.13669
G0 F3600 X37.207 Y37.421
G1 F1800 X37.931 Y36.838 E22.15417
G1 X38.923 Y36.344 E22.17502
G1 X39.826 Y36.212 E22.19219
G1 X60.205 Y36.2 E22.57553
G1 X61.286 Y36.422 E22.59629
G1 X62.194 Y36.905 E22.61563
G1 X62.579 Y37.207 E22.62484
G1 X63.162 Y37.931 E22.64232
G1 X63.656 Y38.923 E22.66317
G1 X63.788 Y39.826 E22.68033
G1 X63.8 Y60.205 E23.06367
G1 X63.578 Y61.286 E23.08443
G1 X63.095 Y62.194 E23.10378
G1 X62.793 Y62.579 E23.11298
G1 X62.069 Y63.162 E23.13047
G1 X61.077 Y63.656 E23.15131
G1 X60.174 Y63.788 E23.16848
G1 X39.733 Y63.8 E23.55299
G1 X38.69 Y63.571 E23.57307
G1 X37.767 Y63.077 E23.59277
G1 X37.398 Y62.77 E23.6018
G1 X36.839 Y62.075 E23.61857
G1 X36.344 Y61.076 E23.63954
G1 X36.212 Y60.174 E23.65669
G1 X36.2 Y39.795 E24.04003
G1 X36.422 Y38.714 E24.06079
G1 X36.905 Y37.806 E24.08014
G1 X37.207 Y37.421 E24.08934
G0 F3600 X37.458 Y37.733
G1 F1800 X38.151 Y37.175 E24.10608
G1 X39.043 Y36.731 E24.12482
G1 X39.884 Y36.608 E24.14081
G1 X60.164 Y36.6 E24.52229
G1 X61.15 Y36.802 E24.54122
G1 X61.955 Y37.226 E24.55833
G1 X62.267 Y37.458 E24.56565
G1 X62.825 Y38.151 E24.58238
G1 X63.269 Y39.043 E24.60113
G1 X63.392 Y39.884 E24.61711
G1 X63.4 Y60.164 E24.99859
G1 X63.198 Y61.15 E25.01752
G1 X62.774 Y61.955 E25.03464
G1 X62.542 Y62.267 E25.04195
G1 X61.849 Y62.825 E25.05869
G1 X60.957 Y63.269 E25.07743
G1 X60.116 Y63.392 E25.09342
G1 X39.778 Y63.4 E25.47599
G1 X38.83 Y63.192 E25.49425
G1 X37.956 Y62.724 E25.51289
G1 X37.71 Y62.519 E25.51892
G1 X37.177 Y61.856 E25.53492
G1 X36.731 Y60.957 E25.5538
G1 X36.608 Y60.116 E25.56979
G1 X36.6 Y39.836 E25.95126
G1 X36.802 Y38.85 E25.9702
G1 X37.226 Y38.045 E25.98731
G1 X37.458 Y37.733 E25.99462
G0 F3600 X37.749 Y38.012
G1 F1800 X38.367 Y37.514 E26.00955
G1 X39.163 Y37.118 E26.02628
G1 X39.942 Y37.004 E26.04109
G1 X60.123 Y37 E26.4207
G1 X61.013 Y37.182 E26.43779
G1 X61.768 Y37.58 E26.45385
G1 X61.988 Y37.749 E26.45906
G1 X62.486 Y38.367 E26.47399
G1 X62.882 Y39.163 E26.49072
G1 X62.996 Y39.942 E26.50553
G1 X63 Y60.123 E26.88514
G1 X62.818 Y61.013 E26.90223
G1 X62.42 Y61.768 E26.91828
G1 X62.251 Y61.988 E26.9235
G1 X61.633 Y62.486 E26.93843
G1 X60.837 Y62.882 E26.95516
G1 X60.058 Y62.996 E26.96997
G1 X39.823 Y63 E27.3506
G1 X38.97 Y62.813 E27.36702
G1 X38.145 Y62.371 E27.38463
G1 X38.022 Y62.268 E27.38765
G1 X37.515 Y61.637 E27.40287
G1 X37.118 Y60.837 E27.41967
G1 X37.004 Y60.058 E27.43448
G1 X37 Y39.877 E27.8141
G1 X37.182 Y38.987 E27.83119
G1 X37.58 Y38.232 E27.84724
G1 X37.749 Y38.012 E27.85246
G0 F3600 X38.037 Y38.293
G1 F1800 X38.583 Y37.853 E27.86565
G1 X39.283 Y37.505 E27.88035
G1 X40 Y37.4 E27.89399
G1 X60.082 Y37.4 E28.27174
G1 X60.878 Y37.563 E28.28702
G1 X61.582 Y37.934 E28.30199
G1 X61.707 Y38.037 E28.30504
G1 X62.147 Y38.583 E28.31823
G1 X62.495 Y39.283 E28.33293
G1 X62.6 Y40 E28.34656
G1 X62.6 Y60.082 E28.72432
G1 X62.437 Y60.878 E28.7396
G1 X62.066 Y61.582 E28.75457
G1 X61.963 Y61.707 E28.75762
G1 X61.417 Y62.147 E28.77081
G1 X60.717 Y62.495 E28.78551
G1 X60 Y62.6 E28.79914
G1 X39.868 Y62.6 E29.17784
G1 X39.11 Y62.434 E29.19243
G1 X38.334 Y62.018 E29.209
G1 X37.854 Y61.42 E29.22342
G1 X37.505 Y60.717 E29.23818
G1 X37.4 Y60 E29.25182
G1 X37.4 Y39.918 E29.62957
G1 X37.563 Y39.122 E29.64485
G1 X37.934 Y38.418 E29.65982
G1 X38.037 Y38.293 E29.66287
G0 F3600 X38.288 Y38.604
G1 F1800 X38.799 Y38.192 E29.67522
G1 X39.405 Y37.891 E29.68794
G1 X40 Y37.8 E29.69927
G1 X60.041 Y37.8 E30.07625
G1 X60.743 Y37.944 E30.08973
G1 X61.396 Y38.288 E30.10361
G1 X61.808 Y38.799 E30.11596
G1 X62.109 Y39.405 E30.12869
G1 X62.2 Y40 E30.14001
G1 X62.2 Y60.041 E30.51699
G1 X62.056 Y60.743 E30.53047
G1 X61.712 Y61.396 E30.54436
G1 X61.201 Y61.808 E30.5567
G1 X60.595 Y62.109 E30.56943
G1 X60 Y62.2 E30.58075
G1 X39.913 Y62.2 E30.9586
G1 X39.247 Y62.054 E30.97143
G1 X38.597 Y61.705 E30.9853
G1 X38.192 Y61.201 E30.99747
G1 X37.891 Y60.595 E31.01019
G1 X37.8 Y60 E31.02152
G1 X37.8 Y39.959 E31.3985
G1 X37.944 Y39.257 E31.41198
G1 X38.288 Y38.604 E31.42586
G0 F3600 X38.605 Y38.862
G1 F1800 X38.977 Y38.55 E31.435
G1 X39.526 Y38.277 E31.44653
G1 X40 Y38.2 E31.45556
G1 X60 Y38.2 E31.83177
G1 X60.606 Y38.324 E31.84341
G1 X61.138 Y38.605 E31.85473
G1 X61.45 Y38.977 E31.86386
G1 X61.723 Y39.526 E31.87539
G1 X61.8 Y40 E31.88442
G1 X61.8 Y60 E32.26064
G1 X61.676 Y60.606 E32.27227
G1 X61.395 Y61.138 E32.28359
G1 X61.023 Y61.45 E32.29272
G1 X60.474 Y61.723 E32.30426
G1 X60 Y61.8 E32.31329
G1 X39.958 Y61.8 E32.69029
G1 X39.384 Y61.674 E32.70134
G1 X38.859 Y61.392 E32.71255
G1 X38.55 Y61.023 E32.72161
G1 X38.277 Y60.474 E32.73314
G1 X38.2 Y60 E32.74217
G1 X38.2 Y40 E33.11838
G1 X38.324 Y39.394 E33.13002
G1 X38.605 Y38.862 E33.14134
G0 F3600 X38.923 Y39.117
G1 F1800 X39.155 Y38.908 E33.14721
G1 X39.649 Y38.662 E33.15759
G1 X40 Y38.6 E33.1643
G1 X60 Y38.6 E33.54051
G1 X60.419 Y38.678 E33.54852
G1 X60.883 Y38.923 E33.55839
G1 X61.092 Y39.155 E33.56427
G1 X61.338 Y39.649 E33.57465
G1 X61.4 Y40 E33.58135
G1 X61.4 Y60 E33.95757
G1 X61.322 Y60.419 E33.96558
G1 X61.077 Y60.883 E33.97545
G1 X60.845 Y61.092 E33.98133
G1 X60.351 Y61.338 E33.99171
G1 X60 Y61.4 E33.99841
G1 X39.958 Y61.4 E34.37541
G1 X39.477 Y61.285 E34.38472
G1 X39.117 Y61.077 E34.39254
G1 X38.908 Y60.845 E34.39841
G1 X38.662 Y60.351 E34.40879
G1 X38.6 Y60 E34.4155
G1 X38.6 Y40 E34.79171
G1 X38.678 Y39.581 E34.79972
G1 X38.923 Y39.117 E34.80959
G0 F3600 X39.207 Y39.399
G1 F1800 X39.07 Y39.662 E34.81517
G1 X39 Y40 E34.82167
G1 X39 Y60 E35.19788
G1 X39.054 Y60.273 E35.20311
G1 X39.26 Y60.655 E35.21128
G1 X39.399 Y60.793 E35.21496
G1 X39.662 Y60.93 E35.22054
G1 X40 Y61 E35.22703
G1 X60 Y61 E35.60324
G1 X60.273 Y60.946 E35.60848
G1 X60.655 Y60.74 E35.61664
G1 X60.793 Y60.601 E35.62032
G1 X60.93 Y60.338 E35.6259
G1 X61 Y60 E35.6324
G1 X61 Y40 E36.00861
G1 X60.946 Y39.727 E36.01384
G1 X60.74 Y39.345 E36.02201
G1 X60.601 Y39.207 E36.02569
G1 X60.338 Y39.07 E36.03127
G1 X60 Y39 E36.03776
G1 X40 Y39 E36.41397
G1 X39.727 Y39.054 E36.41921
G1 X39.345 Y39.26 E36.42737
G1 X39.207 Y39.399 E36.43106
G0 F3600 X39.839 Y39.881
G1 F1800 X40 Y39.8 E36.43445
G1 X60 Y39.8 E36.81066
G1 X60.119 Y39.839 E36.81301
G1 X60.2 Y40 E36.8164
G1 X60.2 Y60 E37.19261
G1 X60.161 Y60.119 E37.19497
G1 X60 Y60.2 E37.19836
G1 X40 Y60.2 E37.57457
G1 X39.881 Y60.161 E37.57693
G1 X39.8 Y60 E37.58032
G1 X39.8 Y40 E37.95653
G1 X39.839 Y39.881 E37.95888
G0 F3600 X39.459 Y39.756
G1 F1800 X39.55 Y39.604 E37.96222
G1 X39.82 Y39.443 E37.96813
G1 X40 Y39.4 E37.97161
G1 X60 Y39.4 E38.34782
G1 X60.244 Y39.459 E38.35254
G1 X60.396 Y39.55 E38.35588
G1 X60.557 Y39.82 E38.36179
G1 X60.6 Y40 E38.36527
G1 X60.6 Y60 E38.74148
G1 X60.541 Y60.244 E38.7462
G1 X60.45 Y60.396 E38.74954
G1 X60.18 Y60.557 E38.75545
G1 X60 Y60.6 E38.75893
G1 X40 Y60.6 E39.13514
G1 X39.756 Y60.541 E39.13986
G1 X39.604 Y60.45 E39.1432
G1 X39.443 Y60.18 E39.14911
G1 X39.4 Y60 E39.15259
G1 X39.4 Y40 E39.5288
G1 X39.459 Y39.756 E39.53352
G1 F1500 E33.03352
;MESH:20mm cube.stl
G0 F3600 X40.424 Y40.424
G0 X59.09 Y59.12
G0 X59.4 Y59.4
;TYPE:WALL-INNER
G1 F1500 E39.53352
G1 F1800 X59.4 Y40.6 E39.88716
G1 X40.6 Y40.6 E40.2408
G1 X40.6 Y59.4 E40.59444
G1 X59.4 Y59.4 E40.94808
G0 F3600 X59.8 Y59.8
;TYPE:WALL-OUTER
G1 F1800 X59.8 Y40.2 E41.31676
G1 X40.2 Y40.2 E41.68545
G1 X40.2 Y59.8 E42.05414
G1 X59.8 Y59.8 E42.42282
G0 F3600 X59.8 Y59.6
G0 X59.02 Y59.02
;TYPE:SKIN
G1 F900 X40.98 Y59.02 E42.76217
G1 X40.98 Y40.98 E43.10151
G1 X59.02 Y40.98 E43.44085
G1 X59.02 Y59.02 E43.78019
G0 F3600 X58.717 Y41.18
G1 F900 X58.82 Y41.284 E43.78295
G0 F3600 X58.82 Y41.849
G1 F900 X58.151 Y41.18 E43.80074
G0 F3600 X57.585 Y41.18
G1 F900 X58.82 Y42.415 E43.8336
G0 F3600 X58.82 Y42.981
G1 F900 X57.02 Y41.18 E43.8815
G0 F3600 X56.454 Y41.18
G1 F900 X58.82 Y43.546 E43.94444
G0 F3600 X58.82 Y44.112
G1 F900 X55.888 Y41.18 E44.02243
G0 F3600 X55.323 Y41.18
G1 F900 X58.82 Y44.678 E44.11547
G0 F3600 X58.82 Y45.244
G1 F900 X54.757 Y41.18 E44.22357
G0 F3600 X54.191 Y41.18
G1 F900 X58.82 Y45.809 E44.34671
G0 F3600 X58.82 Y46.375
G1 F900 X53.626 Y41.18 E44.4849
G0 F3600 X53.06 Y41.18
G1 F900 X58.82 Y46.941 E44.63814
G0 F3600 X58.82 Y47.506
G1 F900 X52.494 Y41.18 E44.80643
G0 F3600 X51.929 Y41.18
G1 F900 X58.82 Y48.072 E44.98975
G0 F3600 X58.82 Y48.638
G1 F900 X51.363 Y41.18 E45.18814
G0 F3600 X50.797 Y41.18
G1 F900 X58.82 Y49.203 E45.40157
G0 F3600 X58.82 Y49.769
G1 F900 X50.231 Y41.18 E45.63005
G0 F3600 X49.666 Y41.18
G1 F900 X58.82 Y50.335 E45.87358
G0 F3600 X58.82 Y50.9
G1 F900 X49.1 Y41.18 E46.13216
G0 F3600 X48.534 Y41.18
G1 F900 X58.82 Y51.466 E46.40579
G0 F3600 X58.82 Y52.032
G1 F900 X47.969 Y41.18 E46.69446
G0 F3600 X47.403 Y41.18
G1 F900 X58.82 Y52.597 E46.99818
G0 F3600 X58.82 Y53.163
G1 F900 X46.837 Y41.18 E47.31695
G0 F3600 X46.272 Y41.18
G1 F900 X58.82 Y53.729 E47.65077
G0 F3600 X58.82 Y54.294
G1 F900 X45.706 Y41.18 E47.99963
G0 F3600 X45.14 Y41.18
G1 F900 X58.82 Y54.86 E48.36354
G0 F3600 X58.82 Y55.426
G1 F900 X44.575 Y41.18 E48.74251
G0 F3600 X44.009 Y41.18
G1 F900 X58.82 Y55.992 E49.13652
G0 F3600 X58.82 Y56.557
G1 F900 X43.443 Y41.18 E49.54558
G0 F3600 X42.878 Y41.18
G1 F900 X58.82 Y57.123 E49.96969
G0 F3600 X58.82 Y57.689
G1 F900 X42.312 Y41.18 E50.40885
G0 F3600 X41.746 Y41.18
G1 F900 X58.82 Y58.254 E50.86306
G0 F3600 X58.82 Y58.82
G1 F900 X41.18 Y41.18 E51.33232
G0 F3600 X41.18 Y41.745
G1 F900 X58.254 Y58.82 E51.78654
G0 F3600 X57.689 Y58.82
G1 F900 X41.18 Y42.311 E52.22571
G0 F3600 X41.18 Y42.877
G1 F900 X57.123 Y58.82 E52.64983
G0 F3600 X56.557 Y58.82
G1 F900 X41.18 Y43.443 E53.05889
G0 F3600 X41.18 Y44.008
G1 F900 X55.992 Y58.82 E53.45292
G0 F3600 X55.426 Y58.82
G1 F900 X41.18 Y44.574 E53.83189
G0 F3600 X41.18 Y45.14
G1 F900 X54.86 Y58.82 E54.19581
G0 F3600 X54.294 Y58.82
G1 F900 X41.18 Y45.705 E54.54469
G0 F3600 X41.18 Y46.271
G1 F900 X53.729 Y58.82 E54.87852
G0 F3600 X53.163 Y58.82
G1 F900 X41.18 Y46.837 E55.19729
G0 F3600 X41.18 Y47.402
G1 F900 X52.597 Y58.82 E55.50102
G0 F3600 X52.032 Y58.82
G1 F900 X41.18 Y47.968 E55.78971
G0 F3600 X41.18 Y48.534
G1 F900 X51.466 Y58.82 E56.06334
G0 F3600 X50.9 Y58.82
G1 F900 X41.18 Y49.099 E56.32192
G0 F3600 X41.18 Y49.665
G1 F900 X50.335 Y58.82 E56.56546
G0 F3600 X49.769 Y58.82
G1 F900 X41.18 Y50.231 E56.79395
G0 F3600 X41.18 Y50.796
G1 F900 X49.203 Y58.82 E57.00739
G0 F3600 X48.638 Y58.82
G1 F900 X41.18 Y51.362 E57.20579
G0 F3600 X41.18 Y51.928
G1 F900 X48.072 Y58.82 E57.38913
G0 F3600 X47.506 Y58.82
G1 F900 X41.18 Y52.493 E57.55743
G0 F3600 X41.18 Y53.059
G1 F900 X46.941 Y58.82 E57.71069
G0 F3600 X46.375 Y58.82
G1 F900 X41.18 Y53.625 E57.84888
G0 F3600 X41.18 Y54.191
G1 F900 X45.809 Y58.82 E57.97203
G0 F3600 X45.244 Y58.82
G1 F900 X41.18 Y54.756 E58.08014
G0 F3600 X41.18 Y55.322
G1 F900 X44.678 Y58.82 E58.17319
G0 F3600 X44.112 Y58.82
G1 F900 X41.18 Y55.888 E58.25119
G0 F3600 X41.18 Y56.453
G1 F900 X43.546 Y58.82 E58.31414
G0 F3600 X42.981 Y58.82
G1 F900 X41.18 Y57.019 E58.36205
G0 F3600 X41.18 Y57.585
G1 F900 X42.415 Y58.82 E58.39491
G0 F3600 X41.849 Y58.82
G1 F900 X41.18 Y58.15 E58.41272
G0 F3600 X41.18 Y58.716
G1 F900 X41.284 Y58.82 E58.41548
G0 F3600 X41.284 Y58.79
;MESH:NONMESH
G0 F600 X41.284 Y58.79 Z0.36
G0 F3600 X59.12 Y59.12
G0 X59.4 Y59.4
;TIME_ELAPSED:137.962502
;LAYER:1
M106 S255
;TYPE:WALL-INNER
;MESH:20mm cube.stl
G1 F2700 X59.4 Y40.6 E58.48621
G1 X40.6 Y40.6 E58.55694
G1 X40.6 Y59.4 E58.62767
G1 X59.4 Y59.4 E58.69839
G0 F5400 X59.8 Y59.8
;TYPE:WALL-OUTER
G1 F1800 X59.8 Y40.2 E58.77213
G1 X40.2 Y40.2 E58.84587
G1 X40.2 Y59.8 E58.91961
G1 X59.8 Y59.8 E58.99334
G0 F5400 X59.8 Y59.6
G0 X59.02 Y59.02
;TYPE:SKIN
G1 F900 X40.98 Y59.02 E59.06121
G1 X40.98 Y40.98 E59.12908
G1 X59.02 Y40.98 E59.19695
G1 X59.02 Y59.02 E59.26482
G0 F5400 X58.277 Y58.82
G1 F900 X58.82 Y58.277 E59.26771
G0 F5400 X58.82 Y57.711
G1 F900 X57.711 Y58.82 E59.27361
G0 F5400 X57.146 Y58.82
G1 F900 X58.82 Y57.146 E59.28251
G0 F5400 X58.82 Y56.58
G1 F900 X56.58 Y58.82 E59.29443
G0 F5400 X56.014 Y58.82
G1 F900 X58.82 Y56.014 E59.30936
G0 F5400 X58.82 Y55.448
G1 F900 X55.448 Y58.82 E59.3273
G0 F5400 X54.883 Y58.82
G1 F900 X58.82 Y54.883 E59.34825
G0 F5400 X58.82 Y54.317
G1 F900 X54.317 Y58.82 E59.37221
G0 F5400 X53.751 Y58.82
G1 F900 X58.82 Y53.751 E59.39917
G0 F5400 X58.82 Y53.186
G1 F900 X53.186 Y58.82 E59.42915
G0 F5400 X52.62 Y58.82
G1 F900 X58.82 Y52.62 E59.46214
G0 F5400 X58.82 Y52.054
G1 F900 X52.054 Y58.82 E59.49813
G0 F5400 X51.489 Y58.82
G1 F900 X58.82 Y51.489 E59.53714
G0 F5400 X58.82 Y50.923
G1 F900 X50.923 Y58.82 E59.57915
G0 F5400 X50.357 Y58.82
G1 F900 X58.82 Y50.357 E59.62418
G0 F5400 X58.82 Y49.792
G1 F900 X49.792 Y58.82 E59.67221
G0 F5400 X49.226 Y58.82
G1 F900 X58.82 Y49.226 E59.72326
G0 F5400 X58.82 Y48.66
G1 F900 X48.66 Y58.82 E59.77731
G0 F5400 X48.095 Y58.82
G1 F900 X58.82 Y48.095 E59.83438
G0 F5400 X58.82 Y47.529
G1 F900 X47.529 Y58.82 E59.89445
G0 F5400 X46.963 Y58.82
G1 F900 X58.82 Y46.963 E59.95753
G0 F5400 X58.82 Y46.398
G1 F900 X46.398 Y58.82 E60.02362
G0 F5400 X45.832 Y58.82
G1 F900 X58.82 Y45.832 E60.09272
G0 F5400 X58.82 Y45.266
G1 F900 X45.266 Y58.82 E60.16484
G0 F5400 X44.7 Y58.82
G1 F900 X58.82 Y44.7 E60.23996
G0 F5400 X58.82 Y44.135
G1 F900 X44.135 Y58.82 E60.31809
G0 F5400 X43.569 Y58.82
G1 F900 X58.82 Y43.569 E60.39923
G0 F5400 X58.82 Y43.003
G1 F900 X43.003 Y58.82 E60.48339
G0 F5400 X42.438 Y58.82
G1 F900 X58.82 Y42.438 E60.57055
G0 F5400 X58.82 Y41.872
G1 F900 X41.872 Y58.82 E60.66072
G0 F5400 X41.306 Y58.82
G1 F900 X58.82 Y41.306 E60.7539
G0 F5400 X58.381 Y41.18
G1 F900 X41.18 Y58.38 E60.84541
G0 F5400 X41.18 Y57.814
G1 F900 X57.815 Y41.18 E60.93392
G0 F5400 X57.249 Y41.18
G1 F900 X41.18 Y57.249 E61.01941
G0 F5400 X41.18 Y56.683
G1 F900 X56.684 Y41.18 E61.1019
G0 F5400 X56.118 Y41.18
G1 F900 X41.18 Y56.117 E61.18137
G0 F5400 X41.18 Y55.552
G1 F900 X55.552 Y41.18 E61.25783
G0 F5400 X54.987 Y41.18
G1 F900 X41.18 Y54.986 E61.33129
G0 F5400 X41.18 Y54.42
G1 F900 X54.421 Y41.18 E61.40174
G0 F5400 X53.855 Y41.18
G1 F900 X41.18 Y53.855 E61.46917
G0 F5400 X41.18 Y53.289
G1 F900 X53.29 Y41.18 E61.5336
G0 F5400 X52.724 Y41.18
G1 F900 X41.18 Y52.723 E61.59502
G0 F5400 X41.18 Y52.158
G1 F900 X52.158 Y41.18 E61.65342
G0 F5400 X51.593 Y41.18
G1 F900 X41.18 Y51.592 E61.70882
G0 F5400 X41.18 Y51.026
G1 F900 X51.027 Y41.18 E61.76121
G0 F5400 X50.461 Y41.18
G1 F900 X41.18 Y50.461 E61.81059
G0 F5400 X41.18 Y49.895
G1 F900 X49.896 Y41.18 E61.85696
G0 F5400 X49.33 Y41.18
G1 F900 X41.18 Y49.329 E61.90032
G0 F5400 X41.18 Y48.763
G1 F900 X48.764 Y41.18 E61.94067
G0 F5400 X48.199 Y41.18
G1 F900 X41.18 Y48.198 E61.97801
G0 F5400 X41.18 Y47.632
G1 F900 X47.633 Y41.18 E62.01234
G0 F5400 X47.067 Y41.18
G1 F900 X41.18 Y47.066 E62.04366
G0 F5400 X41.18 Y46.501
G1 F900 X46.501 Y41.18 E62.07197
G0 F5400 X45.936 Y41.18
G1 F900 X41.18 Y45.935 E62.09727
G0 F5400 X41.18 Y45.369
G1 F900 X45.37 Y41.18 E62.11956
G0 F5400 X44.804 Y41.18
G1 F900 X41.18 Y44.804 E62.13884
G0 F5400 X41.18 Y44.238
G1 F900 X44.239 Y41.18 E62.15511
G0 F5400 X43.673 Y41.18
G1 F900 X41.18 Y43.672 E62.16837
G0 F5400 X41.18 Y43.107
G1 F900 X43.107 Y41.18 E62.17863
G0 F5400 X42.542 Y41.18
G1 F900 X41.18 Y42.541 E62.18587
G0 F5400 X41.18 Y41.975
G1 F900 X41.976 Y41.18 E62.1901
G0 F5400 X41.41 Y41.18
G1 F900 X41.18 Y41.41 E62.19133
G0 F5400 X41.21 Y41.41
;MESH:NONMESH
G0 F600 X41.21 Y41.41 Z0.42
G0 F5400 X59.12 Y59.12
G0 X59.4 Y59.4
;TIME_ELAPSED:200.638354
;LAYER:2
;TYPE:WALL-INNER
;MESH:20mm cube.stl
G1 F3600 X59.4 Y40.6 E62.26205
G1 X40.6 Y40.6 E62.33278
G1 X40.6 Y59.4 E62.40351
G1 X59.4 Y59.4 E62.47424
G0 F7200 X59.8 Y59.8
;TYPE:WALL-OUTER
G1 F1800 X59.8 Y40.2 E62.54797
G1 X40.2 Y40.2 E62.62171
G1 X40.2 Y59.8 E62.69545
G1 X59.8 Y59.8 E62.76919
G0 F7200 X59.8 Y59.6
G0 X59.02 Y59.02
;TYPE:SKIN
G1 F900 X40.98 Y59.02 E62.83705
G1 X40.98 Y40.98 E62.90492
G1 X59.02 Y40.98 E62.97279
G1 X59.02 Y59.02 E63.04066
G0 F7200 X58.717 Y41.18
G1 F900 X58.82 Y41.284 E63.04121
G0 F7200 X58.82 Y41.849
G1 F900 X58.151 Y41.18 E63.04477
G0 F7200 X57.585 Y41.18
G1 F900 X58.82 Y42.415 E63.05134
G0 F7200 X58.82 Y42.981
G1 F900 X57.02 Y41.18 E63.06092
G0 F7200 X56.454 Y41.18
G1 F900 X58.82 Y43.546 E63.07351
G0 F7200 X58.82 Y44.112
G1 F900 X55.888 Y41.18 E63.08911
G0 F7200 X55.323 Y41.18
G1 F900 X58.82 Y44.678 E63.10772
G0 F7200 X58.82 Y45.244
G1 F900 X54.757 Y41.18 E63.12933
G0 F7200 X54.191 Y41.18
G1 F900 X58.82 Y45.809 E63.15396
G0 F7200 X58.82 Y46.375
G1 F900 X53.626 Y41.18 E63.1816
G0 F7200 X53.06 Y41.18
G1 F900 X58.82 Y46.941 E63.21225
G0 F7200 X58.82 Y47.506
G1 F900 X52.494 Y41.18 E63.24591
G0 F7200 X51.929 Y41.18
G1 F900 X58.82 Y48.072 E63.28257
G0 F7200 X58.82 Y48.638
G1 F900 X51.363 Y41.18 E63.32225
G0 F7200 X50.797 Y41.18
G1 F900 X58.82 Y49.203 E63.36493
G0 F7200 X58.82 Y49.769
G1 F900 X50.231 Y41.18 E63.41063
G0 F7200 X49.666 Y41.18
G1 F900 X58.82 Y50.335 E63.45934
G0 F7200 X58.82 Y50.9
G1 F900 X49.1 Y41.18 E63.51105
G0 F7200 X48.534 Y41.18
G1 F900 X58.82 Y51.466 E63.56578
G0 F7200 X58.82 Y52.032
G1 F900 X47.969 Y41.18 E63.62351
G0 F7200 X47.403 Y41.18
G1 F900 X58.82 Y52.597 E63.68426
G0 F7200 X58.82 Y53.163
G1 F900 X46.837 Y41.18 E63.74801
G0 F7200 X46.272 Y41.18
G1 F900 X58.82 Y53.729 E63.81477
G0 F7200 X58.82 Y54.294
G1 F900 X45.706 Y41.18 E63.88455
G0 F7200 X45.14 Y41.18
G1 F900 X58.82 Y54.86 E63.95733
G0 F7200 X58.82 Y55.426
G1 F900 X44.575 Y41.18 E64.03312
G0 F7200 X44.009 Y41.18
G1 F900 X58.82 Y55.992 E64.11193
G0 F7200 X58.82 Y56.557
G1 F900 X43.443 Y41.18 E64.19374
G0 F7200 X42.878 Y41.18
G1 F900 X58.82 Y57.123 E64.27856
G0 F7200 X58.82 Y57.689
G1 F900 X42.312 Y41.18 E64.36639
G0 F7200 X41.746 Y41.18
G1 F900 X58.82 Y58.254 E64.45723
G0 F7200 X58.82 Y58.82
G1 F900 X41.18 Y41.18 E64.55108
G0 F7200 X41.18 Y41.745
G1 F900 X58.254 Y58.82 E64.64193
G0 F7200 X57.689 Y58.82
G1 F900 X41.18 Y42.311 E64.72976
G0 F7200 X41.18 Y42.877
G1 F900 X57.123 Y58.82 E64.81459
G0 F7200 X56.557 Y58.82
G1 F900 X41.18 Y43.443 E64.8964
G0 F7200 X41.18 Y44.008
G1 F900 X55.992 Y58.82 E64.9752
G0 F7200 X55.426 Y58.82
G1 F900 X41.18 Y44.574 E65.051
G0 F7200 X41.18 Y45.14
G1 F900 X54.86 Y58.82 E65.12378
G0 F7200 X54.294 Y58.82
G1 F900 X41.18 Y45.705 E65.19356
G0 F7200 X41.18 Y46.271
G1 F900 X53.729 Y58.82 E65.26032
G0 F7200 X53.163 Y58.82
G1 F900 X41.18 Y46.837 E65.32408
G0 F7200 X41.18 Y47.402
G1 F900 X52.597 Y58.82 E65.38482
G0 F7200 X52.032 Y58.82
G1 F900 X41.18 Y47.968 E65.44256
G0 F7200 X41.18 Y48.534
G1 F900 X51.466 Y58.82 E65.49729
G0 F7200 X50.9 Y58.82
G1 F900 X41.18 Y49.099 E65.549
G0 F7200 X41.18 Y49.665
G1 F900 X50.335 Y58.82 E65.59771
G0 F7200 X49.769 Y58.82
G1 F900 X41.18 Y50.231 E65.64341
G0 F7200 X41.18 Y50.796
G1 F900 X49.203 Y58.82 E65.6861
G0 F7200 X48.638 Y58.82
G1 F900 X41.18 Y51.362 E65.72578
G0 F7200 X41.18 Y51.928
G1 F900 X48.072 Y58.82 E65.76245
G0 F7200 X47.506 Y58.82
G1 F900 X41.18 Y52.493 E65.79611
G0 F7200 X41.18 Y53.059
G1 F900 X46.941 Y58.82 E65.82676
G0 F7200 X46.375 Y58.82
G1 F900 X41.18 Y53.625 E65.8544
G0 F7200 X41.18 Y54.191
G1 F900 X45.809 Y58.82 E65.87903
G0 F7200 X45.244 Y58.82
G1 F900 X41.18 Y54.756 E65.90065
G0 F7200 X41.18 Y55.322
G1 F900 X44.678 Y58.82 E65.91926
G0 F7200 X44.112 Y58.82
G1 F900 X41.18 Y55.888 E65.93486
G0 F7200 X41.18 Y56.453
G1 F900 X43.546 Y58.82 E65.94745
G0 F7200 X42.981 Y58.82
G1 F900 X41.18 Y57.019 E65.95703
G0 F7200 X41.18 Y57.585
G1 F900 X42.415 Y58.82 E65.9636
G0 F7200 X41.849 Y58.82
G1 F900 X41.18 Y58.15 E65.96716
G0 F7200 X41.18 Y58.716
G1 F900 X41.284 Y58.82 E65.96772
G0 F7200 X41.284 Y58.79
;MESH:NONMESH
G0 F600 X41.284 Y58.79 Z0.48
G0 F7200 X59.12 Y59.12
G0 X59.4 Y59.4
;TIME_ELAPSED:262.999091
;LAYER:3
;TYPE:WALL-INNER
;MESH:20mm cube.stl
G1 F3600 X59.4 Y40.6 E66.03844
G1 X40.6 Y40.6 E66.10917
G1 X40.6 Y59.4 E66.1799
G1 X59.4 Y59.4 E66.25063
G0 F7200 X59.8 Y59.8
;TYPE:WALL-OUTER
G1 F1800 X59.8 Y40.2 E66.32437
G1 X40.2 Y40.2 E66.3981
G1 X40.2 Y59.8 E66.47184
G1 X59.8 Y59.8 E66.54558
G0 F7200 X59.8 Y59.6
G0 X59.02 Y59.02
;TYPE:SKIN
G1 F900 X40.98 Y59.02 E66.61345
G1 X40.98 Y40.98 E66.68131
G1 X59.02 Y40.98 E66.74918
G1 X59.02 Y59.02 E66.81705
G0 F7200 X58.277 Y58.82
G1 F900 X58.82 Y58.277 E66.81994
G0 F7200 X58.82 Y57.711
G1 F900 X57.711 Y58.82 E66.82584
G0 F7200 X57.146 Y58.82
G1 F900 X58.82 Y57.146 E66.83475
G0 F7200 X58.82 Y56.58
G1 F900 X56.58 Y58.82 E66.84666
G0 F7200 X56.014 Y58.82
G1 F900 X58.82 Y56.014 E66.86159
G0 F7200 X58.82 Y55.448
G1 F900 X55.448 Y58.82 E66.87953
G0 F7200 X54.883 Y58.82
G1 F900 X58.82 Y54.883 E66.90048
G0 F7200 X58.82 Y54.317
G1 F900 X54.317 Y58.82 E66.92444
G0 F7200 X53.751 Y58.82
G1 F900 X58.82 Y53.751 E66.95141
G0 F7200 X58.82 Y53.186
G1 F900 X53.186 Y58.82 E66.98138
G0 F7200 X52.62 Y58.82
G1 F900 X58.82 Y52.62 E67.01437
G0 F7200 X58.82 Y52.054
G1 F900 X52.054 Y58.82 E67.05037
G0 F7200 X51.489 Y58.82
G1 F900 X58.82 Y51.489 E67.08937
G0 F7200 X58.82 Y50.923
G1 F900 X50.923 Y58.82 E67.13139
G0 F7200 X50.357 Y58.82
G1 F900 X58.82 Y50.357 E67.17641
G0 F7200 X58.82 Y49.792
G1 F900 X49.792 Y58.82 E67.22445
G0 F7200 X49.226 Y58.82
G1 F900 X58.82 Y49.226 E67.27549
G0 F7200 X58.82 Y48.66
G1 F900 X48.66 Y58.82 E67.32955
G0 F7200 X48.095 Y58.82
G1 F900 X58.82 Y48.095 E67.38661
G0 F7200 X58.82 Y47.529
G1 F900 X47.529 Y58.82 E67.44668
G0 F7200 X46.963 Y58.82
G1 F900 X58.82 Y46.963 E67.50977
G0 F7200 X58.82 Y46.398
G1 F900 X46.398 Y58.82 E67.57586
G0 F7200 X45.832 Y58.82
G1 F900 X58.82 Y45.832 E67.64496
G0 F7200 X58.82 Y45.266
G1 F900 X45.266 Y58.82 E67.71707
G0 F7200 X44.7 Y58.82
G1 F900 X58.82 Y44.7 E67.7922
G0 F7200 X58.82 Y44.135
G1 F900 X44.135 Y58.82 E67.87033
G0 F7200 X43.569 Y58.82
G1 F900 X58.82 Y43.569 E67.95147
G0 F7200 X58.82 Y43.003
G1 F900 X43.003 Y58.82 E68.03562
G0 F7200 X42.438 Y58.82
G1 F900 X58.82 Y42.438 E68.12278
G0 F7200 X58.82 Y41.872
G1 F900 X41.872 Y58.82 E68.21295
G0 F7200 X41.306 Y58.82
G1 F900 X58.82 Y41.306 E68.30613
G0 F7200 X58.381 Y41.18
G1 F900 X41.18 Y58.38 E68.39765
G0 F7200 X41.18 Y57.814
G1 F900 X57.815 Y41.18 E68.48615
G0 F7200 X57.249 Y41.18
G1 F900 X41.18 Y57.249 E68.57164
G0 F7200 X41.18 Y56.683
G1 F900 X56.684 Y41.18 E68.65413
G0 F7200 X56.118 Y41.18
G1 F900 X41.18 Y56.117 E68.7336
G0 F7200 X41.18 Y55.552
G1 F900 X55.552 Y41.18 E68.81007
G0 F7200 X54.987 Y41.18
G1 F900 X41.18 Y54.986 E68.88352
G0 F7200 X41.18 Y54.42
G1 F900 X54.421 Y41.18 E68.95397
G0 F7200 X53.855 Y41.18
G1 F900 X41.18 Y53.855 E69.02141
G0 F7200 X41.18 Y53.289
G1 F900 X53.29 Y41.18 E69.08583
G0 F7200 X52.724 Y41.18
G1 F900 X41.18 Y52.723 E69.14725
G0 F7200 X41.18 Y52.158
G1 F900 X52.158 Y41.18 E69.20566
G0 F7200 X51.593 Y41.18
G1 F900 X41.18 Y51.592 E69.26106
G0 F7200 X41.18 Y51.026
G1 F900 X51.027 Y41.18 E69.31344
G0 F7200 X50.461 Y41.18
G1 F900 X41.18 Y50.461 E69.36282
G0 F7200 X41.18 Y49.895
G1 F900 X49.896 Y41.18 E69.40919
G0 F7200 X49.33 Y41.18
G1 F900 X41.18 Y49.329 E69.45255
G0 F7200 X41.18 Y48.763
G1 F900 X48.764 Y41.18 E69.4929
G0 F7200 X48.199 Y41.18
G1 F900 X41.18 Y48.198 E69.53024
G0 F7200 X41.18 Y47.632
G1 F900 X47.633 Y41.18 E69.56457
G0 F7200 X47.067 Y41.18
G1 F900 X41.18 Y47.066 E69.59589
G0 F7200 X41.18 Y46.501
G1 F900 X46.501 Y41.18 E69.6242
G0 F7200 X45.936 Y41.18
G1 F900 X41.18 Y45.935 E69.6495
G0 F7200 X41.18 Y45.369
G1 F900 X45.37 Y41.18 E69.67179
G0 F7200 X44.804 Y41.18
G1 F900 X41.18 Y44.804 E69.69107
G0 F7200 X41.18 Y44.238
G1 F900 X44.239 Y41.18 E69.70735
G0 F7200 X43.673 Y41.18
G1 F900 X41.18 Y43.672 E69.72061
G0 F7200 X41.18 Y43.107
G1 F900 X43.107 Y41.18 E69.73086
G0 F7200 X42.542 Y41.18
G1 F900 X41.18 Y42.541 E69.7381
G0 F7200 X41.18 Y41.975
G1 F900 X41.976 Y41.18 E69.74233
G0 F7200 X41.41 Y41.18
G1 F900 X41.18 Y41.41 E69.74356
G0 F7200 X41.21 Y41.41
;MESH:NONMESH
G0 F600 X41.21 Y41.41 Z0.54
G0 F7200 X59.12 Y59.12
G0 X59.4 Y59.4
;TIME_ELAPSED:325.230813
;LAYER:4
;TYPE:WALL-INNER
;MESH:20mm cube.stl
G1 F3600 X59.4 Y40.6 E69.81429
G1 X40.6 Y40.6 E69.88501
G1 X40.6 Y59.4 E69.95574
G1 X59.4 Y59.4 E70.02647
G0 F7200 X59.8 Y59.8
;TYPE:WALL-OUTER
G1 F1800 X59.8 Y40.2 E70.10021
G1 X40.2 Y40.2 E70.17394
G1 X40.2 Y59.8 E70.24768
G1 X59.8 Y59.8 E70.32142
G0 F7200 X59.8 Y59.6
G0 X59.02 Y59.02
;TYPE:SKIN
G1 F900 X40.98 Y59.02 E70.38929
G1 X40.98 Y40.98 E70.45716
G1 X59.02 Y40.98 E70.52502
G1 X59.02 Y59.02 E70.59289
G0 F7200 X58.717 Y41.18
G1 F900 X58.82 Y41.284 E70.59344
G0 F7200 X58.82 Y41.849
G1 F900 X58.151 Y41.18 E70.597
G0 F7200 X57.585 Y41.18
G1 F900 X58.82 Y42.415 E70.60357
G0 F7200 X58.82 Y42.981
G1 F900 X57.02 Y41.18 E70.61315
G0 F7200 X56.454 Y41.18
G1 F900 X58.82 Y43.546 E70.62574
G0 F7200 X58.82 Y44.112
G1 F900 X55.888 Y41.18 E70.64134
G0 F7200 X55.323 Y41.18
G1 F900 X58.82 Y44.678 E70.65995
G0 F7200 X58.82 Y45.244
G1 F900 X54.757 Y41.18 E70.68157
G0 F7200 X54.191 Y41.18
G1 F900 X58.82 Y45.809 E70.7062
G0 F7200 X58.82 Y46.375
G1 F900 X53.626 Y41.18 E70.73383
G0 F7200 X53.06 Y41.18
G1 F900 X58.82 Y46.941 E70.76448
G0 F7200 X58.82 Y47.506
G1 F900 X52.494 Y41.18 E70.79814
G0 F7200 X51.929 Y41.18
G1 F900 X58.82 Y48.072 E70.8348
G0 F7200 X58.82 Y48.638
G1 F900 X51.363 Y41.18 E70.87448
G0 F7200 X50.797 Y41.18
G1 F900 X58.82 Y49.203 E70.91717
G0 F7200 X58.82 Y49.769
G1 F900 X50.231 Y41.18 E70.96286
G0 F7200 X49.666 Y41.18
G1 F900 X58.82 Y50.335 E71.01157
G0 F7200 X58.82 Y50.9
G1 F900 X49.1 Y41.18 E71.06329
G0 F7200 X48.534 Y41.18
G1 F900 X58.82 Y51.466 E71.11801
G0 F7200 X58.82 Y52.032
G1 F900 X47.969 Y41.18 E71.17575
G0 F7200 X47.403 Y41.18
G1 F900 X58.82 Y52.597 E71.23649
G0 F7200 X58.82 Y53.163
G1 F900 X46.837 Y41.18 E71.30024
G0 F7200 X46.272 Y41.18
G1 F900 X58.82 Y53.729 E71.36701
G0 F7200 X58.82 Y54.294
G1 F900 X45.706 Y41.18 E71.43678
G0 F7200 X45.14 Y41.18
G1 F900 X58.82 Y54.86 E71.50956
G0 F7200 X58.82 Y55.426
G1 F900 X44.575 Y41.18 E71.58536
G0 F7200 X44.009 Y41.18
G1 F900 X58.82 Y55.992 E71.66416
G0 F7200 X58.82 Y56.557
G1 F900 X43.443 Y41.18 E71.74597
G0 F7200 X42.878 Y41.18
G1 F900 X58.82 Y57.123 E71.83079
G0 F7200 X58.82 Y57.689
G1 F900 X42.312 Y41.18 E71.91862
G0 F7200 X41.746 Y41.18
G1 F900 X58.82 Y58.254 E72.00947
G0 F7200 X58.82 Y58.82
G1 F900 X41.18 Y41.18 E72.10332
G0 F7200 X41.18 Y41.745
G1 F900 X58.254 Y58.82 E72.19416
G0 F7200 X57.689 Y58.82
G1 F900 X41.18 Y42.311 E72.282
G0 F7200 X41.18 Y42.877
G1 F900 X57.123 Y58.82 E72.36682
G0 F7200 X56.557 Y58.82
G1 F900 X41.18 Y43.443 E72.44863
G0 F7200 X41.18 Y44.008
G1 F900 X55.992 Y58.82 E72.52744
G0 F7200 X55.426 Y58.82
G1 F900 X41.18 Y44.574 E72.60323
G0 F7200 X41.18 Y45.14
G1 F900 X54.86 Y58.82 E72.67602
G0 F7200 X54.294 Y58.82
G1 F900 X41.18 Y45.705 E72.74579
G0 F7200 X41.18 Y46.271
G1 F900 X53.729 Y58.82 E72.81256
G0 F7200 X53.163 Y58.82
G1 F900 X41.18 Y46.837 E72.87631
G0 F7200 X41.18 Y47.402
G1 F900 X52.597 Y58.82 E72.93706
G0 F7200 X52.032 Y58.82
G1 F900 X41.18 Y47.968 E72.9948
G0 F7200 X41.18 Y48.534
G1 F900 X51.466 Y58.82 E73.04952
G0 F7200 X50.9 Y58.82
G1 F900 X41.18 Y49.099 E73.10124
G0 F7200 X41.18 Y49.665
G1 F900 X50.335 Y58.82 E73.14995
G0 F7200 X49.769 Y58.82
G1 F900 X41.18 Y50.231 E73.19564
G0 F7200 X41.18 Y50.796
G1 F900 X49.203 Y58.82 E73.23833
G0 F7200 X48.638 Y58.82
G1 F900 X41.18 Y51.362 E73.27801
G0 F7200 X41.18 Y51.928
G1 F900 X48.072 Y58.82 E73.31468
G0 F7200 X47.506 Y58.82
G1 F900 X41.18 Y52.493 E73.34834
G0 F7200 X41.18 Y53.059
G1 F900 X46.941 Y58.82 E73.37899
G0 F7200 X46.375 Y58.82
G1 F900 X41.18 Y53.625 E73.40663
G0 F7200 X41.18 Y54.191
G1 F900 X45.809 Y58.82 E73.43126
G0 F7200 X45.244 Y58.82
G1 F900 X41.18 Y54.756 E73.45288
G0 F7200 X41.18 Y55.322
G1 F900 X44.678 Y58.82 E73.47149
G0 F7200 X44.112 Y58.82
G1 F900 X41.18 Y55.888 E73.48709
G0 F7200 X41.18 Y56.453
G1 F900 X43.546 Y58.82 E73.49968
G0 F7200 X42.981 Y58.82
G1 F900 X41.18 Y57.019 E73.50926
G0 F7200 X41.18 Y57.585
G1 F900 X42.415 Y58.82 E73.51584
G0 F7200 X41.849 Y58.82
G1 F900 X41.18 Y58.15 E73.5194
G0 F7200 X41.18 Y58.716
G1 F900 X41.284 Y58.82 E73.51995
G0 F7200 X41.284 Y58.79
;MESH:NONMESH
G0 F600 X41.284 Y58.79 Z0.6
G0 F7200 X59.12 Y59.12
G0 X59.4 Y59.4
;TIME_ELAPSED:387.591550
;LAYER:5
;TYPE:WALL-INNER
;MESH:20mm cube.stl
G1 F3600 X59.4 Y40.6 E73.59068
G1 X40.6 Y40.6 E73.66141
G1 X40.6 Y59.4 E73.73213
G1 X59.4 Y59.4 E73.80286
G0 F7200 X59.8 Y59.8
;TYPE:WALL-OUTER
G1 F1800 X59.8 Y40.2 E73.8766
G1 X40.2 Y40.2 E73.95034
G1 X40.2 Y59.8 E74.02407
G1 X59.8 Y59.8 E74.09781
G0 F7200 X59.8 Y59.6
G0 X59.02 Y59.02
;TYPE:SKIN
G1 F900 X40.98 Y59.02 E74.16568
G1 X40.98 Y40.98 E74.23355
G1 X59.02 Y40.98 E74.30142
G1 X59.02 Y59.02 E74.36929
G0 F7200 X58.277 Y58.82
G1 F900 X58.82 Y58.277 E74.37217
G0 F7200 X58.82 Y57.711
G1 F900 X57.711 Y58.82 E74.37807
G0 F7200 X57.146 Y58.82
G1 F900 X58.82 Y57.146 E74.38698
G0 F7200 X58.82 Y56.58
G1 F900 X56.58 Y58.82 E74.3989
G0 F7200 X56.014 Y58.82
G1 F900 X58.82 Y56.014 E74.41383
G0 F7200 X58.82 Y55.448
G1 F900 X55.448 Y58.82 E74.43177
G0 F7200 X54.883 Y58.82
G1 F900 X58.82 Y54.883 E74.45271
G0 F7200 X58.82 Y54.317
G1 F900 X54.317 Y58.82 E74.47667
G0 F7200 X53.751 Y58.82
G1 F900 X58.82 Y53.751 E74.50364
G0 F7200 X58.82 Y53.186
G1 F900 X53.186 Y58.82 E74.53362
G0 F7200 X52.62 Y58.82
G1 F900 X58.82 Y52.62 E74.5666
G0 F7200 X58.82 Y52.054
G1 F900 X52.054 Y58.82 E74.6026
G0 F7200 X51.489 Y58.82
G1 F900 X58.82 Y51.489 E74.64161
G0 F7200 X58.82 Y50.923
G1 F900 X50.923 Y58.82 E74.68362
G0 F7200 X50.357 Y58.82
G1 F900 X58.82 Y50.357 E74.72865
G0 F7200 X58.82 Y49.792
G1 F900 X49.792 Y58.82 E74.77668
G0 F7200 X49.226 Y58.82
G1 F900 X58.82 Y49.226 E74.82773
G0 F7200 X58.82 Y48.66
G1 F900 X48.66 Y58.82 E74.88178
G0 F7200 X48.095 Y58.82
G1 F900 X58.82 Y48.095 E74.93884
G0 F7200 X58.82 Y47.529
G1 F900 X47.529 Y58.82 E74.99892
G0 F7200 X46.963 Y58.82
G1 F900 X58.82 Y46.963 E75.062
G0 F7200 X58.82 Y46.398
G1 F900 X46.398 Y58.82 E75.12809
G0 F7200 X45.832 Y58.82
G1 F900 X58.82 Y45.832 E75.19719
G0 F7200 X58.82 Y45.266
G1 F900 X45.266 Y58.82 E75.2693
G0 F7200 X44.7 Y58.82
G1 F900 X58.82 Y44.7 E75.34443
G0 F7200 X58.82 Y44.135
G1 F900 X44.135 Y58.82 E75.42256
G0 F7200 X43.569 Y58.82
G1 F900 X58.82 Y43.569 E75.5037
G0 F7200 X58.82 Y43.003
G1 F900 X43.003 Y58.82 E75.58785
G0 F7200 X42.438 Y58.82
G1 F900 X58.82 Y42.438 E75.67501
G0 F7200 X58.82 Y41.872
G1 F900 X41.872 Y58.82 E75.76518
G0 F7200 X41.306 Y58.82
G1 F900 X58.82 Y41.306 E75.85837
G0 F7200 X58.381 Y41.18
G1 F900 X41.18 Y58.38 E75.94988
G0 F7200 X41.18 Y57.814
G1 F900 X57.815 Y41.18 E76.03838
G0 F7200 X57.249 Y41.18
G1 F900 X41.18 Y57.249 E76.12388
G0 F7200 X41.18 Y56.683
G1 F900 X56.684 Y41.18 E76.20636
G0 F7200 X56.118 Y41.18
G1 F900 X41.18 Y56.117 E76.28584
G0 F7200 X41.18 Y55.552
G1 F900 X55.552 Y41.18 E76.3623
G0 F7200 X54.987 Y41.18
G1 F900 X41.18 Y54.986 E76.43576
G0 F7200 X41.18 Y54.42
G1 F900 X54.421 Y41.18 E76.5062
G0 F7200 X53.855 Y41.18
G1 F900 X41.18 Y53.855 E76.57364
G0 F7200 X41.18 Y53.289
G1 F900 X53.29 Y41.18 E76.63807
G0 F7200 X52.724 Y41.18
G1 F900 X41.18 Y52.723 E76.69948
G0 F7200 X41.18 Y52.158
G1 F900 X52.158 Y41.18 E76.75789
G0 F7200 X51.593 Y41.18
G1 F900 X41.18 Y51.592 E76.81329
G0 F7200 X41.18 Y51.026
G1 F900 X51.027 Y41.18 E76.86568
G0 F7200 X50.461 Y41.18
G1 F900 X41.18 Y50.461 E76.91506
G0 F7200 X41.18 Y49.895
G1 F900 X49.896 Y41.18 E76.96143
G0 F7200 X49.33 Y41.18
G1 F900 X41.18 Y49.329 E77.00479
G0 F7200 X41.18 Y48.763
G1 F900 X48.764 Y41.18 E77.04513
G0 F7200 X48.199 Y41.18
G1 F900 X41.18 Y48.198 E77.08247
G0 F7200 X41.18 Y47.632
G1 F900 X47.633 Y41.18 E77.11681
G0 F7200 X47.067 Y41.18
G1 F900 X41.18 Y47.066 E77.14812
G0 F7200 X41.18 Y46.501
G1 F900 X46.501 Y41.18 E77.17643
G0 F7200 X45.936 Y41.18
G1 F900 X41.18 Y45.935 E77.20174
G0 F7200 X41.18 Y45.369
G1 F900 X45.37 Y41.18 E77.22402
G0 F7200 X44.804 Y41.18
G1 F900 X41.18 Y44.804 E77.24331
G0 F7200 X41.18 Y44.238
G1 F900 X44.239 Y41.18 E77.25958
G0 F7200 X43.673 Y41.18
G1 F900 X41.18 Y43.672 E77.27284
G0 F7200 X41.18 Y43.107
G1 F900 X43.107 Y41.18 E77.28309
G0 F7200 X42.542 Y41.18
G1 F900 X41.18 Y42.541 E77.29034
G0 F7200 X41.18 Y41.975
G1 F900 X41.976 Y41.18 E77.29457
G0 F7200 X41.41 Y41.18
G1 F900 X41.18 Y41.41 E77.29579
G0 F7200 X41.21 Y41.41
;MESH:NONMESH
G0 F600 X41.21 Y41.41 Z0.66
G0 F7200 X59.12 Y59.12
G0 X59.4 Y59.4
;TIME_ELAPSED:449.823272
;LAYER:6
;TYPE:WALL-INNER
;MESH:20mm cube.stl
G1 F3600 X59.4 Y40.6 E77.36652
G1 X40.6 Y40.6 E77.43725
G1 X40.6 Y59.4 E77.50798
G1 X59.4 Y59.4 E77.5787
G0 F7200 X59.8 Y59.8
;TYPE:WALL-OUTER
G1 F1800 X59.8 Y40.2 E77.65244
G1 X40.2 Y40.2 E77.72618
G1 X40.2 Y59.8 E77.79992
G1 X59.8 Y59.8 E77.87365
G0 F7200 X59.8 Y59.6
G0 X59.02 Y59.02
;TYPE:SKIN
G1 F900 X40.98 Y59.02 E77.94152
G1 X40.98 Y40.98 E78.00939
G1 X59.02 Y40.98 E78.07726
G1 X59.02 Y59.02 E78.14513
G0 F7200 X58.717 Y41.18
G1 F900 X58.82 Y41.284 E78.14568
G0 F7200 X58.82 Y41.849
G1 F900 X58.151 Y41.18 E78.14924
G0 F7200 X57.585 Y41.18
G1 F900 X58.82 Y42.415 E78.15581
G0 F7200 X58.82 Y42.981
G1 F900 X57.02 Y41.18 E78.16539
G0 F7200 X56.454 Y41.18
G1 F900 X58.82 Y43.546 E78.17797
G0 F7200 X58.82 Y44.112
G1 F900 X55.888 Y41.18 E78.19357
G0 F7200 X55.323 Y41.18
G1 F900 X58.82 Y44.678 E78.21218
G0 F7200 X58.82 Y45.244
G1 F900 X54.757 Y41.18 E78.2338
G0 F7200 X54.191 Y41.18
G1 F900 X58.82 Y45.809 E78.25843
G0 F7200 X58.82 Y46.375
G1 F900 X53.626 Y41.18 E78.28607
G0 F7200 X53.06 Y41.18
G1 F900 X58.82 Y46.941 E78.31672
G0 F7200 X58.82 Y47.506
G1 F900 X52.494 Y41.18 E78.35037
G0 F7200 X51.929 Y41.18
G1 F900 X58.82 Y48.072 E78.38704
G0 F7200 X58.82 Y48.638
G1 F900 X51.363 Y41.18 E78.42672
G0 F7200 X50.797 Y41.18
G1 F900 X58.82 Y49.203 E78.4694
G0 F7200 X58.82 Y49.769
G1 F900 X50.231 Y41.18 E78.5151
G0 F7200 X49.666 Y41.18
G1 F900 X58.82 Y50.335 E78.5638
G0 F7200 X58.82 Y50.9
G1 F900 X49.1 Y41.18 E78.61552
G0 F7200 X48.534 Y41.18
G1 F900 X58.82 Y51.466 E78.67024
G0 F7200 X58.82 Y52.032
G1 F900 X47.969 Y41.18 E78.72798
G0 F7200 X47.403 Y41.18
G1 F900 X58.82 Y52.597 E78.78872
G0 F7200 X58.82 Y53.163
G1 F900 X46.837 Y41.18 E78.85248
G0 F7200 X46.272 Y41.18
G1 F900 X58.82 Y53.729 E78.91924
G0 F7200 X58.82 Y54.294
G1 F900 X45.706 Y41.18 E78.98901
G0 F7200 X45.14 Y41.18
G1 F900 X58.82 Y54.86 E79.0618
G0 F7200 X58.82 Y55.426
G1 F900 X44.575 Y41.18 E79.13759
G0 F7200 X44.009 Y41.18
G1 F900 X58.82 Y55.992 E79.21639
G0 F7200 X58.82 Y56.557
G1 F900 X43.443 Y41.18 E79.2982
G0 F7200 X42.878 Y41.18
G1 F900 X58.82 Y57.123 E79.38303
G0 F7200 X58.82 Y57.689
G1 F900 X42.312 Y41.18 E79.47086
G0 F7200 X41.746 Y41.18
G1 F900 X58.82 Y58.254 E79.5617
G0 F7200 X58.82 Y58.82
G1 F900 X41.18 Y41.18 E79.65555
G0 F7200 X41.18 Y41.745
G1 F900 X58.254 Y58.82 E79.74639
G0 F7200 X57.689 Y58.82
G1 F900 X41.18 Y42.311 E79.83423
G0 F7200 X41.18 Y42.877
G1 F900 X57.123 Y58.82 E79.91905
G0 F7200 X56.557 Y58.82
G1 F900 X41.18 Y43.443 E80.00087
G0 F7200 X41.18 Y44.008
G1 F900 X55.992 Y58.82 E80.07967
G0 F7200 X55.426 Y58.82
G1 F900 X41.18 Y44.574 E80.15547
G0 F7200 X41.18 Y45.14
G1 F900 X54.86 Y58.82 E80.22825
G0 F7200 X54.294 Y58.82
G1 F900 X41.18 Y45.705 E80.29802
G0 F7200 X41.18 Y46.271
G1 F900 X53.729 Y58.82 E80.36479
G0 F7200 X53.163 Y58.82
G1 F900 X41.18 Y46.837 E80.42855
G0 F7200 X41.18 Y47.402
G1 F900 X52.597 Y58.82 E80.48929
G0 F7200 X52.032 Y58.82
G1 F900 X41.18 Y47.968 E80.54703
G0 F7200 X41.18 Y48.534
G1 F900 X51.466 Y58.82 E80.60175
G0 F7200 X50.9 Y58.82
G1 F900 X41.18 Y49.099 E80.65347
G0 F7200 X41.18 Y49.665
G1 F900 X50.335 Y58.82 E80.70218
G0 F7200 X49.769 Y58.82
G1 F900 X41.18 Y50.231 E80.74788
G0 F7200 X41.18 Y50.796
G1 F900 X49.203 Y58.82 E80.79057
G0 F7200 X48.638 Y58.82
G1 F900 X41.18 Y51.362 E80.83025
G0 F7200 X41.18 Y51.928
G1 F900 X48.072 Y58.82 E80.86691
G0 F7200 X47.506 Y58.82
G1 F900 X41.18 Y52.493 E80.90057
G0 F7200 X41.18 Y53.059
G1 F900 X46.941 Y58.82 E80.93122
G0 F7200 X46.375 Y58.82
G1 F900 X41.18 Y53.625 E80.95886
G0 F7200 X41.18 Y54.191
G1 F900 X45.809 Y58.82 E80.98349
G0 F7200 X45.244 Y58.82
G1 F900 X41.18 Y54.756 E81.00512
G0 F7200 X41.18 Y55.322
G1 F900 X44.678 Y58.82 E81.02373
G0 F7200 X44.112 Y58.82
G1 F900 X41.18 Y55.888 E81.03933
G0 F7200 X41.18 Y56.453
G1 F900 X43.546 Y58.82 E81.05192
G0 F7200 X42.981 Y58.82
G1 F900 X41.18 Y57.019 E81.0615
G0 F7200 X41.18 Y57.585
G1 F900 X42.415 Y58.82 E81.06807
G0 F7200 X41.849 Y58.82
G1 F900 X41.18 Y58.15 E81.07163
G0 F7200 X41.18 Y58.716
G1 F900 X41.284 Y58.82 E81.07218
G0 F7200 X41.284 Y58.79
;MESH:NONMESH
G0 F600 X41.284 Y58.79 Z0.72
G0 F7200 X59.12 Y59.12
G0 X59.4 Y59.4
;TIME_ELAPSED:512.184009
;LAYER:7
;TYPE:WALL-INNER
;MESH:20mm cube.stl
G1 F3600 X59.4 Y40.6 E81.14291
G1 X40.6 Y40.6 E81.21364
G1 X40.6 Y59.4 E81.28437
G1 X59.4 Y59.4 E81.3551
G0 F7200 X59.8 Y59.8
;TYPE:WALL-OUTER
G1 F1800 X59.8 Y40.2 E81.42883
G1 X40.2 Y40.2 E81.50257
G1 X40.2 Y59.8 E81.57631
G1 X59.8 Y59.8 E81.65004
G0 F7200 X59.8 Y59.6
G0 X59.02 Y59.02
;TYPE:SKIN
G1 F900 X40.98 Y59.02 E81.71791
G1 X40.98 Y40.98 E81.78578
G1 X59.02 Y40.98 E81.85365
G1 X59.02 Y59.02 E81.92152
G0 F7200 X58.277 Y58.82
G1 F900 X58.82 Y58.277 E81.92441
G0 F7200 X58.82 Y57.711
G1 F900 X57.711 Y58.82 E81.93031
G0 F7200 X57.146 Y58.82
G1 F900 X58.82 Y57.146 E81.93921
G0 F7200 X58.82 Y56.58
G1 F900 X56.58 Y58.82 E81.95113
G0 F7200 X56.014 Y58.82
G1 F900 X58.82 Y56.014 E81.96606
G0 F7200 X58.82 Y55.448
G1 F900 X55.448 Y58.82 E81.984
G0 F7200 X54.883 Y58.82
G1 F900 X58.82 Y54.883 E82.00495
G0 F7200 X58.82 Y54.317
G1 F900 X54.317 Y58.82 E82.02891
G0 F7200 X53.751 Y58.82
G1 F900 X58.82 Y53.751 E82.05588
G0 F7200 X58.82 Y53.186
G1 F900 X53.186 Y58.82 E82.08585
G0 F7200 X52.62 Y58.82
G1 F900 X58.82 Y52.62 E82.11884
G0 F7200 X58.82 Y52.054
G1 F900 X52.054 Y58.82 E82.15484
G0 F7200 X51.489 Y58.82
G1 F900 X58.82 Y51.489 E82.19384
G0 F7200 X58.82 Y50.923
G1 F900 X50.923 Y58.82 E82.23585
G0 F7200 X50.357 Y58.82
G1 F900 X58.82 Y50.357 E82.28088
G0 F7200 X58.82 Y49.792
G1 F900 X49.792 Y58.82 E82.32891
G0 F7200 X49.226 Y58.82
G1 F900 X58.82 Y49.226 E82.37996
G0 F7200 X58.82 Y48.66
G1 F900 X48.66 Y58.82 E82.43401
G0 F7200 X48.095 Y58.82
G1 F900 X58.82 Y48.095 E82.49108
G0 F7200 X58.82 Y47.529
G1 F900 X47.529 Y58.82 E82.55115
G0 F7200 X46.963 Y58.82
G1 F900 X58.82 Y46.963 E82.61423
G0 F7200 X58.82 Y46.398
G1 F900 X46.398 Y58.82 E82.68032
G0 F7200 X45.832 Y58.82
G1 F900 X58.82 Y45.832 E82.74943
G0 F7200 X58.82 Y45.266
G1 F900 X45.266 Y58.82 E82.82154
G0 F7200 X44.7 Y58.82
G1 F900 X58.82 Y44.7 E82.89666
G0 F7200 X58.82 Y44.135
G1 F900 X44.135 Y58.82 E82.97479
G0 F7200 X43.569 Y58.82
G1 F900 X58.82 Y43.569 E83.05594
G0 F7200 X58.82 Y43.003
G1 F900 X43.003 Y58.82 E83.14009
G0 F7200 X42.438 Y58.82
G1 F900 X58.82 Y42.438 E83.22725
G0 F7200 X58.82 Y41.872
G1 F900 X41.872 Y58.82 E83.31742
G0 F7200 X41.306 Y58.82
G1 F900 X58.82 Y41.306 E83.4106
G0 F7200 X58.381 Y41.18
G1 F900 X41.18 Y58.38 E83.50211
G0 F7200 X41.18 Y57.814
G1 F900 X57.815 Y41.18 E83.59062
G0 F7200 X57.249 Y41.18
G1 F900 X41.18 Y57.249 E83.67611
G0 F7200 X41.18 Y56.683
G1 F900 X56.684 Y41.18 E83.7586
G0 F7200 X56.118 Y41.18
G1 F900 X41.18 Y56.117 E83.83807
G0 F7200 X41.18 Y55.552
G1 F900 X55.552 Y41.18 E83.91454
G0 F7200 X54.987 Y41.18
G1 F900 X41.18 Y54.986 E83.98799
G0 F7200 X41.18 Y54.42
G1 F900 X54.421 Y41.18 E84.05844
G0 F7200 X53.855 Y41.18
G1 F900 X41.18 Y53.855 E84.12587
G0 F7200 X41.18 Y53.289
G1 F900 X53.29 Y41.18 E84.1903
G0 F7200 X52.724 Y41.18
G1 F900 X41.18 Y52.723 E84.25172
G0 F7200 X41.18 Y52.158
G1 F900 X52.158 Y41.18 E84.31013
G0 F7200 X51.593 Y41.18
G1 F900 X41.18 Y51.592 E84.36552
G0 F7200 X41.18 Y51.026
G1 F900 X51.027 Y41.18 E84.41791
G0 F7200 X50.461 Y41.18
G1 F900 X41.18 Y50.461 E84.46729
G0 F7200 X41.18 Y49.895
G1 F900 X49.896 Y41.18 E84.51366
G0 F7200 X49.33 Y41.18
G1 F900 X41.18 Y49.329 E84.55702
G0 F7200 X41.18 Y48.763
G1 F900 X48.764 Y41.18 E84.59737
G0 F7200 X48.199 Y41.18
G1 F900 X41.18 Y48.198 E84.63471
G0 F7200 X41.18 Y47.632
G1 F900 X47.633 Y41.18 E84.66904
G0 F7200 X47.067 Y41.18
G1 F900 X41.18 Y47.066 E84.70036
G0 F7200 X41.18 Y46.501
G1 F900 X46.501 Y41.18 E84.72867
G0 F7200 X45.936 Y41.18
G1 F900 X41.18 Y45.935 E84.75397
G0 F7200 X41.18 Y45.369
G1 F900 X45.37 Y41.18 E84.77626
G0 F7200 X44.804 Y41.18
G1 F900 X41.18 Y44.804 E84.79554
G0 F7200 X41.18 Y44.238
G1 F900 X44.239 Y41.18 E84.81181
G0 F7200 X43.673 Y41.18
G1 F900 X41.18 Y43.672 E84.82507
G0 F7200 X41.18 Y43.107
G1 F900 X43.107 Y41.18 E84.83533
G0 F7200 X42.542 Y41.18
G1 F900 X41.18 Y42.541 E84.84257
G0 F7200 X41.18 Y41.975
G1 F900 X41.976 Y41.18 E84.8468
G0 F7200 X41.41 Y41.18
G1 F900 X41.18 Y41.41 E84.84803
G0 F7200 X41.21 Y41.41
;MESH:NONMESH
G0 F600 X41.21 Y41.41 Z0.78
G0 F7200 X59.12 Y59.12
G0 X59.4 Y59.4
;TIME_ELAPSED:574.415731
;LAYER:8
;TYPE:WALL-INNER
;MESH:20mm cube.stl
G1 F3600 X59.4 Y40.6 E84.91875
G1 X40.6 Y40.6 E84.98948
G1 X40.6 Y59.4 E85.06021
G1 X59.4 Y59.4 E85.13094
G0 F7200 X59.8 Y59.8
;TYPE:WALL-OUTER
G1 F1800 X59.8 Y40.2 E85.20467
G1 X40.2 Y40.2 E85.27841
G1 X40.2 Y59.8 E85.35215
G1 X59.8 Y59.8 E85.42589
G0 F7200 X59.8 Y59.6
G0 X59.02 Y59.02
;TYPE:SKIN
G1 F900 X40.98 Y59.02 E85.49375
G1 X40.98 Y40.98 E85.56162
G1 X59.02 Y40.98 E85.62949
G1 X59.02 Y59.02 E85.69736
G0 F7200 X58.717 Y41.18
G1 F900 X58.82 Y41.284 E85.69791
G0 F7200 X58.82 Y41.849
G1 F900 X58.151 Y41.18 E85.70147
G0 F7200 X57.585 Y41.18
G1 F900 X58.82 Y42.415 E85.70804
G0 F7200 X58.82 Y42.981
G1 F900 X57.02 Y41.18 E85.71762
G0 F7200 X56.454 Y41.18
G1 F900 X58.82 Y43.546 E85.73021
G0 F7200 X58.82 Y44.112
G1 F900 X55.888 Y41.18 E85.74581
G0 F7200 X55.323 Y41.18
G1 F900 X58.82 Y44.678 E85.76442
G0 F7200 X58.82 Y45.244
G1 F900 X54.757 Y41.18 E85.78604
G0 F7200 X54.191 Y41.18
G1 F900 X58.82 Y45.809 E85.81066
G0 F7200 X58.82 Y46.375
G1 F900 X53.626 Y41.18 E85.8383
G0 F7200 X53.06 Y41.18
G1 F900 X58.82 Y46.941 E85.86895
G0 F7200 X58.82 Y47.506
G1 F900 X52.494 Y41.18 E85.90261
G0 F7200 X51.929 Y41.18
G1 F900 X58.82 Y48.072 E85.93927
G0 F7200 X58.82 Y48.638
G1 F900 X51.363 Y41.18 E85.97895
G0 F7200 X50.797 Y41.18
G1 F900 X58.82 Y49.203 E86.02163
G0 F7200 X58.82 Y49.769
G1 F900 X50.231 Y41.18 E86.06733
G0 F7200 X49.666 Y41.18
G1 F900 X58.82 Y50.335 E86.11604
G0 F7200 X58.82 Y50.9
G1 F900 X49.1 Y41.18 E86.16775
G0 F7200 X48.534 Y41.18
G1 F900 X58.82 Y51.466 E86.22248
G0 F7200 X58.82 Y52.032
G1 F900 X47.969 Y41.18 E86.28021
G0 F7200 X47.403 Y41.18
G1 F900 X58.82 Y52.597 E86.34096
G0 F7200 X58.82 Y53.163
G1 F900 X46.837 Y41.18 E86.40471
G0 F7200 X46.272 Y41.18
G1 F900 X58.82 Y53.729 E86.47147
G0 F7200 X58.82 Y54.294
G1 F900 X45.706 Y41.18 E86.54125
G0 F7200 X45.14 Y41.18
G1 F900 X58.82 Y54.86 E86.61403
G0 F7200 X58.82 Y55.426
G1 F900 X44.575 Y41.18 E86.68982
G0 F7200 X44.009 Y41.18
G1 F900 X58.82 Y55.992 E86.76863
G0 F7200 X58.82 Y56.557
G1 F900 X43.443 Y41.18 E86.85044
G0 F7200 X42.878 Y41.18
G1 F900 X58.82 Y57.123 E86.93526
G0 F7200 X58.82 Y57.689
G1 F900 X42.312 Y41.18 E87.02309
G0 F7200 X41.746 Y41.18
G1 F900 X58.82 Y58.254 E87.11393
G0 F7200 X58.82 Y58.82
G1 F900 X41.18 Y41.18 E87.20778
G0 F7200 X41.18 Y41.745
G1 F900 X58.254 Y58.82 E87.29863
G0 F7200 X57.689 Y58.82
G1 F900 X41.18 Y42.311 E87.38646
G0 F7200 X41.18 Y42.877
G1 F900 X57.123 Y58.82 E87.47129
G0 F7200 X56.557 Y58.82
G1 F900 X41.18 Y43.443 E87.5531
G0 F7200 X41.18 Y44.008
G1 F900 X55.992 Y58.82 E87.63191
G0 F7200 X55.426 Y58.82
G1 F900 X41.18 Y44.574 E87.7077
G0 F7200 X41.18 Y45.14
G1 F900 X54.86 Y58.82 E87.78048
G0 F7200 X54.294 Y58.82
G1 F900 X41.18 Y45.705 E87.85026
G0 F7200 X41.18 Y46.271
G1 F900 X53.729 Y58.82 E87.91702
G0 F7200 X53.163 Y58.82
G1 F900 X41.18 Y46.837 E87.98078
G0 F7200 X41.18 Y47.402
G1 F900 X52.597 Y58.82 E88.04153
G0 F7200 X52.032 Y58.82
G1 F900 X41.18 Y47.968 E88.09926
G0 F7200 X41.18 Y48.534
G1 F900 X51.466 Y58.82 E88.15399
G0 F7200 X50.9 Y58.82
G1 F900 X41.18 Y49.099 E88.20571
G0 F7200 X41.18 Y49.665
G1 F900 X50.335 Y58.82 E88.25441
G0 F7200 X49.769 Y58.82
G1 F900 X41.18 Y50.231 E88.30011
G0 F7200 X41.18 Y50.796
G1 F900 X49.203 Y58.82 E88.3428
G0 F7200 X48.638 Y58.82
G1 F900 X41.18 Y51.362 E88.38248
G0 F7200 X41.18 Y51.928
G1 F900 X48.072 Y58.82 E88.41915
G0 F7200 X47.506 Y58.82
G1 F900 X41.18 Y52.493 E88.45281
G0 F7200 X41.18 Y53.059
G1 F900 X46.941 Y58.82 E88.48346
G0 F7200 X46.375 Y58.82
G1 F900 X41.18 Y53.625 E88.5111
G0 F7200 X41.18 Y54.191
G1 F900 X45.809 Y58.82 E88.53573
G0 F7200 X45.244 Y58.82
G1 F900 X41.18 Y54.756 E88.55735
G0 F7200 X41.18 Y55.322
G1 F900 X44.678 Y58.82 E88.57596
G0 F7200 X44.112 Y58.82
G1 F900 X41.18 Y55.888 E88.59156
G0 F7200 X41.18 Y56.453
G1 F900 X43.546 Y58.82 E88.60415
G0 F7200 X42.981 Y58.82
G1 F900 X41.18 Y57.019 E88.61373
G0 F7200 X41.18 Y57.585
G1 F900 X42.415 Y58.82 E88.6203
G0 F7200 X41.849 Y58.82
G1 F900 X41.18 Y58.15 E88.62386
G0 F7200 X41.18 Y58.716
G1 F900 X41.284 Y58.82 E88.62442
G0 F7200 X41.284 Y58.79
;MESH:NONMESH
G0 F600 X41.284 Y58.79 Z0.84
G0 F7200 X59.12 Y59.12
G0 X59.4 Y59.4
;TIME_ELAPSED:636.776468
;LAYER:9
;TYPE:WALL-INNER
;MESH:20mm cube.stl
G1 F3600 X59.4 Y40.6 E88.69515
G1 X40.6 Y40.6 E88.76587
G1 X40.6 Y59.4 E88.8366
G1 X59.4 Y59.4 E88.90733
G0 F7200 X59.8 Y59.8
;TYPE:WALL-OUTER
G1 F1800 X59.8 Y40.2 E88.98107
G1 X40.2 Y40.2 E89.0548
G1 X40.2 Y59.8 E89.12854
G1 X59.8 Y59.8 E89.20228
G0 F7200 X59.8 Y59.6
G0 X59.02 Y59.02
;TYPE:SKIN
G1 F900 X40.98 Y59.02 E89.27015
G1 X40.98 Y40.98 E89.33802
G1 X59.02 Y40.98 E89.40588
G1 X59.02 Y59.02 E89.47375
G0 F7200 X58.277 Y58.82
G1 F900 X58.82 Y58.277 E89.47664
G0 F7200 X58.82 Y57.711
G1 F900 X57.711 Y58.82 E89.48254
G0 F7200 X57.146 Y58.82
G1 F900 X58.82 Y57.146 E89.49145
G0 F7200 X58.82 Y56.58
G1 F900 X56.58 Y58.82 E89.50337
G0 F7200 X56.014 Y58.82
G1 F900 X58.82 Y56.014 E89.51829
G0 F7200 X58.82 Y55.448
G1 F900 X55.448 Y58.82 E89.53624
G0 F7200 X54.883 Y58.82
G1 F900 X58.82 Y54.883 E89.55718
G0 F7200 X58.82 Y54.317
G1 F900 X54.317 Y58.82 E89.58114
G0 F7200 X53.751 Y58.82
G1 F900 X58.82 Y53.751 E89.60811
G0 F7200 X58.82 Y53.186
G1 F900 X53.186 Y58.82 E89.63808
G0 F7200 X52.62 Y58.82
G1 F900 X58.82 Y52.62 E89.67107
G0 F7200 X58.82 Y52.054
G1 F900 X52.054 Y58.82 E89.70707
G0 F7200 X51.489 Y58.82
G1 F900 X58.82 Y51.489 E89.74607
G0 F7200 X58.82 Y50.923
G1 F900 X50.923 Y58.82 E89.78809
G0 F7200 X50.357 Y58.82
G1 F900 X58.82 Y50.357 E89.83312
G0 F7200 X58.82 Y49.792
G1 F900 X49.792 Y58.82 E89.88115
G0 F7200 X49.226 Y58.82
G1 F900 X58.82 Y49.226 E89.93219
G0 F7200 X58.82 Y48.66
G1 F900 X48.66 Y58.82 E89.98625
G0 F7200 X48.095 Y58.82
G1 F900 X58.82 Y48.095 E90.04331
G0 F7200 X58.82 Y47.529
G1 F900 X47.529 Y58.82 E90.10338
G0 F7200 X46.963 Y58.82
G1 F900 X58.82 Y46.963 E90.16647
G0 F7200 X58.82 Y46.398
G1 F900 X46.398 Y58.82 E90.23256
G0 F7200 X45.832 Y58.82
G1 F900 X58.82 Y45.832 E90.30166
G0 F7200 X58.82 Y45.266
G1 F900 X45.266 Y58.82 E90.37377
G0 F7200 X44.7 Y58.82
G1 F900 X58.82 Y44.7 E90.4489
G0 F7200 X58.82 Y44.135
G1 F900 X44.135 Y58.82 E90.52703
G0 F7200 X43.569 Y58.82
G1 F900 X58.82 Y43.569 E90.60817
G0 F7200 X58.82 Y43.003
G1 F900 X43.003 Y58.82 E90.69232
G0 F7200 X42.438 Y58.82
G1 F900 X58.82 Y42.438 E90.77948
G0 F7200 X58.82 Y41.872
G1 F900 X41.872 Y58.82 E90.86965
G0 F7200 X41.306 Y58.82
G1 F900 X58.82 Y41.306 E90.96283
G0 F7200 X58.381 Y41.18
G1 F900 X41.18 Y58.38 E91.05435
G0 F7200 X41.18 Y57.814
G1 F900 X57.815 Y41.18 E91.14285
G0 F7200 X57.249 Y41.18
G1 F900 X41.18 Y57.249 E91.22834
G0 F7200 X41.18 Y56.683
G1 F900 X56.684 Y41.18 E91.31083
G0 F7200 X56.118 Y41.18
G1 F900 X41.18 Y56.117 E91.3903
G0 F7200 X41.18 Y55.552
G1 F900 X55.552 Y41.18 E91.46677
G0 F7200 X54.987 Y41.18
G1 F900 X41.18 Y54.986 E91.54023
G0 F7200 X41.18 Y54.42
G1 F900 X54.421 Y41.18 E91.61067
G0 F7200 X53.855 Y41.18
G1 F900 X41.18 Y53.855 E91.67811
G0 F7200 X41.18 Y53.289
G1 F900 X53.29 Y41.18 E91.74253
G0 F7200 X52.724 Y41.18
G1 F900 X41.18 Y52.723 E91.80395
G0 F7200 X41.18 Y52.158
G1 F900 X52.158 Y41.18 E91.86236
G0 F7200 X51.593 Y41.18
G1 F900 X41.18 Y51.592 E91.91776
G0 F7200 X41.18 Y51.026
G1 F900 X51.027 Y41.18 E91.97015
G0 F7200 X50.461 Y41.18
G1 F900 X41.18 Y50.461 E92.01952
G0 F7200 X41.18 Y49.895
G1 F900 X49.896 Y41.18 E92.06589
G0 F7200 X49.33 Y41.18
G1 F900 X41.18 Y49.329 E92.10925
G0 F7200 X41.18 Y48.763
G1 F900 X48.764 Y41.18 E92.1496
G0 F7200 X48.199 Y41.18
G1 F900 X41.18 Y48.198 E92.18694
G0 F7200 X41.18 Y47.632
G1 F900 X47.633 Y41.18 E92.22127
G0 F7200 X47.067 Y41.18
G1 F900 X41.18 Y47.066 E92.25259
G0 F7200 X41.18 Y46.501
G1 F900 X46.501 Y41.18 E92.2809
G0 F7200 X45.936 Y41.18
G1 F900 X41.18 Y45.935 E92.3062
G0 F7200 X41.18 Y45.369
G1 F900 X45.37 Y41.18 E92.32849
G0 F7200 X44.804 Y41.18
G1 F900 X41.18 Y44.804 E92.34777
G0 F7200 X41.18 Y44.238
G1 F900 X44.239 Y41.18 E92.36405
G0 F7200 X43.673 Y41.18
G1 F900 X41.18 Y43.672 E92.37731
G0 F7200 X41.18 Y43.107
G1 F900 X43.107 Y41.18 E92.38756
G0 F7200 X42.542 Y41.18
G1 F900 X41.18 Y42.541 E92.3948
G0 F7200 X41.18 Y41.975
G1 F900 X41.976 Y41.18 E92.39904
G0 F7200 X41.41 Y41.18
G1 F900 X41.18 Y41.41 E92.40026
G0 F7200 X41.21 Y41.41
;MESH:NONMESH
G0 F600 X41.21 Y41.41 Z0.9
G0 F7200 X59.12 Y59.12
G0 X59.4 Y59.4
;TIME_ELAPSED:699.008190
;LAYER:10
;TYPE:WALL-INNER
;MESH:20mm cube.stl
G1 F3600 X59.4 Y40.6 E92.47099
G1 X40.6 Y40.6 E92.54171
G1 X40.6 Y59.4 E92.61244
G1 X59.4 Y59.4 E92.68317
G0 F7200 X59.8 Y59.8
;TYPE:WALL-OUTER
G1 F1800 X59.8 Y40.2 E92.75691
G1 X40.2 Y40.2 E92.83064
G1 X40.2 Y59.8 E92.90438
G1 X59.8 Y59.8 E92.97812
G0 F7200 X59.8 Y59.6
G0 X59.02 Y59.02
;TYPE:SKIN
G1 F900 X40.98 Y59.02 E93.04599
G1 X40.98 Y40.98 E93.11386
G1 X59.02 Y40.98 E93.18173
G1 X59.02 Y59.02 E93.24959
G0 F7200 X58.717 Y41.18
G1 F900 X58.82 Y41.284 E93.25014
G0 F7200 X58.82 Y41.849
G1 F900 X58.151 Y41.18 E93.2537
G0 F7200 X57.585 Y41.18
G1 F900 X58.82 Y42.415 E93.26027
G0 F7200 X58.82 Y42.981
G1 F900 X57.02 Y41.18 E93.26985
G0 F7200 X56.454 Y41.18
G1 F900 X58.82 Y43.546 E93.28244
G0 F7200 X58.82 Y44.112
G1 F900 X55.888 Y41.18 E93.29804
G0 F7200 X55.323 Y41.18
G1 F900 X58.82 Y44.678 E93.31665
G0 F7200 X58.82 Y45.244
G1 F900 X54.757 Y41.18 E93.33827
G0 F7200 X54.191 Y41.18
G1 F900 X58.82 Y45.809 E93.3629
G0 F7200 X58.82 Y46.375
G1 F900 X53.626 Y41.18 E93.39053
G0 F7200 X53.06 Y41.18
G1 F900 X58.82 Y46.941 E93.42118
G0 F7200 X58.82 Y47.506
G1 F900 X52.494 Y41.18 E93.45484
G0 F7200 X51.929 Y41.18
G1 F900 X58.82 Y48.072 E93.49151
G0 F7200 X58.82 Y48.638
G1 F900 X51.363 Y41.18 E93.53118
G0 F7200 X50.797 Y41.18
G1 F900 X58.82 Y49.203 E93.57387
G0 F7200 X58.82 Y49.769
G1 F900 X50.231 Y41.18 E93.61957
G0 F7200 X49.666 Y41.18
G1 F900 X58.82 Y50.335 E93.66827
G0 F7200 X58.82 Y50.9
G1 F900 X49.1 Y41.18 E93.71999
G0 F7200 X48.534 Y41.18
G1 F900 X58.82 Y51.466 E93.77471
G0 F7200 X58.82 Y52.032
G1 F900 X47.969 Y41.18 E93.83245
G0 F7200 X47.403 Y41.18
G1 F900 X58.82 Y52.597 E93.89319
G0 F7200 X58.82 Y53.163
G1 F900 X46.837 Y41.18 E93.95694
G0 F7200 X46.272 Y41.18
G1 F900 X58.82 Y53.729 E94.02371
G0 F7200 X58.82 Y54.294
G1 F900 X45.706 Y41.18 E94.09348
G0 F7200 X45.14 Y41.18
G1 F900 X58.82 Y54.86 E94.16626
G0 F7200 X58.82 Y55.426
G1 F900 X44.575 Y41.18 E94.24206
G0 F7200 X44.009 Y41.18
G1 F900 X58.82 Y55.992 E94.32086
G0 F7200 X58.82 Y56.557
G1 F900 X43.443 Y41.18 E94.40267
G0 F7200 X42.878 Y41.18
G1 F900 X58.82 Y57.123 E94.48749
G0 F7200 X58.82 Y57.689
G1 F900 X42.312 Y41.18 E94.57532
G0 F7200 X41.746 Y41.18
G1 F900 X58.82 Y58.254 E94.66617
G0 F7200 X58.82 Y58.82
G1 F900 X41.18 Y41.18 E94.76002
G0 F7200 X41.18 Y41.745
G1 F900 X58.254 Y58.82 E94.85086
G0 F7200 X57.689 Y58.82
G1 F900 X41.18 Y42.311 E94.9387
G0 F7200 X41.18 Y42.877
G1 F900 X57.123 Y58.82 E95.02352
G0 F7200 X56.557 Y58.82
G1 F900 X41.18 Y43.443 E95.10533
G0 F7200 X41.18 Y44.008
G1 F900 X55.992 Y58.82 E95.18414
G0 F7200 X55.426 Y58.82
G1 F900 X41.18 Y44.574 E95.25993
G0 F7200 X41.18 Y45.14
G1 F900 X54.86 Y58.82 E95.33272
G0 F7200 X54.294 Y58.82
G1 F900 X41.18 Y45.705 E95.40249
G0 F7200 X41.18 Y46.271
G1 F900 X53.729 Y58.82 E95.46926
G0 F7200 X53.163 Y58.82
G1 F900 X41.18 Y46.837 E95.53301
G0 F7200 X41.18 Y47.402
G1 F900 X52.597 Y58.82 E95.59376
G0 F7200 X52.032 Y58.82
G1 F900 X41.18 Y47.968 E95.6515
G0 F7200 X41.18 Y48.534
G1 F900 X51.466 Y58.82 E95.70622
G0 F7200 X50.9 Y58.82
G1 F900 X41.18 Y49.099 E95.75794
G0 F7200 X41.18 Y49.665
G1 F900 X50.335 Y58.82 E95.80665
G0 F7200 X49.769 Y58.82
G1 F900 X41.18 Y50.231 E95.85234
G0 F7200 X41.18 Y50.796
G1 F900 X49.203 Y58.82 E95.89503
G0 F7200 X48.638 Y58.82
G1 F900 X41.18 Y51.362 E95.93471
G0 F7200 X41.18 Y51.928
G1 F900 X48.072 Y58.82 E95.97138
G0 F7200 X47.506 Y58.82
G1 F900 X41.18 Y52.493 E96.00504
G0 F7200 X41.18 Y53.059
G1 F900 X46.941 Y58.82 E96.03569
G0 F7200 X46.375 Y58.82
G1 F900 X41.18 Y53.625 E96.06333
G0 F7200 X41.18 Y54.191
G1 F900 X45.809 Y58.82 E96.08796
G0 F7200 X45.244 Y58.82
G1 F900 X41.18 Y54.756 E96.10958
G0 F7200 X41.18 Y55.322
G1 F900 X44.678 Y58.82 E96.12819
G0 F7200 X44.112 Y58.82
G1 F900 X41.18 Y55.888 E96.14379
G0 F7200 X41.18 Y56.453
G1 F900 X43.546 Y58.82 E96.15638
G0 F7200 X42.981 Y58.82
G1 F900 X41.18 Y57.019 E96.16597
G0 F7200 X41.18 Y57.585
G1 F900 X42.415 Y58.82 E96.17254
G0 F7200 X41.849 Y58.82
G1 F900 X41.18 Y58.15 E96.1761
G0 F7200 X41.18 Y58.716
G1 F900 X41.284 Y58.82 E96.17665
G0 F7200 X41.284 Y58.79
;MESH:NONMESH
G0 F600 X41.284 Y58.79 Z0.96
G0 F7200 X59.12 Y59.12
G0 X59.4 Y59.4
;TIME_ELAPSED:761.368927
;LAYER:11
;TYPE:WALL-INNER
;MESH:20mm cube.stl
G1 F3600 X59.4 Y40.6 E96.24738
G1 X40.6 Y40.6 E96.31811
G1 X40.6 Y59.4 E96.38883
G1 X59.4 Y59.4 E96.45956
G0 F7200 X59.8 Y59.8
;TYPE:WALL-OUTER
G1 F1800 X59.8 Y40.2 E96.5333
G1 X40.2 Y40.2 E96.60704
G1 X40.2 Y59.8 E96.68077
G1 X59.8 Y59.8 E96.75451
G0 F7200 X59.8 Y59.6
G0 X59.02 Y59.02
;TYPE:SKIN
G1 F900 X40.98 Y59.02 E96.82238
G1 X40.98 Y40.98 E96.89025
G1 X59.02 Y40.98 E96.95812
G1 X59.02 Y59.02 E97.02599
G0 F7200 X58.277 Y58.82
G1 F900 X58.82 Y58.277 E97.02887
G0 F7200 X58.82 Y57.711
G1 F900 X57.711 Y58.82 E97.03478
G0 F7200 X57.146 Y58.82
G1 F900 X58.82 Y57.146 E97.04368
G0 F7200 X58.82 Y56.58
G1 F900 X56.58 Y58.82 E97.0556
G0 F7200 X56.014 Y58.82
G1 F900 X58.82 Y56.014 E97.07053
G0 F7200 X58.82 Y55.448
G1 F900 X55.448 Y58.82 E97.08847
G0 F7200 X54.883 Y58.82
G1 F900 X58.82 Y54.883 E97.10942
G0 F7200 X58.82 Y54.317
G1 F900 X54.317 Y58.82 E97.13337
G0 F7200 X53.751 Y58.82
G1 F900 X58.82 Y53.751 E97.16034
G0 F7200 X58.82 Y53.186
G1 F900 X53.186 Y58.82 E97.19032
G0 F7200 X52.62 Y58.82
G1 F900 X58.82 Y52.62 E97.2233
G0 F7200 X58.82 Y52.054
G1 F900 X52.054 Y58.82 E97.2593
G0 F7200 X51.489 Y58.82
G1 F900 X58.82 Y51.489 E97.29831
G0 F7200 X58.82 Y50.923
G1 F900 X50.923 Y58.82 E97.34032
G0 F7200 X50.357 Y58.82
G1 F900 X58.82 Y50.357 E97.38535
G0 F7200 X58.82 Y49.792
G1 F900 X49.792 Y58.82 E97.43338
G0 F7200 X49.226 Y58.82
G1 F900 X58.82 Y49.226 E97.48443
G0 F7200 X58.82 Y48.66
G1 F900 X48.66 Y58.82 E97.53848
G0 F7200 X48.095 Y58.82
G1 F900 X58.82 Y48.095 E97.59554
G0 F7200 X58.82 Y47.529
G1 F900 X47.529 Y58.82 E97.65562
G0 F7200 X46.963 Y58.82
G1 F900 X58.82 Y46.963 E97.7187
G0 F7200 X58.82 Y46.398
G1 F900 X46.398 Y58.82 E97.78479
G0 F7200 X45.832 Y58.82
G1 F900 X58.82 Y45.832 E97.85389
G0 F7200 X58.82 Y45.266
G1 F900 X45.266 Y58.82 E97.92601
G0 F7200 X44.7 Y58.82
G1 F900 X58.82 Y44.7 E98.00113
G0 F7200 X58.82 Y44.135
G1 F900 X44.135 Y58.82 E98.07926
G0 F7200 X43.569 Y58.82
G1 F900 X58.82 Y43.569 E98.1604
G0 F7200 X58.82 Y43.003
G1 F900 X43.003 Y58.82 E98.24456
G0 F7200 X42.438 Y58.82
G1 F900 X58.82 Y42.438 E98.33171
G0 F7200 X58.82 Y41.872
G1 F900 X41.872 Y58.82 E98.42189
G0 F7200 X41.306 Y58.82
G1 F900 X58.82 Y41.306 E98.51507
G0 F7200 X58.381 Y41.18
G1 F900 X41.18 Y58.38 E98.60658
G0 F7200 X41.18 Y57.814
G1 F900 X57.815 Y41.18 E98.69508
G0 F7200 X57.249 Y41.18
G1 F900 X41.18 Y57.249 E98.78058
G0 F7200 X41.18 Y56.683
G1 F900 X56.684 Y41.18 E98.86306
G0 F7200 X56.118 Y41.18
G1 F900 X41.18 Y56.117 E98.94254
G0 F7200 X41.18 Y55.552
G1 F900 X55.552 Y41.18 E99.019
G0 F7200 X54.987 Y41.18
G1 F900 X41.18 Y54.986 E99.09246
G0 F7200 X41.18 Y54.42
G1 F900 X54.421 Y41.18 E99.1629
G0 F7200 X53.855 Y41.18
G1 F900 X41.18 Y53.855 E99.23034
G0 F7200 X41.18 Y53.289
G1 F900 X53.29 Y41.18 E99.29477
G0 F7200 X52.724 Y41.18
G1 F900 X41.18 Y52.723 E99.35618
G0 F7200 X41.18 Y52.158
G1 F900 X52.158 Y41.18 E99.41459
G0 F7200 X51.593 Y41.18
G1 F900 X41.18 Y51.592 E99.46999
G0 F7200 X41.18 Y51.026
G1 F900 X51.027 Y41.18 E99.52238
G0 F7200 X50.461 Y41.18
G1 F900 X41.18 Y50.461 E99.57176
G0 F7200 X41.18 Y49.895
G1 F900 X49.896 Y41.18 E99.61813
G0 F7200 X49.33 Y41.18
G1 F900 X41.18 Y49.329 E99.66149
G0 F7200 X41.18 Y48.763
G1 F900 X48.764 Y41.18 E99.70183
G0 F7200 X48.199 Y41.18
G1 F900 X41.18 Y48.198 E99.73918
G0 F7200 X41.18 Y47.632
G1 F900 X47.633 Y41.18 E99.77351
G0 F7200 X47.067 Y41.18
G1 F900 X41.18 Y47.066 E99.80482
G0 F7200 X41.18 Y46.501
G1 F900 X46.501 Y41.18 E99.83313
G0 F7200 X45.936 Y41.18
G1 F900 X41.18 Y45.935 E99.85844
G0 F7200 X41.18 Y45.369
G1 F900 X45.37 Y41.18 E99.88073
G0 F7200 X44.804 Y41.18
G1 F900 X41.18 Y44.804 E99.90001
G0 F7200 X41.18 Y44.238
G1 F900 X44.239 Y41.18 E99.91628
G0 F7200 X43.673 Y41.18
G1 F900 X41.18 Y43.672 E99.92954
G0 F7200 X41.18 Y43.107
G1 F900 X43.107 Y41.18 E99.93979
G0 F7200 X42.542 Y41.18
G1 F900 X41.18 Y42.541 E99.94704
G0 F7200 X41.18 Y41.975
G1 F900 X41.976 Y41.18 E99.95127
G0 F7200 X41.41 Y41.18
G1 F900 X41.18 Y41.41 E99.95249
G0 F7200 X41.21 Y41.41
;MESH:NONMESH
G0 F600 X41.21 Y41.41 Z1.02
G0 F7200 X59.12 Y59.12
G0 X59.4 Y59.4
;TIME_ELAPSED:823.600649
;LAYER:12
;TYPE:WALL-INNER
;MESH:20mm cube.stl
G1 F3600 X59.4 Y40.6 E100.02322
G1 X40.6 Y40.6 E100.09395
G1 X40.6 Y59.4 E100.16468
G1 X59.4 Y59.4 E100.2354
G0 F7200 X59.8 Y59.8
;TYPE:WALL-OUTER
G1 F1800 X59.8 Y40.2 E100.30914
G1 X40.2 Y40.2 E100.38288
G1 X40.2 Y59.8 E100.45662
G1 X59.8 Y59.8 E100.53035
G0 F7200 X59.8 Y59.6
G0 X59.02 Y59.02
;TYPE:SKIN
G1 F900 X40.98 Y59.02 E100.59822
G1 X40.98 Y40.98 E100.66609
G1 X59.02 Y40.98 E100.73396
G1 X59.02 Y59.02 E100.80183
G0 F7200 X58.717 Y41.18
G1 F900 X58.82 Y41.284 E100.80238
G0 F7200 X58.82 Y41.849
G1 F900 X58.151 Y41.18 E100.80594
G0 F7200 X57.585 Y41.18
G1 F900 X58.82 Y42.415 E100.81251
G0 F7200 X58.82 Y42.981
G1 F900 X57.02 Y41.18 E100.82209
G0 F7200 X56.454 Y41.18
G1 F900 X58.82 Y43.546 E100.83468
G0 F7200 X58.82 Y44.112
G1 F900 X55.888 Y41.18 E100.85028
G0 F7200 X55.323 Y41.18
G1 F900 X58.82 Y44.678 E100.86888
G0 F7200 X58.82 Y45.244
G1 F900 X54.757 Y41.18 E100.8905
G0 F7200 X54.191 Y41.18
G1 F900 X58.82 Y45.809 E100.91513
G0 F7200 X58.82 Y46.375
G1 F900 X53.626 Y41.18 E100.94277
G0 F7200 X53.06 Y41.18
G1 F900 X58.82 Y46.941 E100.97342
G0 F7200 X58.82 Y47.506
G1 F900 X52.494 Y41.18 E101.00707
G0 F7200 X51.929 Y41.18
G1 F900 X58.82 Y48.072 E101.04374
G0 F7200 X58.82 Y48.638
G1 F900 X51.363 Y41.18 E101.08342
G0 F7200 X50.797 Y41.18
G1 F900 X58.82 Y49.203 E101.1261
G0 F7200 X58.82 Y49.769
G1 F900 X50.231 Y41.18 E101.1718
G0 F7200 X49.666 Y41.18
G1 F900 X58.82 Y50.335 E101.22051
G0 F7200 X58.82 Y50.9
G1 F900 X49.1 Y41.18 E101.27222
G0 F7200 X48.534 Y41.18
G1 F900 X58.82 Y51.466 E101.32695
G0 F7200 X58.82 Y52.032
G1 F900 X47.969 Y41.18 E101.38468
G0 F7200 X47.403 Y41.18
G1 F900 X58.82 Y52.597 E101.44542
G0 F7200 X58.82 Y53.163
G1 F900 X46.837 Y41.18 E101.50918
G0 F7200 X46.272 Y41.18
G1 F900 X58.82 Y53.729 E101.57594
G0 F7200 X58.82 Y54.294
G1 F900 X45.706 Y41.18 E101.64571
G0 F7200 X45.14 Y41.18
G1 F900 X58.82 Y54.86 E101.7185
G0 F7200 X58.82 Y55.426
G1 F900 X44.575 Y41.18 E101.79429
G0 F7200 X44.009 Y41.18
G1 F900 X58.82 Y55.992 E101.87309
G0 F7200 X58.82 Y56.557
G1 F900 X43.443 Y41.18 E101.95491
G0 F7200 X42.878 Y41.18
G1 F900 X58.82 Y57.123 E102.03973
G0 F7200 X58.82 Y57.689
G1 F900 X42.312 Y41.18 E102.12756
G0 F7200 X41.746 Y41.18
G1 F900 X58.82 Y58.254 E102.2184
G0 F7200 X58.82 Y58.82
G1 F900 X41.18 Y41.18 E102.31225
G0 F7200 X41.18 Y41.745
G1 F900 X58.254 Y58.82 E102.4031
G0 F7200 X57.689 Y58.82
G1 F900 X41.18 Y42.311 E102.49093
G0 F7200 X41.18 Y42.877
G1 F900 X57.123 Y58.82 E102.57575
G0 F7200 X56.557 Y58.82
G1 F900 X41.18 Y43.443 E102.65757
G0 F7200 X41.18 Y44.008
G1 F900 X55.992 Y58.82 E102.73637
G0 F7200 X55.426 Y58.82
G1 F900 X41.18 Y44.574 E102.81217
G0 F7200 X41.18 Y45.14
G1 F900 X54.86 Y58.82 E102.88495
G0 F7200 X54.294 Y58.82
G1 F900 X41.18 Y45.705 E102.95473
G0 F7200 X41.18 Y46.271
G1 F900 X53.729 Y58.82 E103.02149
G0 F7200 X53.163 Y58.82
G1 F900 X41.18 Y46.837 E103.08525
G0 F7200 X41.18 Y47.402
G1 F900 X52.597 Y58.82 E103.14599
G0 F7200 X52.032 Y58.82
G1 F900 X41.18 Y47.968 E103.20373
G0 F7200 X41.18 Y48.534
G1 F900 X51.466 Y58.82 E103.25846
G0 F7200 X50.9 Y58.82
G1 F900 X41.18 Y49.099 E103.31017
G0 F7200 X41.18 Y49.665
G1 F900 X50.335 Y58.82 E103.35888
G0 F7200 X49.769 Y58.82
G1 F900 X41.18 Y50.231 E103.40458
G0 F7200 X41.18 Y50.796
G1 F900 X49.203 Y58.82 E103.44727
G0 F7200 X48.638 Y58.82
G1 F900 X41.18 Y51.362 E103.48695
G0 F7200 X41.18 Y51.928
G1 F900 X48.072 Y58.82 E103.52361
G0 F7200 X47.506 Y58.82
G1 F900 X41.18 Y52.493 E103.55727
G0 F7200 X41.18 Y53.059
G1 F900 X46.941 Y58.82 E103.58793
G0 F7200 X46.375 Y58.82
G1 F900 X41.18 Y53.625 E103.61557
G0 F7200 X41.18 Y54.191
G1 F900 X45.809 Y58.82 E103.64019
G0 F7200 X45.244 Y58.82
G1 F900 X41.18 Y54.756 E103.66182
G0 F7200 X41.18 Y55.322
G1 F900 X44.678 Y58.82 E103.68043
G0 F7200 X44.112 Y58.82
G1 F900 X41.18 Y55.888 E103.69603
G0 F7200 X41.18 Y56.453
G1 F900 X43.546 Y58.82 E103.70862
G0 F7200 X42.981 Y58.82
G1 F900 X41.18 Y57.019 E103.7182
G0 F7200 X41.18 Y57.585
G1 F900 X42.415 Y58.82 E103.72477
G0 F7200 X41.849 Y58.82
G1 F900 X41.18 Y58.15 E103.72833
G0 F7200 X41.18 Y58.716
G1 F900 X41.284 Y58.82 E103.72889
G0 F7200 X41.284 Y58.79
;MESH:NONMESH
G0 F600 X41.284 Y58.79 Z1.08
G0 F7200 X59.12 Y59.12
G0 X59.4 Y59.4
;TIME_ELAPSED:885.961386
;LAYER:13
;TYPE:WALL-INNER
;MESH:20mm cube.stl
G1 F3600 X59.4 Y40.6 E103.79961
G1 X40.6 Y40.6 E103.87034
G1 X40.6 Y59.4 E103.94107
G1 X59.4 Y59.4 E104.0118
G0 F7200 X59.8 Y59.8
;TYPE:WALL-OUTER
G1 F1800 X59.8 Y40.2 E104.08553
G1 X40.2 Y40.2 E104.15927
G1 X40.2 Y59.8 E104.23301
G1 X59.8 Y59.8 E104.30675
G0 F7200 X59.8 Y59.6
G0 X59.02 Y59.02
;TYPE:SKIN
G1 F900 X40.98 Y59.02 E104.37461
G1 X40.98 Y40.98 E104.44248
G1 X59.02 Y40.98 E104.51035
G1 X59.02 Y59.02 E104.57822
G0 F7200 X58.277 Y58.82
G1 F900 X58.82 Y58.277 E104.58111
G0 F7200 X58.82 Y57.711
G1 F900 X57.711 Y58.82 E104.58701
G0 F7200 X57.146 Y58.82
G1 F900 X58.82 Y57.146 E104.59592
G0 F7200 X58.82 Y56.58
G1 F900 X56.58 Y58.82 E104.60783
G0 F7200 X56.014 Y58.82
G1 F900 X58.82 Y56.014 E104.62276
G0 F7200 X58.82 Y55.448
G1 F900 X55.448 Y58.82 E104.6407
G0 F7200 X54.883 Y58.82
G1 F900 X58.82 Y54.883 E104.66165
G0 F7200 X58.82 Y54.317
G1 F900 X54.317 Y58.82 E104.68561
G0 F7200 X53.751 Y58.82
G1 F900 X58.82 Y53.751 E104.71258
G0 F7200 X58.82 Y53.186
G1 F900 X53.186 Y58.82 E104.74255
G0 F7200 X52.62 Y58.82
G1 F900 X58.82 Y52.62 E104.77554
G0 F7200 X58.82 Y52.054
G1 F900 X52.054 Y58.82 E104.81154
G0 F7200 X51.489 Y58.82
G1 F900 X58.82 Y51.489 E104.85054
G0 F7200 X58.82 Y50.923
G1 F900 X50.923 Y58.82 E104.89256
G0 F7200 X50.357 Y58.82
G1 F900 X58.82 Y50.357 E104.93758
G0 F7200 X58.82 Y49.792
G1 F900 X49.792 Y58.82 E104.98562
G0 F7200 X49.226 Y58.82
G1 F900 X58.82 Y49.226 E105.03666
G0 F7200 X58.82 Y48.66
G1 F900 X48.66 Y58.82 E105.09071
G0 F7200 X48.095 Y58.82
G1 F900 X58.82 Y48.095 E105.14778
G0 F7200 X58.82 Y47.529
G1 F900 X47.529 Y58.82 E105.20785
G0 F7200 X46.963 Y58.82
G1 F900 X58.82 Y46.963 E105.27093
G0 F7200 X58.82 Y46.398
G1 F900 X46.398 Y58.82 E105.33702
G0 F7200 X45.832 Y58.82
G1 F900 X58.82 Y45.832 E105.40613
G0 F7200 X58.82 Y45.266
G1 F900 X45.266 Y58.82 E105.47824
G0 F7200 X44.7 Y58.82
G1 F900 X58.82 Y44.7 E105.55336
G0 F7200 X58.82 Y44.135
G1 F900 X44.135 Y58.82 E105.63149
G0 F7200 X43.569 Y58.82
G1 F900 X58.82 Y43.569 E105.71264
G0 F7200 X58.82 Y43.003
G1 F900 X43.003 Y58.82 E105.79679
G0 F7200 X42.438 Y58.82
G1 F900 X58.82 Y42.438 E105.88395
G0 F7200 X58.82 Y41.872
G1 F900 X41.872 Y58.82 E105.97412
G0 F7200 X41.306 Y58.82
G1 F900 X58.82 Y41.306 E106.0673
G0 F7200 X58.381 Y41.18
G1 F900 X41.18 Y58.38 E106.15881
G0 F7200 X41.18 Y57.814
G1 F900 X57.815 Y41.18 E106.24732
G0 F7200 X57.249 Y41.18
G1 F900 X41.18 Y57.249 E106.33281
G0 F7200 X41.18 Y56.683
G1 F900 X56.684 Y41.18 E106.4153
G0 F7200 X56.118 Y41.18
G1 F900 X41.18 Y56.117 E106.49477
G0 F7200 X41.18 Y55.552
G1 F900 X55.552 Y41.18 E106.57124
G0 F7200 X54.987 Y41.18
G1 F900 X41.18 Y54.986 E106.64469
G0 F7200 X41.18 Y54.42
G1 F900 X54.421 Y41.18 E106.71514
G0 F7200 X53.855 Y41.18
G1 F900 X41.18 Y53.855 E106.78257
G0 F7200 X41.18 Y53.289
G1 F900 X53.29 Y41.18 E106.847
G0 F7200 X52.724 Y41.18
G1 F900 X41.18 Y52.723 E106.90842
G0 F7200 X41.18 Y52.158
G1 F900 X52.158 Y41.18 E106.96683
G0 F7200 X51.593 Y41.18
G1 F900 X41.18 Y51.592 E107.02222
G0 F7200 X41.18 Y51.026
G1 F900 X51.027 Y41.18 E107.07461
G0 F7200 X50.461 Y41.18
G1 F900 X41.18 Y50.461 E107.12399
G0 F7200 X41.18 Y49.895
G1 F900 X49.896 Y41.18 E107.17036
G0 F7200 X49.33 Y41.18
G1 F900 X41.18 Y49.329 E107.21372
G0 F7200 X41.18 Y48.763
G1 F900 X48.764 Y41.18 E107.25407
G0 F7200 X48.199 Y41.18
G1 F900 X41.18 Y48.198 E107.29141
G0 F7200 X41.18 Y47.632
G1 F900 X47.633 Y41.18 E107.32574
G0 F7200 X47.067 Y41.18
G1 F900 X41.18 Y47.066 E107.35706
G0 F7200 X41.18 Y46.501
G1 F900 X46.501 Y41.18 E107.38537
G0 F7200 X45.936 Y41.18
G1 F900 X41.18 Y45.935 E107.41067
G0 F7200 X41.18 Y45.369
G1 F900 X45.37 Y41.18 E107.43296
G0 F7200 X44.804 Y41.18
G1 F900 X41.18 Y44.804 E107.45224
G0 F7200 X41.18 Y44.238
G1 F900 X44.239 Y41.18 E107.46851
G0 F7200 X43.673 Y41.18
G1 F900 X41.18 Y43.672 E107.48177
G0 F7200 X41.18 Y43.107
G1 F900 X43.107 Y41.18 E107.49203
G0 F7200 X42.542 Y41.18
G1 F900 X41.18 Y42.541 E107.49927
G0 F7200 X41.18 Y41.975
G1 F900 X41.976 Y41.18 E107.5035
G0 F7200 X41.41 Y41.18
G1 F900 X41.18 Y41.41 E107.50473
G0 F7200 X41.21 Y41.41
;MESH:NONMESH
G0 F600 X41.21 Y41.41 Z1.14
G0 F7200 X40.76 Y40.76
;TIME_ELAPSED:947.978044
;LAYER:14
;TYPE:FILL
;MESH:20mm cube.stl
G1 F4800 X59.24 Y59.24 E107.60305
G1 X59.31 Y59.31
G0 F7200 X59.12 Y59.12
G0 X57.73 Y59.09
G0 X57.73 Y59.24
G1 F4800 X59.24 Y57.73 E107.61108
G1 X59.31 Y57.66
G0 F7200 X59.09 Y57.66
G0 X59.09 Y53.583
G0 X59.24 Y53.583
G1 F4800 X46.417 Y40.76 E107.67931
G1 X46.347 Y40.69
G0 F7200 X46.347 Y40.91
G0 X47.926 Y40.91
G0 X47.926 Y40.76
G1 F4800 X40.76 Y47.925 E107.71743
G1 X40.69 Y47.995
G0 F7200 X40.91 Y47.995
G0 X40.91 Y46.417
G0 X40.76 Y46.417
G1 F4800 X53.583 Y59.24 E107.78565
G1 X53.653 Y59.31
G0 F7200 X53.653 Y59.09
G0 X52.073 Y59.09
G0 X52.073 Y59.24
G1 F4800 X59.24 Y52.073 E107.82378
G1 X59.31 Y52.003
G0 F7200 X59.09 Y52.003
G0 X59.09 Y47.926
G0 X59.24 Y47.926
G1 F4800 X52.074 Y40.76 E107.86191
G1 X52.004 Y40.69
G0 F7200 X52.004 Y40.91
G0 X53.582 Y40.91
G0 X53.582 Y40.76
G1 F4800 X40.76 Y53.582 E107.93013
G1 X40.69 Y53.652
G0 F7200 X40.91 Y53.652
G0 X40.91 Y52.073
G0 X40.76 Y52.073
G1 F4800 X47.926 Y59.24 E107.96826
G1 X47.996 Y59.31
G0 F7200 X47.996 Y59.09
G0 X46.416 Y59.09
G0 X46.416 Y59.24
G1 F4800 X59.24 Y46.416 E108.03649
G1 X59.31 Y46.346
G0 F7200 X59.09 Y46.346
G0 X59.09 Y42.269
G0 X59.24 Y42.269
G1 F4800 X57.731 Y40.76 E108.04452
G1 X57.661 Y40.69
G0 F7200 X57.661 Y40.91
G0 X59.12 Y40.88
G0 X59.239 Y40.76
G1 F4800 X40.76 Y59.239 E108.14283
G1 X40.69 Y59.309
G0 F7200 X40.88 Y59.12
G0 X40.91 Y57.73
G0 X40.76 Y57.73
G1 F4800 X42.269 Y59.24 E108.15086
G1 X42.339 Y59.31
G0 F7200 X42.339 Y59.09
G0 X40.91 Y42.268
G0 X40.76 Y42.268
G1 F4800 X42.269 Y40.76 E108.15889
G1 X42.339 Y40.69
G0 F7200 X42.339 Y40.91
G0 X59.12 Y59.12
G0 X59.4 Y59.4
;TYPE:WALL-INNER
G1 F3600 X59.4 Y40.6 E108.22962
G1 X40.6 Y40.6 E108.30034
G1 X40.6 Y59.4 E108.37107
G1 X59.4 Y59.4 E108.4418
G0 F7200 X59.8 Y59.8
;TYPE:WALL-OUTER
G1 F1800 X59.8 Y40.2 E108.51554
G1 X40.2 Y40.2 E108.58927
G1 X40.2 Y59.8 E108.66301
G1 X59.8 Y59.8 E108.73675
G0 F7200 X59.8 Y59.6
G0 X58.79 Y58.908
;MESH:NONMESH
G0 F600 X58.79 Y58.908 Z1.2
G0 F7200 X40.88 Y40.88
G0 X40.76 Y40.76
;TIME_ELAPSED:955.699463
;LAYER:15
;TYPE:FILL
;MESH:20mm cube.stl
G1 F4800 X59.24 Y59.24 E108.83507
G1 X59.31 Y59.31
G0 F7200 X59.12 Y59.12
G0 X57.73 Y59.09
G0 X57.73 Y59.24
G1 F4800 X59.24 Y57.73 E108.8431
G1 X59.31 Y57.66
G0 F7200 X59.09 Y57.66
G0 X59.09 Y53.583
G0 X59.24 Y53.583
G1 F4800 X46.417 Y40.76 E108.91133
G1 X46.347 Y40.69
G0 F7200 X46.347 Y40.91
G0 X47.926 Y40.91
G0 X47.926 Y40.76
G1 F4800 X40.76 Y47.925 E108.94945
G1 X40.69 Y47.995
G0 F7200 X40.91 Y47.995
G0 X40.91 Y46.417
G0 X40.76 Y46.417
G1 F4800 X53.583 Y59.24 E109.01768
G1 X53.653 Y59.31
G0 F7200 X53.653 Y59.09
G0 X52.073 Y59.09
G0 X52.073 Y59.24
G1 F4800 X59.24 Y52.073 E109.05581
G1 X59.31 Y52.003
G0 F7200 X59.09 Y52.003
G0 X59.09 Y47.926
G0 X59.24 Y47.926
G1 F4800 X52.074 Y40.76 E109.09393
G1 X52.004 Y40.69
G0 F7200 X52.004 Y40.91
G0 X53.582 Y40.91
G0 X53.582 Y40.76
G1 F4800 X40.76 Y53.582 E109.16215
G1 X40.69 Y53.652
G0 F7200 X40.91 Y53.652
G0 X40.91 Y52.073
G0 X40.76 Y52.073
G1 F4800 X47.926 Y59.24 E109.20028
G1 X47.996 Y59.31
G0 F7200 X47.996 Y59.09
G0 X46.416 Y59.09
G0 X46.416 Y59.24
G1 F4800 X59.24 Y46.416 E109.26851
G1 X59.31 Y46.346
G0 F7200 X59.09 Y46.346
G0 X59.09 Y42.269
G0 X59.24 Y42.269
G1 F4800 X57.731 Y40.76 E109.27654
G1 X57.661 Y40.69
G0 F7200 X57.661 Y40.91
G0 X59.12 Y40.88
G0 X59.239 Y40.76
G1 F4800 X40.76 Y59.239 E109.37486
G1 X40.69 Y59.309
G0 F7200 X40.88 Y59.12
G0 X40.91 Y57.73
G0 X40.76 Y57.73
G1 F4800 X42.269 Y59.24 E109.38289
G1 X42.339 Y59.31
G0 F7200 X42.339 Y59.09
G0 X40.91 Y42.268
G0 X40.76 Y42.268
G1 F4800 X42.269 Y40.76 E109.39091
G1 X42.339 Y40.69
G0 F7200 X42.339 Y40.91
G0 X59.12 Y59.12
G0 X59.4 Y59.4
;TYPE:WALL-INNER
G1 F3600 X59.4 Y40.6 E109.46164
G1 X40.6 Y40.6 E109.53237
G1 X40.6 Y59.4 E109.6031
G1 X59.4 Y59.4 E109.67382
G0 F7200 X59.8 Y59.8
;TYPE:WALL-OUTER
G1 F1800 X59.8 Y40.2 E109.74756
G1 X40.2 Y40.2 E109.8213
G1 X40.2 Y59.8 E109.89504
G1 X59.8 Y59.8 E109.96877
G0 F7200 X59.8 Y59.6
G0 X58.79 Y58.908
;MESH:NONMESH
G0 F600 X58.79 Y58.908 Z1.26
G0 F7200 X40.88 Y40.88
G0 X40.76 Y40.76
;TIME_ELAPSED:963.420882
;LAYER:16
;TYPE:FILL
;MESH:20mm cube.stl
G1 F4800 X59.24 Y59.24 E110.06709
G1 X59.31 Y59.31
G0 F7200 X59.12 Y59.12
G0 X57.73 Y59.09
G0 X57.73 Y59.24
G1 F4800 X59.24 Y57.73 E110.07513
G1 X59.31 Y57.66
G0 F7200 X59.09 Y57.66
G0 X59.09 Y53.583
G0 X59.24 Y53.583
G1 F4800 X46.417 Y40.76 E110.14335
G1 X46.347 Y40.69
G0 F7200 X46.347 Y40.91
G0 X47.926 Y40.91
G0 X47.926 Y40.76
G1 F4800 X40.76 Y47.925 E110.18148
G1 X40.69 Y47.995
G0 F7200 X40.91 Y47.995
G0 X40.91 Y46.417
G0 X40.76 Y46.417
G1 F4800 X53.583 Y59.24 E110.2497
G1 X53.653 Y59.31
G0 F7200 X53.653 Y59.09
G0 X52.073 Y59.09
G0 X52.073 Y59.24
G1 F4800 X59.24 Y52.073 E110.28783
G1 X59.31 Y52.003
G0 F7200 X59.09 Y52.003
G0 X59.09 Y47.926
G0 X59.24 Y47.926
G1 F4800 X52.074 Y40.76 E110.32596
G1 X52.004 Y40.69
G0 F7200 X52.004 Y40.91
G0 X53.582 Y40.91
G0 X53.582 Y40.76
G1 F4800 X40.76 Y53.582 E110.39418
G1 X40.69 Y53.652
G0 F7200 X40.91 Y53.652
G0 X40.91 Y52.073
G0 X40.76 Y52.073
G1 F4800 X47.926 Y59.24 E110.4323
G1 X47.996 Y59.31
G0 F7200 X47.996 Y59.09
G0 X46.416 Y59.09
G0 X46.416 Y59.24
G1 F4800 X59.24 Y46.416 E110.50053
G1 X59.31 Y46.346
G0 F7200 X59.09 Y46.346
G0 X59.09 Y42.269
G0 X59.24 Y42.269
G1 F4800 X57.731 Y40.76 E110.50856
G1 X57.661 Y40.69
G0 F7200 X57.661 Y40.91
G0 X59.12 Y40.88
G0 X59.239 Y40.76
G1 F4800 X40.76 Y59.239 E110.60688
G1 X40.69 Y59.309
G0 F7200 X40.88 Y59.12
G0 X40.91 Y57.73
G0 X40.76 Y57.73
G1 F4800 X42.269 Y59.24 E110.61491
G1 X42.339 Y59.31
G0 F7200 X42.339 Y59.09
G0 X40.91 Y42.268
G0 X40.76 Y42.268
G1 F4800 X42.269 Y40.76 E110.62294
G1 X42.339 Y40.69
G0 F7200 X42.339 Y40.91
G0 X59.12 Y59.12
G0 X59.4 Y59.4
;TYPE:WALL-INNER
G1 F3600 X59.4 Y40.6 E110.69366
G1 X40.6 Y40.6 E110.76439
G1 X40.6 Y59.4 E110.83512
G1 X59.4 Y59.4 E110.90585
G0 F7200 X59.8 Y59.8
;TYPE:WALL-OUTER
G1 F1800 X59.8 Y40.2 E110.97958
G1 X40.2 Y40.2 E111.05332
G1 X40.2 Y59.8 E111.12706
G1 X59.8 Y59.8 E111.2008
G0 F7200 X59.8 Y59.6
G0 X58.79 Y58.908
;MESH:NONMESH
G0 F600 X58.79 Y58.908 Z1.32
G0 F7200 X40.88 Y40.88
G0 X40.76 Y40.76
;TIME_ELAPSED:971.142301
;LAYER:17
;TYPE:FILL
;MESH:20mm cube.stl
G1 F4800 X59.24 Y59.24 E111.29912
G1 X59.31 Y59.31
G0 F7200 X59.12 Y59.12
G0 X57.73 Y59.09
G0 X57.73 Y59.24
G1 F4800 X59.24 Y57.73 E111.30715
G1 X59.31 Y57.66
G0 F7200 X59.09 Y57.66
G0 X59.09 Y53.583
G0 X59.24 Y53.583
G1 F4800 X46.417 Y40.76 E111.37537
G1 X46.347 Y40.69
G0 F7200 X46.347 Y40.91
G0 X47.926 Y40.91
G0 X47.926 Y40.76
G1 F4800 X40.76 Y47.925 E111.4135
G1 X40.69 Y47.995
G0 F7200 X40.91 Y47.995
G0 X40.91 Y46.417
G0 X40.76 Y46.417
G1 F4800 X53.583 Y59.24 E111.48172
G1 X53.653 Y59.31
G0 F7200 X53.653 Y59.09
G0 X52.073 Y59.09
G0 X52.073 Y59.24
G1 F4800 X59.24 Y52.073 E111.51985
G1 X59.31 Y52.003
G0 F7200 X59.09 Y52.003
G0 X59.09 Y47.926
G0 X59.24 Y47.926
G1 F4800 X52.074 Y40.76 E111.55798
G1 X52.004 Y40.69
G0 F7200 X52.004 Y40.91
G0 X53.582 Y40.91
G0 X53.582 Y40.76
G1 F4800 X40.76 Y53.582 E111.6262
G1 X40.69 Y53.652
G0 F7200 X40.91 Y53.652
G0 X40.91 Y52.073
G0 X40.76 Y52.073
G1 F4800 X47.926 Y59.24 E111.66433
G1 X47.996 Y59.31
G0 F7200 X47.996 Y59.09
G0 X46.416 Y59.09
G0 X46.416 Y59.24
G1 F4800 X59.24 Y46.416 E111.73256
G1 X59.31 Y46.346
G0 F7200 X59.09 Y46.346
G0 X59.09 Y42.269
G0 X59.24 Y42.269
G1 F4800 X57.731 Y40.76 E111.74058
G1 X57.661 Y40.69
G0 F7200 X57.661 Y40.91
G0 X59.12 Y40.88
G0 X59.239 Y40.76
G1 F4800 X40.76 Y59.239 E111.8389
G1 X40.69 Y59.309
G0 F7200 X40.88 Y59.12
G0 X40.91 Y57.73
G0 X40.76 Y57.73
G1 F4800 X42.269 Y59.24 E111.84693
G1 X42.339 Y59.31
G0 F7200 X42.339 Y59.09
G0 X40.91 Y42.268
G0 X40.76 Y42.268
G1 F4800 X42.269 Y40.76 E111.85496
G1 X42.339 Y40.69
G0 F7200 X42.339 Y40.91
G0 X59.12 Y59.12
G0 X59.4 Y59.4
;TYPE:WALL-INNER
G1 F3600 X59.4 Y40.6 E111.92569
G1 X40.6 Y40.6 E111.99641
G1 X40.6 Y59.4 E112.06714
G1 X59.4 Y59.4 E112.13787
G0 F7200 X59.8 Y59.8
;TYPE:WALL-OUTER
G1 F1800 X59.8 Y40.2 E112.21161
G1 X40.2 Y40.2 E112.28534
G1 X40.2 Y59.8 E112.35908
G1 X59.8 Y59.8 E112.43282
G0 F7200 X59.8 Y59.6
G0 X58.79 Y58.908
;MESH:NONMESH
G0 F600 X58.79 Y58.908 Z1.38
G0 F7200 X40.88 Y40.88
G0 X40.76 Y40.76
;TIME_ELAPSED:978.863720
;LAYER:18
;TYPE:FILL
;MESH:20mm cube.stl
G1 F4800 X59.24 Y59.24 E112.53114
G1 X59.31 Y59.31
G0 F7200 X59.12 Y59.12
G0 X57.73 Y59.09
G0 X57.73 Y59.24
G1 F4800 X59.24 Y57.73 E112.53917
G1 X59.31 Y57.66
G0 F7200 X59.09 Y57.66
G0 X59.09 Y53.583
G0 X59.24 Y53.583
G1 F4800 X46.417 Y40.76 E112.6074
G1 X46.347 Y40.69
G0 F7200 X46.347 Y40.91
G0 X47.926 Y40.91
G0 X47.926 Y40.76
G1 F4800 X40.76 Y47.925 E112.64552
G1 X40.69 Y47.995
G0 F7200 X40.91 Y47.995
G0 X40.91 Y46.417
G0 X40.76 Y46.417
G1 F4800 X53.583 Y59.24 E112.71375
G1 X53.653 Y59.31
G0 F7200 X53.653 Y59.09
G0 X52.073 Y59.09
G0 X52.073 Y59.24
G1 F4800 X59.24 Y52.073 E112.75188
G1 X59.31 Y52.003
G0 F7200 X59.09 Y52.003
G0 X59.09 Y47.926
G0 X59.24 Y47.926
G1 F4800 X52.074 Y40.76 E112.79
G1 X52.004 Y40.69
G0 F7200 X52.004 Y40.91
G0 X53.582 Y40.91
G0 X53.582 Y40.76
G1 F4800 X40.76 Y53.582 E112.85822
G1 X40.69 Y53.652
G0 F7200 X40.91 Y53.652
G0 X40.91 Y52.073
G0 X40.76 Y52.073
G1 F4800 X47.926 Y59.24 E112.89635
G1 X47.996 Y59.31
G0 F7200 X47.996 Y59.09
G0 X46.416 Y59.09
G0 X46.416 Y59.24
G1 F4800 X59.24 Y46.416 E112.96458
G1 X59.31 Y46.346
G0 F7200 X59.09 Y46.346
G0 X59.09 Y42.269
G0 X59.24 Y42.269
G1 F4800 X57.731 Y40.76 E112.97261
G1 X57.661 Y40.69
G0 F7200 X57.661 Y40.91
G0 X59.12 Y40.88
G0 X59.239 Y40.76
G1 F4800 X40.76 Y59.239 E113.07092
G1 X40.69 Y59.309
G0 F7200 X40.88 Y59.12
G0 X40.91 Y57.73
G0 X40.76 Y57.73
G1 F4800 X42.269 Y59.24 E113.07896
G1 X42.339 Y59.31
G0 F7200 X42.339 Y59.09
G0 X40.91 Y42.268
G0 X40.76 Y42.268
G1 F4800 X42.269 Y40.76 E113.08698
G1 X42.339 Y40.69
G0 F7200 X42.339 Y40.91
G0 X59.12 Y59.12
G0 X59.4 Y59.4
;TYPE:WALL-INNER
G1 F3600 X59.4 Y40.6 E113.15771
G1 X40.6 Y40.6 E113.22844
G1 X40.6 Y59.4 E113.29916
G1 X59.4 Y59.4 E113.36989
G0 F7200 X59.8 Y59.8
;TYPE:WALL-OUTER
G1 F1800 X59.8 Y40.2 E113.44363
G1 X40.2 Y40.2 E113.51737
G1 X40.2 Y59.8 E113.5911
G1 X59.8 Y59.8 E113.66484
G0 F7200 X59.8 Y59.6
G0 X58.79 Y58.908
;MESH:NONMESH
G0 F600 X58.79 Y58.908 Z1.44
G0 F7200 X40.88 Y40.88
G0 X40.76 Y40.76
;TIME_ELAPSED:986.585140
;LAYER:19
;TYPE:FILL
;MESH:20mm cube.stl
G1 F4800 X59.24 Y59.24 E113.76316
G1 X59.31 Y59.31
G0 F7200 X59.12 Y59.12
G0 X57.73 Y59.09
G0 X57.73 Y59.24
G1 F4800 X59.24 Y57.73 E113.7712
G1 X59.31 Y57.66
G0 F7200 X59.09 Y57.66
G0 X59.09 Y53.583
G0 X59.24 Y53.583
G1 F4800 X46.417 Y40.76 E113.83942
G1 X46.347 Y40.69
G0 F7200 X46.347 Y40.91
G0 X47.926 Y40.91
G0 X47.926 Y40.76
G1 F4800 X40.76 Y47.925 E113.87754
G1 X40.69 Y47.995
G0 F7200 X40.91 Y47.995
G0 X40.91 Y46.417
G0 X40.76 Y46.417
G1 F4800 X53.583 Y59.24 E113.94577
G1 X53.653 Y59.31
G0 F7200 X53.653 Y59.09
G0 X52.073 Y59.09
G0 X52.073 Y59.24
G1 F4800 X59.24 Y52.073 E113.9839
G1 X59.31 Y52.003
G0 F7200 X59.09 Y52.003
G0 X59.09 Y47.926
G0 X59.24 Y47.926
G1 F4800 X52.074 Y40.76 E114.02203
G1 X52.004 Y40.69
G0 F7200 X52.004 Y40.91
G0 X53.582 Y40.91
G0 X53.582 Y40.76
G1 F4800 X40.76 Y53.582 E114.09024
G1 X40.69 Y53.652
G0 F7200 X40.91 Y53.652
G0 X40.91 Y52.073
G0 X40.76 Y52.073
G1 F4800 X47.926 Y59.24 E114.12837
G1 X47.996 Y59.31
G0 F7200 X47.996 Y59.09
G0 X46.416 Y59.09
G0 X46.416 Y59.24
G1 F4800 X59.24 Y46.416 E114.1966
G1 X59.31 Y46.346
G0 F7200 X59.09 Y46.346
G0 X59.09 Y42.269
G0 X59.24 Y42.269
G1 F4800 X57.731 Y40.76 E114.20463
G1 X57.661 Y40.69
G0 F7200 X57.661 Y40.91
G0 X59.12 Y40.88
G0 X59.239 Y40.76
G1 F4800 X40.76 Y59.239 E114.30295
G1 X40.69 Y59.309
G0 F7200 X40.88 Y59.12
G0 X40.91 Y57.73
G0 X40.76 Y57.73
G1 F4800 X42.269 Y59.24 E114.31098
G1 X42.339 Y59.31
G0 F7200 X42.339 Y59.09
G0 X40.91 Y42.268
G0 X40.76 Y42.268
G1 F4800 X42.269 Y40.76 E114.319
G1 X42.339 Y40.69
G0 F7200 X42.339 Y40.91
G0 X59.12 Y59.12
G0 X59.4 Y59.4
;TYPE:WALL-INNER
G1 F3600 X59.4 Y40.6 E114.38973
G1 X40.6 Y40.6 E114.46046
G1 X40.6 Y59.4 E114.53119
G1 X59.4 Y59.4 E114.60191
G0 F7200 X59.8 Y59.8
;TYPE:WALL-OUTER
G1 F1800 X59.8 Y40.2 E114.67565
G1 X40.2 Y40.2 E114.74939
G1 X40.2 Y59.8 E114.82313
G1 X59.8 Y59.8 E114.89686
G0 F7200 X59.8 Y59.6
G0 X58.79 Y58.908
;MESH:NONMESH
G0 F600 X58.79 Y58.908 Z1.5
G0 F7200 X40.88 Y40.88
G0 X40.76 Y40.76
;TIME_ELAPSED:994.306559
;LAYER:20
;TYPE:FILL
;MESH:20mm cube.stl
G1 F4800 X59.24 Y59.24 E114.99519
G1 X59.31 Y59.31
G0 F7200 X59.12 Y59.12
G0 X57.73 Y59.09
G0 X57.73 Y59.24
G1 F4800 X59.24 Y57.73 E115.00322
G1 X59.31 Y57.66
G0 F7200 X59.09 Y57.66
G0 X59.09 Y53.583
G0 X59.24 Y53.583
G1 F4800 X46.417 Y40.76 E115.07144
G1 X46.347 Y40.69
G0 F7200 X46.347 Y40.91
G0 X47.926 Y40.91
G0 X47.926 Y40.76
G1 F4800 X40.76 Y47.925 E115.10957
G1 X40.69 Y47.995
G0 F7200 X40.91 Y47.995
G0 X40.91 Y46.417
G0 X40.76 Y46.417
G1 F4800 X53.583 Y59.24 E115.17779
G1 X53.653 Y59.31
G0 F7200 X53.653 Y59.09
G0 X52.073 Y59.09
G0 X52.073 Y59.24
G1 F4800 X59.24 Y52.073 E115.21592
G1 X59.31 Y52.003
G0 F7200 X59.09 Y52.003
G0 X59.09 Y47.926
G0 X59.24 Y47.926
G1 F4800 X52.074 Y40.76 E115.25405
G1 X52.004 Y40.69
G0 F7200 X52.004 Y40.91
G0 X53.582 Y40.91
G0 X53.582 Y40.76
G1 F4800 X40.76 Y53.582 E115.32227
G1 X40.69 Y53.652
G0 F7200 X40.91 Y53.652
G0 X40.91 Y52.073
G0 X40.76 Y52.073
G1 F4800 X47.926 Y59.24 E115.3604
G1 X47.996 Y59.31
G0 F7200 X47.996 Y59.09
G0 X46.416 Y59.09
G0 X46.416 Y59.24
G1 F4800 X59.24 Y46.416 E115.42863
G1 X59.31 Y46.346
G0 F7200 X59.09 Y46.346
G0 X59.09 Y42.269
G0 X59.24 Y42.269
G1 F4800 X57.731 Y40.76 E115.43665
G1 X57.661 Y40.69
G0 F7200 X57.661 Y40.91
G0 X59.12 Y40.88
G0 X59.239 Y40.76
G1 F4800 X40.76 Y59.239 E115.53497
G1 X40.69 Y59.309
G0 F7200 X40.88 Y59.12
G0 X40.91 Y57.73
G0 X40.76 Y57.73
G1 F4800 X42.269 Y59.24 E115.543
G1 X42.339 Y59.31
G0 F7200 X42.339 Y59.09
G0 X40.91 Y42.268
G0 X40.76 Y42.268
G1 F4800 X42.269 Y40.76 E115.55103
G1 X42.339 Y40.69
G0 F7200 X42.339 Y40.91
G0 X59.12 Y59.12
G0 X59.4 Y59.4
;TYPE:WALL-INNER
G1 F3600 X59.4 Y40.6 E115.62175
G1 X40.6 Y40.6 E115.69248
G1 X40.6 Y59.4 E115.76321
G1 X59.4 Y59.4 E115.83394
G0 F7200 X59.8 Y59.8
;TYPE:WALL-OUTER
G1 F1800 X59.8 Y40.2 E115.90768
G1 X40.2 Y40.2 E115.98141
G1 X40.2 Y59.8 E116.05515
G1 X59.8 Y59.8 E116.12889
G0 F7200 X59.8 Y59.6
G0 X58.79 Y58.908
;MESH:NONMESH
G0 F600 X58.79 Y58.908 Z1.56
G0 F7200 X40.88 Y40.88
G0 X40.76 Y40.76
;TIME_ELAPSED:1002.027978
;LAYER:21
;TYPE:FILL
;MESH:20mm cube.stl
G1 F4800 X59.24 Y59.24 E116.22721
G1 X59.31 Y59.31
G0 F7200 X59.12 Y59.12
G0 X57.73 Y59.09
G0 X57.73 Y59.24
G1 F4800 X59.24 Y57.73 E116.23524
G1 X59.31 Y57.66
G0 F7200 X59.09 Y57.66
G0 X59.09 Y53.583
G0 X59.24 Y53.583
G1 F4800 X46.417 Y40.76 E116.30347
G1 X46.347 Y40.69
G0 F7200 X46.347 Y40.91
G0 X47.926 Y40.91
G0 X47.926 Y40.76
G1 F4800 X40.76 Y47.925 E116.34159
G1 X40.69 Y47.995
G0 F7200 X40.91 Y47.995
G0 X40.91 Y46.417
G0 X40.76 Y46.417
G1 F4800 X53.583 Y59.24 E116.40981
G1 X53.653 Y59.31
G0 F7200 X53.653 Y59.09
G0 X52.073 Y59.09
G0 X52.073 Y59.24
G1 F4800 X59.24 Y52.073 E116.44795
G1 X59.31 Y52.003
G0 F7200 X59.09 Y52.003
G0 X59.09 Y47.926
G0 X59.24 Y47.926
G1 F4800 X52.074 Y40.76 E116.48607
G1 X52.004 Y40.69
G0 F7200 X52.004 Y40.91
G0 X53.582 Y40.91
G0 X53.582 Y40.76
G1 F4800 X40.76 Y53.582 E116.55429
G1 X40.69 Y53.652
G0 F7200 X40.91 Y53.652
G0 X40.91 Y52.073
G0 X40.76 Y52.073
G1 F4800 X47.926 Y59.24 E116.59242
G1 X47.996 Y59.31
G0 F7200 X47.996 Y59.09
G0 X46.416 Y59.09
G0 X46.416 Y59.24
G1 F4800 X59.24 Y46.416 E116.66065
G1 X59.31 Y46.346
G0 F7200 X59.09 Y46.346
G0 X59.09 Y42.269
G0 X59.24 Y42.269
G1 F4800 X57.731 Y40.76 E116.66868
G1 X57.661 Y40.69
G0 F7200 X57.661 Y40.91
G0 X59.12 Y40.88
G0 X59.239 Y40.76
G1 F4800 X40.76 Y59.239 E116.76699
G1 X40.69 Y59.309
G0 F7200 X40.88 Y59.12
G0 X40.91 Y57.73
G0 X40.76 Y57.73
G1 F4800 X42.269 Y59.24 E116.77502
G1 X42.339 Y59.31
G0 F7200 X42.339 Y59.09
G0 X40.91 Y42.268
G0 X40.76 Y42.268
G1 F4800 X42.269 Y40.76 E116.78305
G1 X42.339 Y40.69
G0 F7200 X42.339 Y40.91
G0 X59.12 Y59.12
G0 X59.4 Y59.4
;TYPE:WALL-INNER
G1 F3600 X59.4 Y40.6 E116.85378
G1 X40.6 Y40.6 E116.92451
G1 X40.6 Y59.4 E116.99523
G1 X59.4 Y59.4 E117.06596
G0 F7200 X59.8 Y59.8
;TYPE:WALL-OUTER
G1 F1800 X59.8 Y40.2 E117.1397
G1 X40.2 Y40.2 E117.21344
G1 X40.2 Y59.8 E117.28717
G1 X59.8 Y59.8 E117.36091
G0 F7200 X59.8 Y59.6
G0 X58.79 Y58.908
;MESH:NONMESH
G0 F600 X58.79 Y58.908 Z1.62
G0 F7200 X40.88 Y40.88
G0 X40.76 Y40.76
;TIME_ELAPSED:1009.749397
;LAYER:22
;TYPE:FILL
;MESH:20mm cube.stl
G1 F4800 X59.24 Y59.24 E117.45923
G1 X59.31 Y59.31
G0 F7200 X59.12 Y59.12
G0 X57.73 Y59.09
G0 X57.73 Y59.24
G1 F4800 X59.24 Y57.73 E117.46727
G1 X59.31 Y57.66
G0 F7200 X59.09 Y57.66
G0 X59.09 Y53.583
G0 X59.24 Y53.583
G1 F4800 X46.417 Y40.76 E117.53549
G1 X46.347 Y40.69
G0 F7200 X46.347 Y40.91
G0 X47.926 Y40.91
G0 X47.926 Y40.76
G1 F4800 X40.76 Y47.925 E117.57361
G1 X40.69 Y47.995
G0 F7200 X40.91 Y47.995
G0 X40.91 Y46.417
G0 X40.76 Y46.417
G1 F4800 X53.583 Y59.24 E117.64184
G1 X53.653 Y59.31
G0 F7200 X53.653 Y59.09
G0 X52.073 Y59.09
G0 X52.073 Y59.24
G1 F4800 X59.24 Y52.073 E117.67997
G1 X59.31 Y52.003
G0 F7200 X59.09 Y52.003
G0 X59.09 Y47.926
G0 X59.24 Y47.926
G1 F4800 X52.074 Y40.76 E117.71809
G1 X52.004 Y40.69
G0 F7200 X52.004 Y40.91
G0 X53.582 Y40.91
G0 X53.582 Y40.76
G1 F4800 X40.76 Y53.582 E117.78631
G1 X40.69 Y53.652
G0 F7200 X40.91 Y53.652
G0 X40.91 Y52.073
G0 X40.76 Y52.073
G1 F4800 X47.926 Y59.24 E117.82444
G1 X47.996 Y59.31
G0 F7200 X47.996 Y59.09
G0 X46.416 Y59.09
G0 X46.416 Y59.24
G1 F4800 X59.24 Y46.416 E117.89267
G1 X59.31 Y46.346
G0 F7200 X59.09 Y46.346
G0 X59.09 Y42.269
G0 X59.24 Y42.269
G1 F4800 X57.731 Y40.76 E117.9007
G1 X57.661 Y40.69
G0 F7200 X57.661 Y40.91
G0 X59.12 Y40.88
G0 X59.239 Y40.76
G1 F4800 X40.76 Y59.239 E117.99902
G1 X40.69 Y59.309
G0 F7200 X40.88 Y59.12
G0 X40.91 Y57.73
G0 X40.76 Y57.73
G1 F4800 X42.269 Y59.24 E118.00705
G1 X42.339 Y59.31
G0 F7200 X42.339 Y59.09
G0 X40.91 Y42.268
G0 X40.76 Y42.268
G1 F4800 X42.269 Y40.76 E118.01507
G1 X42.339 Y40.69
G0 F7200 X42.339 Y40.91
G0 X59.12 Y59.12
G0 X59.4 Y59.4
;TYPE:WALL-INNER
G1 F3600 X59.4 Y40.6 E118.0858
G1 X40.6 Y40.6 E118.15653
G1 X40.6 Y59.4 E118.22726
G1 X59.4 Y59.4 E118.29798
G0 F7200 X59.8 Y59.8
;TYPE:WALL-OUTER
G1 F1800 X59.8 Y40.2 E118.37172
G1 X40.2 Y40.2 E118.44546
G1 X40.2 Y59.8 E118.5192
G1 X59.8 Y59.8 E118.59293
G0 F7200 X59.8 Y59.6
G0 X58.79 Y58.908
;MESH:NONMESH
G0 F600 X58.79 Y58.908 Z1.68
G0 F7200 X40.88 Y40.88
G0 X40.76 Y40.76
;TIME_ELAPSED:1017.470817
;LAYER:23
;TYPE:FILL
;MESH:20mm cube.stl
G1 F4800 X59.24 Y59.24 E118.69125
G1 X59.31 Y59.31
G0 F7200 X59.12 Y59.12
G0 X57.73 Y59.09
G0 X57.73 Y59.24
G1 F4800 X59.24 Y57.73 E118.69929
G1 X59.31 Y57.66
G0 F7200 X59.09 Y57.66
G0 X59.09 Y53.583
G0 X59.24 Y53.583
G1 F4800 X46.417 Y40.76 E118.76751
G1 X46.347 Y40.69
G0 F7200 X46.347 Y40.91
G0 X47.926 Y40.91
G0 X47.926 Y40.76
G1 F4800 X40.76 Y47.925 E118.80564
G1 X40.69 Y47.995
G0 F7200 X40.91 Y47.995
G0 X40.91 Y46.417
G0 X40.76 Y46.417
G1 F4800 X53.583 Y59.24 E118.87386
G1 X53.653 Y59.31
G0 F7200 X53.653 Y59.09
G0 X52.073 Y59.09
G0 X52.073 Y59.24
G1 F4800 X59.24 Y52.073 E118.91199
G1 X59.31 Y52.003
G0 F7200 X59.09 Y52.003
G0 X59.09 Y47.926
G0 X59.24 Y47.926
G1 F4800 X52.074 Y40.76 E118.95012
G1 X52.004 Y40.69
G0 F7200 X52.004 Y40.91
G0 X53.582 Y40.91
G0 X53.582 Y40.76
G1 F4800 X40.76 Y53.582 E119.01834
G1 X40.69 Y53.652
G0 F7200 X40.91 Y53.652
G0 X40.91 Y52.073
G0 X40.76 Y52.073
G1 F4800 X47.926 Y59.24 E119.05647
G1 X47.996 Y59.31
G0 F7200 X47.996 Y59.09
G0 X46.416 Y59.09
G0 X46.416 Y59.24
G1 F4800 X59.24 Y46.416 E119.12469
G1 X59.31 Y46.346
G0 F7200 X59.09 Y46.346
G0 X59.09 Y42.269
G0 X59.24 Y42.269
G1 F4800 X57.731 Y40.76 E119.13272
G1 X57.661 Y40.69
G0 F7200 X57.661 Y40.91
G0 X59.12 Y40.88
G0 X59.239 Y40.76
G1 F4800 X40.76 Y59.239 E119.23104
G1 X40.69 Y59.309
G0 F7200 X40.88 Y59.12
G0 X40.91 Y57.73
G0 X40.76 Y57.73
G1 F4800 X42.269 Y59.24 E119.23907
G1 X42.339 Y59.31
G0 F7200 X42.339 Y59.09
G0 X40.91 Y42.268
G0 X40.76 Y42.268
G1 F4800 X42.269 Y40.76 E119.2471
G1 X42.339 Y40.69
G0 F7200 X42.339 Y40.91
G0 X59.12 Y59.12
G0 X59.4 Y59.4
;TYPE:WALL-INNER
G1 F3600 X59.4 Y40.6 E119.31782
G1 X40.6 Y40.6 E119.38855
G1 X40.6 Y59.4 E119.45928
G1 X59.4 Y59.4 E119.53001
G0 F7200 X59.8 Y59.8
;TYPE:WALL-OUTER
G1 F1800 X59.8 Y40.2 E119.60374
G1 X40.2 Y40.2 E119.67748
G1 X40.2 Y59.8 E119.75122
G1 X59.8 Y59.8 E119.82496
G0 F7200 X59.8 Y59.6
G0 X58.79 Y58.908
;MESH:NONMESH
G0 F600 X58.79 Y58.908 Z1.74
G0 F7200 X40.88 Y40.88
G0 X40.76 Y40.76
;TIME_ELAPSED:1025.192236
;LAYER:24
;TYPE:FILL
;MESH:20mm cube.stl
G1 F4800 X59.24 Y59.24 E119.92328
G1 X59.31 Y59.31
G0 F7200 X59.12 Y59.12
G0 X57.73 Y59.09
G0 X57.73 Y59.24
G1 F4800 X59.24 Y57.73 E119.93131
G1 X59.31 Y57.66
G0 F7200 X59.09 Y57.66
G0 X59.09 Y53.583
G0 X59.24 Y53.583
G1 F4800 X46.417 Y40.76 E119.99954
G1 X46.347 Y40.69
G0 F7200 X46.347 Y40.91
G0 X47.926 Y40.91
G0 X47.926 Y40.76
G1 F4800 X40.76 Y47.925 E120.03766
G1 X40.69 Y47.995
G0 F7200 X40.91 Y47.995
G0 X40.91 Y46.417
G0 X40.76 Y46.417
G1 F4800 X53.583 Y59.24 E120.10588
G1 X53.653 Y59.31
G0 F7200 X53.653 Y59.09
G0 X52.073 Y59.09
G0 X52.073 Y59.24
G1 F4800 X59.24 Y52.073 E120.14401
G1 X59.31 Y52.003
G0 F7200 X59.09 Y52.003
G0 X59.09 Y47.926
G0 X59.24 Y47.926
G1 F4800 X52.074 Y40.76 E120.18214
G1 X52.004 Y40.69
G0 F7200 X52.004 Y40.91
G0 X53.582 Y40.91
G0 X53.582 Y40.76
G1 F4800 X40.76 Y53.582 E120.25036
G1 X40.69 Y53.652
G0 F7200 X40.91 Y53.652
G0 X40.91 Y52.073
G0 X40.76 Y52.073
G1 F4800 X47.926 Y59.24 E120.28849
G1 X47.996 Y59.31
G0 F7200 X47.996 Y59.09
G0 X46.416 Y59.09
G0 X46.416 Y59.24
G1 F4800 X59.24 Y46.416 E120.35672
G1 X59.31 Y46.346
G0 F7200 X59.09 Y46.346
G0 X59.09 Y42.269
G0 X59.24 Y42.269
G1 F4800 X57.731 Y40.76 E120.36475
G1 X57.661 Y40.69
G0 F7200 X57.661 Y40.91
G0 X59.12 Y40.88
G0 X59.239 Y40.76
G1 F4800 X40.76 Y59.239 E120.46306
G1 X40.69 Y59.309
G0 F7200 X40.88 Y59.12
G0 X40.91 Y57.73
G0 X40.76 Y57.73
G1 F4800 X42.269 Y59.24 E120.47109
G1 X42.339 Y59.31
G0 F7200 X42.339 Y59.09
G0 X40.91 Y42.268
G0 X40.76 Y42.268
G1 F4800 X42.269 Y40.76 E120.47912
G1 X42.339 Y40.69
G0 F7200 X42.339 Y40.91
G0 X59.12 Y59.12
G0 X59.4 Y59.4
;TYPE:WALL-INNER
G1 F3600 X59.4 Y40.6 E120.54985
G1 X40.6 Y40.6 E120.62057
G1 X40.6 Y59.4 E120.6913
G1 X59.4 Y59.4 E120.76203
G0 F7200 X59.8 Y59.8
;TYPE:WALL-OUTER
G1 F1800 X59.8 Y40.2 E120.83577
G1 X40.2 Y40.2 E120.9095
G1 X40.2 Y59.8 E120.98324
G1 X59.8 Y59.8 E121.05698
G0 F7200 X59.8 Y59.6
G0 X58.79 Y58.908
;MESH:NONMESH
G0 F600 X58.79 Y58.908 Z1.8
G0 F7200 X40.88 Y40.88
G0 X40.76 Y40.76
;TIME_ELAPSED:1032.913655
;LAYER:25
;TYPE:FILL
;MESH:20mm cube.stl
G1 F4800 X59.24 Y59.24 E121.1553
G1 X59.31 Y59.31
G0 F7200 X59.12 Y59.12
G0 X57.73 Y59.09
G0 X57.73 Y59.24
G1 F4800 X59.24 Y57.73 E121.16333
G1 X59.31 Y57.66
G0 F7200 X59.09 Y57.66
G0 X59.09 Y53.583
G0 X59.24 Y53.583
G1 F4800 X46.417 Y40.76 E121.23156
G1 X46.347 Y40.69
G0 F7200 X46.347 Y40.91
G0 X47.926 Y40.91
G0 X47.926 Y40.76
G1 F4800 X40.76 Y47.925 E121.26968
G1 X40.69 Y47.995
G0 F7200 X40.91 Y47.995
G0 X40.91 Y46.417
G0 X40.76 Y46.417
G1 F4800 X53.583 Y59.24 E121.33791
G1 X53.653 Y59.31
G0 F7200 X53.653 Y59.09
G0 X52.073 Y59.09
G0 X52.073 Y59.24
G1 F4800 X59.24 Y52.073 E121.37604
G1 X59.31 Y52.003
G0 F7200 X59.09 Y52.003
G0 X59.09 Y47.926
G0 X59.24 Y47.926
G1 F4800 X52.074 Y40.76 E121.41416
G1 X52.004 Y40.69
G0 F7200 X52.004 Y40.91
G0 X53.582 Y40.91
G0 X53.582 Y40.76
G1 F4800 X40.76 Y53.582 E121.48238
G1 X40.69 Y53.652
G0 F7200 X40.91 Y53.652
G0 X40.91 Y52.073
G0 X40.76 Y52.073
G1 F4800 X47.926 Y59.24 E121.52051
G1 X47.996 Y59.31
G0 F7200 X47.996 Y59.09
G0 X46.416 Y59.09
G0 X46.416 Y59.24
G1 F4800 X59.24 Y46.416 E121.58874
G1 X59.31 Y46.346
G0 F7200 X59.09 Y46.346
G0 X59.09 Y42.269
G0 X59.24 Y42.269
G1 F4800 X57.731 Y40.76 E121.59677
G1 X57.661 Y40.69
G0 F7200 X57.661 Y40.91
G0 X59.12 Y40.88
G0 X59.239 Y40.76
G1 F4800 X40.76 Y59.239 E121.69508
G1 X40.69 Y59.309
G0 F7200 X40.88 Y59.12
G0 X40.91 Y57.73
G0 X40.76 Y57.73
G1 F4800 X42.269 Y59.24 E121.70312
G1 X42.339 Y59.31
G0 F7200 X42.339 Y59.09
G0 X40.91 Y42.268
G0 X40.76 Y42.268
G1 F4800 X42.269 Y40.76 E121.71114
G1 X42.339 Y40.69
G0 F7200 X42.339 Y40.91
G0 X59.12 Y59.12
G0 X59.4 Y59.4
;TYPE:WALL-INNER
G1 F3600 X59.4 Y40.6 E121.78187
G1 X40.6 Y40.6 E121.8526
G1 X40.6 Y59.4 E121.92333
G1 X59.4 Y59.4 E121.99405
G0 F7200 X59.8 Y59.8
;TYPE:WALL-OUTER
G1 F1800 X59.8 Y40.2 E122.06779
G1 X40.2 Y40.2 E122.14153
G1 X40.2 Y59.8 E122.21526
G1 X59.8 Y59.8 E122.289
G0 F7200 X59.8 Y59.6
G0 X58.79 Y58.908
;MESH:NONMESH
G0 F600 X58.79 Y58.908 Z1.86
G0 F7200 X40.88 Y40.88
G0 X40.76 Y40.76
;TIME_ELAPSED:1040.635074
;LAYER:26
;TYPE:FILL
;MESH:20mm cube.stl
G1 F4800 X59.24 Y59.24 E122.38732
G1 X59.31 Y59.31
G0 F7200 X59.12 Y59.12
G0 X57.73 Y59.09
G0 X57.73 Y59.24
G1 F4800 X59.24 Y57.73 E122.39536
G1 X59.31 Y57.66
G0 F7200 X59.09 Y57.66
G0 X59.09 Y53.583
G0 X59.24 Y53.583
G1 F4800 X46.417 Y40.76 E122.46358
G1 X46.347 Y40.69
G0 F7200 X46.347 Y40.91
G0 X47.926 Y40.91
G0 X47.926 Y40.76
G1 F4800 X40.76 Y47.925 E122.50171
G1 X40.69 Y47.995
G0 F7200 X40.91 Y47.995
G0 X40.91 Y46.417
G0 X40.76 Y46.417
G1 F4800 X53.583 Y59.24 E122.56993
G1 X53.653 Y59.31
G0 F7200 X53.653 Y59.09
G0 X52.073 Y59.09
G0 X52.073 Y59.24
G1 F4800 X59.24 Y52.073 E122.60806
G1 X59.31 Y52.003
G0 F7200 X59.09 Y52.003
G0 X59.09 Y47.926
G0 X59.24 Y47.926
G1 F4800 X52.074 Y40.76 E122.64619
G1 X52.004 Y40.69
G0 F7200 X52.004 Y40.91
G0 X53.582 Y40.91
G0 X53.582 Y40.76
G1 F4800 X40.76 Y53.582 E122.71441
G1 X40.69 Y53.652
G0 F7200 X40.91 Y53.652
G0 X40.91 Y52.073
G0 X40.76 Y52.073
G1 F4800 X47.926 Y59.24 E122.75253
G1 X47.996 Y59.31
G0 F7200 X47.996 Y59.09
G0 X46.416 Y59.09
G0 X46.416 Y59.24
G1 F4800 X59.24 Y46.416 E122.82076
G1 X59.31 Y46.346
G0 F7200 X59.09 Y46.346
G0 X59.09 Y42.269
G0 X59.24 Y42.269
G1 F4800 X57.731 Y40.76 E122.82879
G1 X57.661 Y40.69
G0 F7200 X57.661 Y40.91
G0 X59.12 Y40.88
G0 X59.239 Y40.76
G1 F4800 X40.76 Y59.239 E122.92711
G1 X40.69 Y59.309
G0 F7200 X40.88 Y59.12
G0 X40.91 Y57.73
G0 X40.76 Y57.73
G1 F4800 X42.269 Y59.24 E122.93514
G1 X42.339 Y59.31
G0 F7200 X42.339 Y59.09
G0 X40.91 Y42.268
G0 X40.76 Y42.268
G1 F4800 X42.269 Y40.76 E122.94317
G1 X42.339 Y40.69
G0 F7200 X42.339 Y40.91
G0 X59.12 Y59.12
G0 X59.4 Y59.4
;TYPE:WALL-INNER
G1 F3600 X59.4 Y40.6 E123.01389
G1 X40.6 Y40.6 E123.08462
G1 X40.6 Y59.4 E123.15535
G1 X59.4 Y59.4 E123.22608
G0 F7200 X59.8 Y59.8
;TYPE:WALL-OUTER
G1 F1800 X59.8 Y40.2 E123.29981
G1 X40.2 Y40.2 E123.37355
G1 X40.2 Y59.8 E123.44729
G1 X59.8 Y59.8 E123.52103
G0 F7200 X59.8 Y59.6
G0 X58.79 Y58.908
;MESH:NONMESH
G0 F600 X58.79 Y58.908 Z1.92
G0 F7200 X40.88 Y40.88
G0 X40.76 Y40.76
;TIME_ELAPSED:1048.356493
;LAYER:27
;TYPE:FILL
;MESH:20mm cube.stl
G1 F4800 X59.24 Y59.24 E123.61935
G1 X59.31 Y59.31
G0 F7200 X59.12 Y59.12
G0 X57.73 Y59.09
G0 X57.73 Y59.24
G1 F4800 X59.24 Y57.73 E123.62738
G1 X59.31 Y57.66
