;FLAVOR:Marlin
;TIME:61
;Filament used: 0.00974418m
;Layer height: 0.15
;MINX:42.794
;MINY:42.808
;MINZ:0.3
;MAXX:57.224
;MAXY:57.196
;MAXZ:3.45
;TARGET_MACHINE.NAME:Unknown
;Generated with Cura_SteamEngine 5.10.2
M104 S200
M105
M109 S200
G21 ; set units to mm
G90 ; absolute positioning
M82 ; force absolute extrusion
M5  ; laser OFF safety
G0 X0 Y0 ; reset origin
M82 ;absolute extrusion mode
G92 E0
G92 E0
G1 F1500 E-6.5
;LAYER_COUNT:22
;LAYER:0
M107
G0 F3600 X45.273 Y44.577 Z0.3
;TYPE:SKIRT
G1 F1500 E0
G1 F1800 X45.889 Y44.082 E0.01486
G1 X47.12 Y43.355 E0.04176
G1 X48.448 Y42.954 E0.06785
G1 X49.416 Y42.817 E0.08624
G1 X50.235 Y42.808 E0.10165
G1 X51.374 Y42.924 E0.12318
G1 X52.447 Y43.186 E0.14396
G1 X53.596 Y43.764 E0.16816
G1 X54.195 Y44.14 E0.18146
G1 X54.734 Y44.579 E0.19454
G1 X55.538 Y45.399 E0.21614
G1 X56.042 Y46.071 E0.23194
G1 X56.504 Y46.899 E0.24977
G1 X56.769 Y47.528 E0.26261
G1 X57.087 Y48.666 E0.28484
G1 X57.224 Y49.59 E0.30241
G1 X57.172 Y50.719 E0.32367
G1 X56.991 Y51.754 E0.34343
G1 X56.672 Y52.726 E0.36268
G1 X56.224 Y53.623 E0.38154
G1 X55.733 Y54.364 E0.39826
G1 X55.096 Y55.072 E0.41617
G1 X54.211 Y55.873 E0.43863
G1 X53.094 Y56.508 E0.4628
G1 X52.236 Y56.849 E0.48016
G1 X50.977 Y57.18 E0.50465
G1 X49.943 Y57.196 E0.5241
G1 X48.783 Y57.085 E0.54602
G1 X47.917 Y56.892 E0.56271
G1 X47.274 Y56.652 E0.57562
G1 X46.521 Y56.296 E0.59129
G1 X45.912 Y55.933 E0.60463
G1 X45.174 Y55.33 E0.62255
G1 X44.239 Y54.396 E0.64741
G1 X43.562 Y53.235 E0.67269
G1 X43.17 Y52.297 E0.69182
G1 X42.86 Y51.205 E0.71317
G1 X42.794 Y49.871 E0.73829
G1 X42.859 Y49.049 E0.7538
G1 X43.087 Y47.952 E0.77488
G1 X43.326 Y47.292 E0.78808
G1 X43.758 Y46.41 E0.80656
G1 X44.257 Y45.591 E0.8246
G1 X45.273 Y44.577 E0.8516
G0 F3600 X45.556 Y44.86
G1 F1800 X46.139 Y44.394 E0.86564
G1 X47.279 Y43.725 E0.8905
G1 X48.506 Y43.35 E0.91464
G1 X49.42 Y43.217 E0.93201
G1 X50.239 Y43.208 E0.94742
G1 X51.279 Y43.313 E0.96708
G1 X52.309 Y43.564 E0.98702
G1 X53.383 Y44.103 E1.00963
G1 X53.982 Y44.479 E1.02293
G1 X54.448 Y44.859 E1.03424
G1 X55.252 Y45.679 E1.05584
G1 X55.693 Y46.267 E1.06967
G1 X56.135 Y47.054 E1.08665
G1 X56.4 Y47.683 E1.09949
G1 X56.691 Y48.725 E1.11984
G1 X56.822 Y49.61 E1.13667
G1 X56.772 Y50.701 E1.15721
G1 X56.61 Y51.631 E1.17497
G1 X56.314 Y52.547 E1.19307
G1 X55.866 Y53.444 E1.21194
G1 X55.435 Y54.097 E1.22665
G1 X54.828 Y54.775 E1.24377
G1 X53.976 Y55.546 E1.26539
G1 X52.896 Y56.16 E1.28875
G1 X52.134 Y56.462 E1.30417
G1 X50.922 Y56.781 E1.32775
G1 X49.937 Y56.796 E1.34628
G1 X48.868 Y56.694 E1.36648
G1 X48.056 Y56.517 E1.38211
G1 X47.444 Y56.29 E1.39439
G1 X46.726 Y55.952 E1.40932
G1 X46.117 Y55.589 E1.42265
G1 X45.457 Y55.047 E1.43872
G1 X44.56 Y54.151 E1.46257
G1 X43.908 Y53.033 E1.48691
G1 X43.555 Y52.188 E1.50414
G1 X43.257 Y51.137 E1.52469
G1 X43.193 Y49.901 E1.54797
G1 X43.251 Y49.129 E1.56253
G1 X43.464 Y48.087 E1.58254
G1 X43.686 Y47.467 E1.59492
G1 X44.1 Y46.618 E1.61269
G1 X44.574 Y45.84 E1.62983
G1 X45.556 Y44.86 E1.65593
G0 F3600 X45.808 Y45.171
G1 F1800 X46.342 Y44.739 E1.66885
G1 X47.44 Y44.094 E1.6928
G1 X48.623 Y43.733 E1.71607
G1 X49.424 Y43.617 E1.73129
G1 X50.243 Y43.608 E1.7467
G1 X51.184 Y43.702 E1.76449
G1 X52.171 Y43.942 E1.78359
G1 X53.17 Y44.442 E1.80461
G1 X53.769 Y44.818 E1.81791
G1 X54.194 Y45.168 E1.82827
G1 X54.933 Y45.921 E1.84811
G1 X55.344 Y46.463 E1.86091
G1 X55.786 Y47.25 E1.87789
G1 X56.015 Y47.792 E1.88895
G1 X56.295 Y48.783 E1.90833
G1 X56.42 Y49.629 E1.92441
G1 X56.372 Y50.683 E1.94426
G1 X56.229 Y51.51 E1.96005
G1 X55.956 Y52.368 E1.97698
G1 X55.508 Y53.265 E1.99584
G1 X55.102 Y53.875 E2.00963
G1 X54.56 Y54.478 E2.02488
G1 X53.741 Y55.219 E2.04565
G1 X52.698 Y55.812 E2.06822
G1 X52.032 Y56.075 E2.08169
G1 X50.867 Y56.382 E2.10435
G1 X49.931 Y56.396 E2.12196
G1 X48.953 Y56.303 E2.14044
G1 X48.141 Y56.126 E2.15608
G1 X47.614 Y55.928 E2.16667
G1 X46.931 Y55.608 E2.18085
G1 X46.322 Y55.245 E2.19419
G1 X45.74 Y54.764 E2.20839
G1 X44.881 Y53.906 E2.23123
G1 X44.254 Y52.831 E2.25464
G1 X43.94 Y52.079 E2.26997
G1 X43.654 Y51.069 E2.28971
G1 X43.592 Y49.931 E2.31115
G1 X43.65 Y49.159 E2.32572
G1 X43.841 Y48.222 E2.3437
G1 X44.063 Y47.602 E2.35609
G1 X44.442 Y46.826 E2.37234
G1 X44.891 Y46.089 E2.38857
G1 X45.808 Y45.171 E2.41298
G0 F3600 X46.091 Y45.454
G1 F1800 X46.545 Y45.084 E2.42399
G1 X47.601 Y44.463 E2.44704
G1 X48.74 Y44.116 E2.46944
G1 X49.428 Y44.017 E2.48251
G1 X50.247 Y44.008 E2.49792
G1 X51.089 Y44.091 E2.51383
G1 X52.033 Y44.321 E2.53211
G1 X52.991 Y44.8 E2.55226
G1 X53.555 Y45.156 E2.5648
G1 X53.938 Y45.475 E2.57418
G1 X54.616 Y46.165 E2.59238
G1 X54.996 Y46.66 E2.60411
G1 X55.418 Y47.407 E2.62025
G1 X55.63 Y47.902 E2.63038
G1 X55.899 Y48.841 E2.64876
G1 X56.018 Y49.648 E2.6641
G1 X55.972 Y50.665 E2.68325
G1 X55.847 Y51.391 E2.69711
G1 X55.598 Y52.189 E2.71283
G1 X55.15 Y53.086 E2.73169
G1 X54.804 Y53.608 E2.74347
G1 X54.292 Y54.181 E2.75793
G1 X53.506 Y54.892 E2.77786
G1 X52.5 Y55.464 E2.79963
G1 X51.93 Y55.688 E2.81115
G1 X50.812 Y55.983 E2.8329
G1 X49.925 Y55.996 E2.84959
G1 X49.036 Y55.912 E2.86639
G1 X48.281 Y55.751 E2.88091
G1 X47.783 Y55.565 E2.89091
G1 X47.136 Y55.264 E2.90433
G1 X46.527 Y54.901 E2.91767
G1 X46.023 Y54.481 E2.93001
G1 X45.2 Y53.659 E2.95189
G1 X44.6 Y52.63 E2.97429
G1 X44.325 Y51.97 E2.98774
G1 X44.051 Y51.001 E3.00669
G1 X43.991 Y49.961 E3.02628
G1 X44.049 Y49.189 E3.04084
G1 X44.218 Y48.357 E3.05681
G1 X44.44 Y47.737 E3.0692
G1 X44.784 Y47.034 E3.08392
G1 X45.208 Y46.338 E3.09925
G1 X46.091 Y45.454 E3.12276
G0 F3600 X46.347 Y45.762
G1 F1800 X46.748 Y45.429 E3.13256
G1 X47.765 Y44.831 E3.15475
G1 X48.799 Y44.512 E3.17511
G1 X49.432 Y44.417 E3.18715
G1 X50.251 Y44.408 E3.20256
G1 X50.994 Y44.48 E3.2166
G1 X51.897 Y44.7 E3.23408
G1 X52.78 Y45.14 E3.25264
G1 X53.299 Y45.463 E3.26414
G1 X53.682 Y45.782 E3.27351
G1 X54.3 Y46.411 E3.2901
G1 X54.648 Y46.858 E3.30076
G1 X55.05 Y47.564 E3.31604
G1 X55.262 Y48.059 E3.32617
G1 X55.503 Y48.899 E3.34261
G1 X55.616 Y49.667 E3.35721
G1 X55.572 Y50.647 E3.37566
G1 X55.464 Y51.275 E3.38765
G1 X55.24 Y52.011 E3.40212
G1 X54.815 Y52.867 E3.4201
G1 X54.505 Y53.342 E3.43077
G1 X54.024 Y53.884 E3.4444
G1 X53.27 Y54.566 E3.46352
G1 X52.352 Y55.092 E3.48342
G1 X51.828 Y55.301 E3.49403
G1 X50.757 Y55.584 E3.51487
G1 X49.919 Y55.596 E3.53064
G1 X49.075 Y55.514 E3.54659
G1 X48.42 Y55.376 E3.55918
G1 X47.951 Y55.202 E3.56859
G1 X47.338 Y54.919 E3.58129
G1 X46.782 Y54.593 E3.59341
G1 X46.306 Y54.198 E3.60505
G1 X45.519 Y53.412 E3.62597
G1 X44.946 Y52.429 E3.64737
G1 X44.71 Y51.861 E3.65894
G1 X44.447 Y50.932 E3.67711
G1 X44.39 Y49.991 E3.69484
G1 X44.448 Y49.219 E3.7094
G1 X44.595 Y48.492 E3.72335
G1 X44.817 Y47.872 E3.73574
G1 X45.126 Y47.242 E3.74894
G1 X45.527 Y46.584 E3.76343
G1 X46.347 Y45.762 E3.78528
G0 F3600 X46.603 Y46.07
G1 F1800 X47.004 Y45.737 E3.79508
G1 X47.927 Y45.2 E3.81517
G1 X48.858 Y44.908 E3.83352
G1 X49.491 Y44.813 E3.84556
G1 X50.254 Y44.808 E3.85991
G1 X50.899 Y44.869 E3.8721
G1 X51.761 Y45.079 E3.88879
G1 X52.571 Y45.481 E3.9058
G1 X53.044 Y45.771 E3.91624
G1 X53.397 Y46.063 E3.92485
G1 X53.984 Y46.657 E3.94056
G1 X54.332 Y47.104 E3.95122
G1 X54.682 Y47.721 E3.96456
G1 X54.894 Y48.216 E3.97469
G1 X55.107 Y48.957 E3.98919
G1 X55.214 Y49.686 E4.00305
G1 X55.172 Y50.629 E4.02081
G1 X55.081 Y51.161 E4.03096
G1 X54.881 Y51.834 E4.04417
G1 X54.48 Y52.648 E4.06124
G1 X54.17 Y53.123 E4.07191
G1 X53.756 Y53.587 E4.0836
G1 X53.032 Y54.242 E4.10197
G1 X52.202 Y54.721 E4.12
G1 X51.726 Y54.914 E4.12966
G1 X50.702 Y55.185 E4.14958
G1 X49.913 Y55.196 E4.16443
G1 X49.155 Y55.122 E4.17875
G1 X48.559 Y55.001 E4.19019
G1 X48.09 Y54.827 E4.1996
G1 X47.537 Y54.572 E4.21106
G1 X47.037 Y54.285 E4.2219
G1 X46.589 Y53.915 E4.23283
G1 X45.837 Y53.164 E4.25282
G1 X45.315 Y52.274 E4.27223
G1 X45.095 Y51.752 E4.28289
G1 X44.843 Y50.863 E4.30027
G1 X44.789 Y50.021 E4.31614
G1 X44.847 Y49.249 E4.3307
G1 X44.972 Y48.626 E4.34265
G1 X45.177 Y48.047 E4.35421
G1 X45.468 Y47.45 E4.3667
G1 X45.846 Y46.83 E4.38036
G1 X46.603 Y46.07 E4.40054
G0 F3600 X46.862 Y46.375
G1 F1800 X47.205 Y46.083 E4.40901
G1 X48.09 Y45.568 E4.42827
G1 X48.917 Y45.304 E4.4446
G1 X49.55 Y45.209 E4.45664
G1 X50.255 Y45.208 E4.4699
G1 X50.86 Y45.267 E4.48134
G1 X51.624 Y45.457 E4.49615
G1 X52.365 Y45.824 E4.5117
G1 X52.79 Y46.08 E4.52103
G1 X53.113 Y46.345 E4.52889
G1 X53.671 Y46.906 E4.54378
G1 X53.985 Y47.302 E4.55328
G1 X54.314 Y47.878 E4.56576
G1 X54.526 Y48.373 E4.57589
G1 X54.711 Y49.015 E4.58846
G1 X54.812 Y49.705 E4.60158
G1 X54.772 Y50.611 E4.61864
G1 X54.687 Y51.091 E4.6278
G1 X54.522 Y51.658 E4.63891
G1 X54.143 Y52.432 E4.65512
G1 X53.87 Y52.858 E4.66464
G1 X53.488 Y53.29 E4.67549
G1 X52.796 Y53.916 E4.69304
G1 X52.049 Y54.351 E4.7093
G1 X51.624 Y54.527 E4.71796
G1 X50.647 Y54.786 E4.73697
G1 X49.952 Y54.798 E4.75004
G1 X49.194 Y54.724 E4.76437
G1 X48.698 Y54.626 E4.77388
G1 X48.229 Y54.452 E4.78329
G1 X47.732 Y54.223 E4.79358
G1 X47.291 Y53.976 E4.80309
G1 X46.872 Y53.632 E4.81329
G1 X46.154 Y52.915 E4.83238
G1 X45.684 Y52.119 E4.84976
G1 X45.464 Y51.597 E4.86042
G1 X45.239 Y50.795 E4.87609
G1 X45.188 Y50.05 E4.89013
G1 X45.24 Y49.325 E4.90381
G1 X45.35 Y48.758 E4.91467
G1 X45.537 Y48.222 E4.92535
G1 X45.828 Y47.625 E4.93784
G1 X46.162 Y47.08 E4.94987
G1 X46.862 Y46.375 E4.96856
G1 F1500 E-1.53144
;MESH:15977_Sphere_with_Grid_v1.obj
G0 F3600 X48.66 Y48.563
G0 X50.296 Y50.591
;TYPE:WALL-INNER
G1 F1500 E4.96856
G1 F1800 X50.496 Y50.439 E4.97328
G1 X50.62 Y50.224 E4.97795
G1 X50.658 Y49.864 E4.98476
G1 X50.486 Y49.55 E4.99149
G1 X50.226 Y49.378 E4.99736
G1 X49.867 Y49.338 E5.00415
G1 X49.697 Y49.409 E5.00762
G1 X49.504 Y49.557 E5.01219
G1 X49.397 Y49.723 E5.01591
G1 X49.337 Y50.129 E5.02363
G1 X49.408 Y50.3 E5.02711
G1 X49.561 Y50.498 E5.03182
G1 X49.772 Y50.62 E5.0364
G1 X50.132 Y50.658 E5.04321
G1 X50.296 Y50.591 E5.04654
G0 F3600 X50.562 Y50.875
;TYPE:WALL-OUTER
G1 F1800 X50.653 Y50.847 E5.04833
G1 X50.851 Y50.649 E5.0536
G1 X51.031 Y50.278 E5.06136
G1 X51.059 Y49.787 E5.07061
G1 X50.924 Y49.458 E5.0773
G1 X50.875 Y49.434 E5.07833
G1 X50.847 Y49.344 E5.0801
G1 X50.65 Y49.149 E5.08531
G1 X50.278 Y48.965 E5.09312
G1 X49.788 Y48.937 E5.10235
G1 X49.346 Y49.15 E5.11158
G1 X49.149 Y49.347 E5.11682
G1 X48.965 Y49.718 E5.12461
G1 X48.937 Y50.208 E5.13384
G1 X49.15 Y50.651 E5.14309
G1 X49.348 Y50.851 E5.14838
G1 X49.718 Y51.031 E5.15612
G1 X50.209 Y51.059 E5.16537
G1 X50.538 Y50.924 E5.17206
G1 X50.562 Y50.875 E5.17309
G0 F3600 X50.653 Y50.847
G0 X50.727 Y50.773
G0 X50.175 Y50.161
;TYPE:SKIN
G1 F1561.8 X50.051 Y50.236 E5.17623
G1 X49.892 Y50.215 E5.17971
G1 X49.756 Y50.044 E5.18445
G1 X49.821 Y49.831 E5.18927
G1 X49.948 Y49.756 E5.19247
G1 X50.165 Y49.824 E5.1974
G1 X50.237 Y49.944 E5.20043
G1 X50.175 Y50.161 E5.20533
G1 F1500 E-1.29467
;MESH:NONMESH
G0 F600 X50.175 Y50.161 Z0.45
G0 F3600 X49.388 Y49.431
G0 X48.66 Y48.563
G0 X46.862 Y46.375
;TIME_ELAPSED:13.437282
;LAYER:1
;note -- min layer time used
M106 S255
;TYPE:SKIRT
G1 F1500 E5.20533
G1 F1098.5 X47.205 Y46.083 E5.20956
G1 X48.09 Y45.568 E5.21919
G1 X48.917 Y45.304 E5.22736
G1 X49.55 Y45.209 E5.23338
G1 X50.255 Y45.208 E5.24001
G1 X50.86 Y45.267 E5.24573
G1 X51.624 Y45.457 E5.25313
G1 X52.365 Y45.824 E5.26091
G1 X52.79 Y46.08 E5.26558
G1 X53.113 Y46.345 E5.26951
G1 X53.671 Y46.906 E5.27695
G1 X53.985 Y47.302 E5.2817
G1 X54.314 Y47.878 E5.28794
G1 X54.526 Y48.373 E5.293
G1 X54.711 Y49.015 E5.29929
G1 X54.812 Y49.705 E5.30585
G1 X54.772 Y50.611 E5.31438
G1 X54.687 Y51.091 E5.31896
G1 X54.522 Y51.658 E5.32451
G1 X54.143 Y52.432 E5.33262
G1 X53.87 Y52.858 E5.33738
G1 X53.488 Y53.29 E5.3428
G1 X52.796 Y53.916 E5.35158
G1 X52.049 Y54.351 E5.35971
G1 X51.624 Y54.527 E5.36404
G1 X50.647 Y54.786 E5.37354
G1 X49.952 Y54.798 E5.38008
G1 X49.194 Y54.724 E5.38724
G1 X48.698 Y54.626 E5.392
G1 X48.229 Y54.452 E5.3967
G1 X47.732 Y54.223 E5.40185
G1 X47.291 Y53.976 E5.4066
G1 X46.872 Y53.632 E5.4117
G1 X46.154 Y52.915 E5.42125
G1 X45.684 Y52.119 E5.42994
G1 X45.464 Y51.597 E5.43527
G1 X45.239 Y50.795 E5.4431
G1 X45.188 Y50.05 E5.45013
G1 X45.24 Y49.325 E5.45696
G1 X45.35 Y48.758 E5.46239
G1 X45.537 Y48.222 E5.46773
G1 X45.828 Y47.625 E5.47398
G1 X46.162 Y47.08 E5.47999
G1 X46.862 Y46.375 E5.48934
G1 F1500 E-1.01066
;MESH:15977_Sphere_with_Grid_v1.obj
G0 F5400 X48.485 Y48.486
G0 X49.31 Y49.199
G0 X50.459 Y50.323
G0 X50.542 Y50.701
;TYPE:WALL-INNER
G1 F1500 E5.48934
G1 F1098.5 X50.822 Y50.353 E5.49354
G1 X50.88 Y50.105 E5.49593
G1 X50.854 Y49.761 E5.49918
G1 X50.701 Y49.454 E5.5024
G1 X50.355 Y49.176 E5.50658
G1 X50.099 Y49.117 E5.50905
G1 X49.761 Y49.142 E5.51224
G1 X49.454 Y49.295 E5.51546
G1 X49.17 Y49.648 E5.51972
G1 X49.116 Y49.884 E5.522
G1 X49.142 Y50.234 E5.5253
G1 X49.295 Y50.542 E5.52854
G1 X49.643 Y50.822 E5.53274
G1 X49.891 Y50.881 E5.53513
G1 X50.234 Y50.854 E5.53837
G1 X50.542 Y50.701 E5.54161
G0 F5400 X50.247 Y51.286
;TYPE:WALL-OUTER
G1 F1098.5 X50.769 Y51.039 E5.54704
G1 X51.038 Y50.77 E5.55061
G1 X51.178 Y50.547 E5.55309
G1 X51.257 Y50.323 E5.55532
G1 X51.285 Y49.747 E5.56075
G1 X51.039 Y49.227 E5.56616
G1 X50.77 Y48.958 E5.56974
G1 X50.547 Y48.819 E5.57221
G1 X50.325 Y48.743 E5.57442
G1 X49.743 Y48.712 E5.5799
G1 X49.227 Y48.957 E5.58527
G1 X48.958 Y49.226 E5.58885
G1 X48.814 Y49.454 E5.59138
G1 X48.74 Y49.669 E5.59352
G1 X48.713 Y50.254 E5.59903
G1 X48.957 Y50.769 E5.60439
G1 X49.226 Y51.038 E5.60797
G1 X49.449 Y51.178 E5.61044
G1 X49.673 Y51.257 E5.61268
G1 X50.247 Y51.286 E5.61808
G0 F5400 X50.427 Y51.201
G0 X50.427 Y50.319
G0 X50.065 Y50.001
;TYPE:SKIN
G1 F784.7 X50.03 Y50.062 E5.61901
G1 X49.96 Y50.062 E5.61993
G1 X49.925 Y50.001 E5.62086
G1 X49.96 Y49.94 E5.62178
G1 X50.03 Y49.94 E5.62271
G1 X50.065 Y50.001 E5.62363
G0 F5400 X50.242 Y50.432
G1 F1098.5 X50.036 Y50.495 E5.62566
G1 X49.803 Y50.466 E5.62787
G1 X49.56 Y50.242 E5.63097
G1 X49.499 Y50.043 E5.63293
G1 X49.522 Y49.81 E5.63513
G1 X49.676 Y49.614 E5.63748
G1 X49.96 Y49.501 E5.64035
G1 X50.181 Y49.525 E5.64244
G1 X50.39 Y49.688 E5.64494
G1 X50.497 Y49.944 E5.64755
G1 X50.466 Y50.189 E5.64987
G1 X50.242 Y50.432 E5.65298
G1 F1500 E-0.84702
;MESH:NONMESH
G0 F600 X50.242 Y50.432 Z0.6
G0 F5400 X50.362 Y50.295
G0 X49.31 Y49.199
G0 X48.485 Y48.486
G0 X46.862 Y46.375
;TIME_ELAPSED:17.411671
;LAYER:2
;note -- min layer time used
;TYPE:SKIRT
G1 F1500 E5.65298
G1 F1157.5 X47.205 Y46.083 E5.65721
G1 X48.09 Y45.568 E5.66684
G1 X48.917 Y45.304 E5.67501
G1 X49.55 Y45.209 E5.68103
G1 X50.255 Y45.208 E5.68766
G1 X50.86 Y45.267 E5.69338
G1 X51.624 Y45.457 E5.70078
G1 X52.365 Y45.824 E5.70856
G1 X52.79 Y46.08 E5.71323
G1 X53.113 Y46.345 E5.71716
G1 X53.671 Y46.906 E5.7246
G1 X53.985 Y47.302 E5.72935
G1 X54.314 Y47.878 E5.73559
G1 X54.526 Y48.373 E5.74065
G1 X54.711 Y49.015 E5.74694
G1 X54.812 Y49.705 E5.7535
G1 X54.772 Y50.611 E5.76203
G1 X54.687 Y51.091 E5.76661
G1 X54.522 Y51.658 E5.77217
G1 X54.143 Y52.432 E5.78027
G1 X53.87 Y52.858 E5.78503
G1 X53.488 Y53.29 E5.79045
G1 X52.796 Y53.916 E5.79923
G1 X52.049 Y54.351 E5.80736
G1 X51.624 Y54.527 E5.81169
G1 X50.647 Y54.786 E5.82119
G1 X49.952 Y54.798 E5.82773
G1 X49.194 Y54.724 E5.83489
G1 X48.698 Y54.626 E5.83965
G1 X48.229 Y54.452 E5.84435
G1 X47.732 Y54.223 E5.8495
G1 X47.291 Y53.976 E5.85425
G1 X46.872 Y53.632 E5.85935
G1 X46.154 Y52.915 E5.8689
G1 X45.684 Y52.119 E5.87759
G1 X45.464 Y51.597 E5.88292
G1 X45.239 Y50.795 E5.89075
G1 X45.188 Y50.05 E5.89778
G1 X45.24 Y49.325 E5.90461
G1 X45.35 Y48.758 E5.91004
G1 X45.537 Y48.222 E5.91538
G1 X45.828 Y47.625 E5.92163
G1 X46.162 Y47.08 E5.92764
G1 X46.862 Y46.375 E5.93699
G1 F1500 E-0.56301
;MESH:15977_Sphere_with_Grid_v1.obj
G0 F7200 X48.565 Y48.238
G0 X49.337 Y49.013
G0 X50.392 Y50.58
G0 X50.556 Y50.846
;TYPE:WALL-INNER
G1 F1500 E5.93699
G1 F1157.5 X50.832 Y50.574 E5.94063
G1 X50.957 Y50.314 E5.94334
G1 X51.01 Y49.926 E5.94703
G1 X50.945 Y49.625 E5.94992
G1 X50.844 Y49.437 E5.95193
G1 X50.574 Y49.164 E5.95554
G1 X50.314 Y49.039 E5.95826
G1 X49.929 Y48.989 E5.96191
G1 X49.682 Y49.035 E5.96427
G1 X49.438 Y49.151 E5.96681
G1 X49.164 Y49.426 E5.97046
G1 X49.039 Y49.683 E5.97315
G1 X48.989 Y50.067 E5.97679
G1 X49.052 Y50.377 E5.97977
G1 X49.153 Y50.56 E5.98173
G1 X49.427 Y50.832 E5.98536
G1 X49.688 Y50.961 E5.9881
G1 X50.095 Y51.003 E5.99195
G1 X50.382 Y50.944 E5.99471
G1 X50.556 Y50.846 E5.99658
G0 F7200 X50.538 Y51.314
;TYPE:WALL-OUTER
G1 F1157.5 X50.798 Y51.17 E5.99938
G1 X51.162 Y50.81 E6.0042
G1 X51.351 Y50.419 E6.00828
G1 X51.414 Y49.872 E6.01346
G1 X51.315 Y49.467 E6.01738
G1 X51.169 Y49.197 E6.02027
G1 X50.81 Y48.834 E6.02507
G1 X50.419 Y48.645 E6.02915
G1 X49.873 Y48.586 E6.03432
G1 X49.459 Y48.686 E6.03832
G1 X49.197 Y48.827 E6.04112
G1 X48.834 Y49.19 E6.04595
G1 X48.645 Y49.577 E6.05
G1 X48.586 Y50.123 E6.05517
G1 X48.682 Y50.533 E6.05913
G1 X48.83 Y50.802 E6.06201
G1 X49.191 Y51.162 E6.06681
G1 X49.576 Y51.352 E6.07085
G1 X50.135 Y51.409 E6.07613
G1 X50.538 Y51.314 E6.08003
G0 F7200 X50.713 Y51.218
G0 X50.393 Y50.582
G0 X50.171 Y50.121
;TYPE:SKIN
G1 F1157.5 X50.095 Y50.198 E6.08104
G1 X49.929 Y50.198 E6.08261
G1 X49.794 Y50.087 E6.08425
G1 X49.819 Y49.873 E6.08628
G1 X49.918 Y49.785 E6.08752
G1 X50.123 Y49.821 E6.08948
G1 X50.212 Y49.961 E6.09104
G1 X50.171 Y50.121 E6.09259
G0 F7200 X50.242 Y50.585
G1 F1157.5 X50.067 Y50.617 E6.09427
G1 X49.79 Y50.588 E6.09689
G1 X49.655 Y50.519 E6.09831
G1 X49.455 Y50.323 E6.10095
G1 X49.371 Y50.032 E6.10379
G1 X49.475 Y49.649 E6.10753
G1 X49.669 Y49.459 E6.11008
G1 X49.96 Y49.372 E6.11294
G1 X50.205 Y49.41 E6.11527
G1 X50.347 Y49.475 E6.11674
G1 X50.533 Y49.664 E6.11923
G1 X50.624 Y49.956 E6.12211
G1 X50.586 Y50.204 E6.12447
G1 X50.518 Y50.345 E6.12594
G1 X50.242 Y50.585 E6.12938
G0 F7200 X50.163 Y50.34
;MESH:NONMESH
G0 F600 X50.163 Y50.34 Z0.75
G0 F7200 X50.601 Y50.932
;TIME_ELAPSED:21.074764
;LAYER:3
;note -- min layer time used
;TYPE:WALL-INNER
;MESH:15977_Sphere_with_Grid_v1.obj
G1 F600 X50.819 Y50.745 E6.13208
G1 X51.004 Y50.469 E6.13521
G1 X51.084 Y50.16 E6.13821
G1 X51.086 Y49.769 E6.14189
G1 X50.932 Y49.395 E6.14569
G1 X50.747 Y49.179 E6.14837
G1 X50.468 Y48.995 E6.15151
G1 X50.305 Y48.939 E6.15313
G1 X49.773 Y48.909 E6.15814
G1 X49.395 Y49.065 E6.16199
G1 X49.179 Y49.252 E6.16467
G1 X48.995 Y49.529 E6.1678
G1 X48.912 Y49.836 E6.17079
G1 X48.909 Y50.223 E6.17443
G1 X49.065 Y50.601 E6.17828
G1 X49.254 Y50.818 E6.18099
G1 X49.529 Y51.004 E6.18411
G1 X49.97 Y51.107 E6.18837
G1 X50.362 Y51.051 E6.19209
G1 X50.601 Y50.932 E6.1946
G0 F7200 X50.504 Y51.427
;TYPE:WALL-OUTER
G1 F600 X50.824 Y51.268 E6.19796
G1 X51.121 Y51.013 E6.20165
G1 X51.366 Y50.647 E6.20579
G1 X51.484 Y50.294 E6.20929
G1 X51.487 Y49.718 E6.21471
G1 X51.427 Y49.492 E6.21691
G1 X51.268 Y49.172 E6.22027
G1 X51.014 Y48.876 E6.22393
G1 X50.646 Y48.633 E6.22808
G1 X50.23 Y48.512 E6.23216
G1 X49.719 Y48.509 E6.23696
G1 X49.492 Y48.572 E6.23918
G1 X49.172 Y48.729 E6.24253
G1 X48.876 Y48.986 E6.24622
G1 X48.633 Y49.35 E6.25033
G1 X48.512 Y49.766 E6.25441
G1 X48.509 Y50.277 E6.25922
G1 X48.572 Y50.504 E6.26143
G1 X48.729 Y50.824 E6.26478
G1 X48.986 Y51.12 E6.26847
G1 X49.35 Y51.366 E6.2726
G1 X49.934 Y51.51 E6.27826
G1 X50.271 Y51.489 E6.28144
G1 X50.504 Y51.427 E6.2837
G0 F7200 X50.683 Y51.338
G0 X50.239 Y50.686
;TYPE:SKIN
G1 F600 X49.993 Y50.721 E6.28604
G1 X49.689 Y50.652 E6.28897
G1 X49.51 Y50.532 E6.291
G1 X49.385 Y50.388 E6.29279
G1 X49.289 Y50.16 E6.29512
G1 X49.292 Y49.895 E6.29761
G1 X49.346 Y49.687 E6.29963
G1 X49.605 Y49.384 E6.30338
G1 X49.832 Y49.289 E6.3057
G1 X50.098 Y49.292 E6.3082
G1 X50.306 Y49.342 E6.31021
G1 X50.493 Y49.467 E6.31233
G1 X50.607 Y49.602 E6.31399
G1 X50.704 Y49.829 E6.31631
G1 X50.704 Y50.1 E6.31886
G1 X50.654 Y50.305 E6.32084
G1 X50.529 Y50.49 E6.32294
G1 X50.239 Y50.686 E6.32623
G0 F7200 X50.464 Y50.228
G1 F600 X50.246 Y50.446 E6.32913
G0 F7200 X49.711 Y50.415
G1 F600 X50.427 Y49.7 E6.33865
G0 F7200 X50.051 Y49.509
G1 F600 X49.496 Y50.065 E6.34604
G0 F7200 X49.709 Y49.555
;MESH:NONMESH
G0 F600 X49.709 Y49.555 Z0.9
G0 F7200 X49.697 Y49.625
G0 X50.036 Y50.823
G0 X50.368 Y51.471
;TIME_ELAPSED:23.611605
;LAYER:4
;note -- min layer time used
;TYPE:WALL-OUTER
;MESH:15977_Sphere_with_Grid_v1.obj
G1 F456.3 X50.083 Y51.524 E6.34963
G1 F451.1 X49.668 Y51.483 E6.35484
G1 F452.8 X49.221 Y51.306 E6.36083
G1 F457.1 X48.863 Y51.02 E6.36649
G1 F454.5 X48.72 Y50.828 E6.36946
G1 F457.1 X48.49 Y50.211 E6.37759
G1 F452.8 X48.511 Y49.679 E6.38423
G1 X48.695 Y49.217 E6.39042
G1 F458 X48.976 Y48.863 E6.39599
G1 F454.5 X49.168 Y48.72 E6.39896
G1 F457.1 X49.785 Y48.49 E6.40709
G1 F452.8 X50.317 Y48.511 E6.41373
G1 X50.783 Y48.697 E6.41998
G1 F458 X51.134 Y48.977 E6.42551
G1 F453.7 X51.28 Y49.17 E6.42852
G1 F454.5 X51.471 Y49.628 E6.43468
G1 F452 X51.519 Y50.074 E6.44028
G1 F446.1 X51.485 Y50.317 E6.44339
G1 F452.8 X51.299 Y50.783 E6.44964
G1 F458 X51.019 Y51.134 E6.45517
G1 F454.5 X50.826 Y51.28 E6.45818
G1 X50.368 Y51.471 E6.46434
G0 F7200 X50.172 Y51.507
G0 X50.484 Y50.867
G1 F458 X50.653 Y50.753 E6.46685
G1 F459.8 X50.883 Y50.456 E6.47146
G1 F461.5 X50.992 Y49.898 E6.47841
G1 F459.8 X50.867 Y49.512 E6.48339
G1 F458 X50.753 Y49.343 E6.4859
G1 F459.8 X50.456 Y49.113 E6.49051
G1 F462.4 X49.902 Y49.004 E6.4974
G1 X49.557 Y49.109 E6.5018
G1 F459.8 X49.342 Y49.245 E6.50493
G1 F458 X49.12 Y49.532 E6.5094
G1 F459.8 X49.004 Y50.094 E6.51644
G1 F462.4 X49.109 Y50.439 E6.52084
G1 F459.8 X49.245 Y50.654 E6.52396
G1 F457.1 X49.535 Y50.879 E6.52849
G1 F458 X50.091 Y50.994 E6.53549
G1 X50.484 Y50.867 E6.54058
G0 F7200 X50.649 Y50.756
;MESH:NONMESH
G0 F600 X50.649 Y50.756 Z1.05
G0 F7200 X50.601 Y51.451
;TIME_ELAPSED:25.803446
;LAYER:5
;note -- min layer time used
;TYPE:WALL-OUTER
;MESH:15977_Sphere_with_Grid_v1.obj
G1 F427 X50.268 Y51.546 E6.54515
G1 F428.6 X50.009 Y51.571 E6.54858
G1 F430.9 X49.537 Y51.503 E6.55483
G1 F430.1 X49.112 Y51.302 E6.561
G1 F427.8 X48.89 Y51.115 E6.56482
G1 F426.3 X48.684 Y50.856 E6.5692
G1 X48.547 Y50.602 E6.57303
G1 F427 X48.45 Y50.268 E6.57762
G1 F428.6 X48.425 Y50.009 E6.58105
G1 F430.9 X48.493 Y49.537 E6.58729
G1 F430.1 X48.694 Y49.112 E6.59346
G1 F428.6 X48.881 Y48.891 E6.59727
G1 F427 X49.143 Y48.684 E6.60169
G1 X49.399 Y48.545 E6.60553
G1 X49.728 Y48.45 E6.61006
G1 F428.6 X49.988 Y48.425 E6.6135
G1 F430.9 X50.463 Y48.493 E6.61978
G1 F430.1 X50.884 Y48.694 E6.6259
G1 F428.6 X51.106 Y48.88 E6.62972
G1 X51.313 Y49.143 E6.63413
G1 X51.452 Y49.399 E6.63796
G1 X51.546 Y49.728 E6.64247
G1 X51.571 Y49.988 E6.64591
G1 F430.9 X51.503 Y50.463 E6.65219
G1 X51.302 Y50.884 E6.6583
G1 F428.6 X51.115 Y51.106 E6.66212
G1 F427.8 X50.856 Y51.313 E6.6665
G1 X50.601 Y51.451 E6.67032
G0 F7200 X50.409 Y51.505
G0 X50.301 Y50.966
G1 F433.2 X50.612 Y50.804 E6.67489
G1 F430.1 X50.833 Y50.576 E6.67905
G1 F430.9 X50.973 Y50.285 E6.68328
G1 X51.011 Y49.984 E6.68726
G1 F429.3 X50.946 Y49.638 E6.69188
G1 F430.1 X50.745 Y49.311 E6.69692
G1 X50.576 Y49.163 E6.69987
G1 X50.285 Y49.023 E6.7041
G1 F430.9 X49.984 Y48.985 E6.70808
G1 F430.1 X49.648 Y49.049 E6.71257
G1 X49.384 Y49.196 E6.71653
G1 F429.3 X49.164 Y49.419 E6.72065
G1 F430.1 X49.023 Y49.713 E6.72493
G1 F430.9 X48.985 Y50.013 E6.72889
G1 F428.6 X49.054 Y50.361 E6.73356
G1 F430.1 X49.223 Y50.65 E6.73795
G1 X49.419 Y50.832 E6.74146
G1 X49.713 Y50.973 E6.74574
G1 F430.9 X50.013 Y51.011 E6.7497
G1 F431.7 X50.301 Y50.966 E6.75351
G0 F7200 X50.478 Y50.874
;MESH:NONMESH
G0 F600 X50.478 Y50.874 Z1.2
G0 F7200 X50.522 Y51.207
;TIME_ELAPSED:28.178976
;LAYER:6
;note -- min layer time used
;TYPE:WALL-INNER
;MESH:15977_Sphere_with_Grid_v1.obj
G1 F652.2 X50.928 Y50.928 E6.75777
G1 X51.207 Y50.522 E6.76203
G1 F661.2 X51.308 Y50.127 E6.76551
G1 F659.3 X51.278 Y49.701 E6.76917
G1 F648.6 X51.11 Y49.296 E6.77298
G1 F643.4 X50.925 Y49.068 E6.77556
G1 F650.4 X50.523 Y48.793 E6.77978
G1 F664.8 X50.125 Y48.688 E6.78328
G1 F661.2 X49.701 Y48.718 E6.78691
G1 F652.2 X49.296 Y48.888 E6.79071
G1 F646.9 X49.067 Y49.073 E6.79328
G1 F648.6 X48.794 Y49.473 E6.79749
G1 F663 X48.688 Y49.871 E6.80099
G1 F661.2 X48.718 Y50.298 E6.80465
G1 F650.4 X48.888 Y50.704 E6.80847
G1 F646.9 X49.07 Y50.929 E6.81099
G1 X49.293 Y51.11 E6.8135
G1 F652.2 X49.723 Y51.285 E6.81751
G1 F659.3 X50.123 Y51.308 E6.82094
G1 X50.522 Y51.207 E6.82447
G0 F7200 X50.657 Y51.567
;TYPE:WALL-OUTER
G1 F600 X50.914 Y51.435 E6.82718
G1 X51.201 Y51.201 E6.83067
G1 X51.435 Y50.914 E6.83415
G1 X51.567 Y50.657 E6.83687
G1 X51.69 Y50.161 E6.84167
G1 X51.658 Y49.632 E6.84666
G1 X51.435 Y49.086 E6.8522
G1 X51.201 Y48.794 E6.85572
G1 X50.914 Y48.562 E6.85919
G1 X50.657 Y48.433 E6.8619
G1 X50.161 Y48.306 E6.86671
G1 X49.632 Y48.338 E6.8717
G1 X49.349 Y48.426 E6.87449
G1 X49.086 Y48.565 E6.87728
G1 X48.794 Y48.796 E6.88079
G1 X48.561 Y49.082 E6.88426
G1 X48.433 Y49.339 E6.88696
G1 X48.306 Y49.835 E6.89177
G1 X48.338 Y50.367 E6.89678
G1 X48.426 Y50.647 E6.89954
G1 X48.565 Y50.914 E6.90238
G1 X48.795 Y51.202 E6.90584
G1 X49.082 Y51.435 E6.90932
G1 X49.348 Y51.57 E6.91212
G1 X49.656 Y51.665 E6.91516
G1 X50.16 Y51.69 E6.9199
G1 X50.657 Y51.567 E6.92472
G0 F7200 X50.834 Y51.476
G0 X50.412 Y50.838
G1 F600 X50.119 Y50.928 E6.9276
G1 X49.749 Y50.9 E6.93109
G1 X49.561 Y50.827 E6.93299
G1 X49.275 Y50.594 E6.93646
G1 X49.158 Y50.413 E6.93848
G1 X49.073 Y50.147 E6.94111
G1 X49.065 Y49.908 E6.94336
G1 X49.168 Y49.566 E6.94672
G1 X49.382 Y49.298 E6.94994
G1 X49.582 Y49.159 E6.95223
G1 X49.849 Y49.073 E6.95487
G1 X50.088 Y49.065 E6.95712
G1 X50.434 Y49.168 E6.96052
G1 X50.721 Y49.406 E6.96402
G1 X50.838 Y49.584 E6.96603
G1 X50.928 Y49.883 E6.96896
G1 X50.931 Y50.089 E6.9709
G1 X50.831 Y50.436 E6.9743
G1 X50.595 Y50.72 E6.97777
G1 X50.412 Y50.838 E6.97982
G0 F7200 X50.222 Y50.896
;MESH:NONMESH
G0 F600 X50.222 Y50.896 Z1.35
G0 F7200 X50.433 Y51.246
;TIME_ELAPSED:30.719655
;LAYER:7
;note -- min layer time used
;TYPE:WALL-INNER
;MESH:15977_Sphere_with_Grid_v1.obj
G1 F615.4 X50.713 Y51.106 E6.98269
G1 F623.4 X51.094 Y50.747 E6.98743
G1 F633.2 X51.298 Y50.241 E6.99229
G1 F629.9 X51.302 Y49.752 E6.99667
G1 F631.6 X51.113 Y49.282 E7.0012
G1 F634.9 X50.75 Y48.905 E7.00585
G1 F629.9 X50.242 Y48.7 E7.01076
G1 X49.754 Y48.696 E7.01513
G1 F631.6 X49.283 Y48.885 E7.01966
G1 F629.9 X48.886 Y49.28 E7.02468
G1 F621.8 X48.708 Y49.724 E7.02902
G1 F620.2 X48.677 Y49.926 E7.03088
G1 F631.6 X48.696 Y50.242 E7.03371
G1 X48.884 Y50.716 E7.03827
G1 X49.249 Y51.092 E7.04295
G1 F633.2 X49.714 Y51.294 E7.04747
G1 F641.7 X50.066 Y51.319 E7.05057
G1 F634.9 X50.433 Y51.246 E7.0539
G0 F7200 X50.369 Y50.857
;TYPE:WALL-OUTER
G1 F600 X50.044 Y50.936 E7.05704
G1 X49.742 Y50.902 E7.0599
G1 X49.462 Y50.768 E7.06282
G1 X49.241 Y50.55 E7.06574
G1 X49.082 Y50.191 E7.06943
G1 X49.069 Y49.903 E7.07214
G1 X49.229 Y49.465 E7.07653
G1 X49.451 Y49.24 E7.0795
G1 X49.805 Y49.082 E7.08315
G1 X50.093 Y49.069 E7.08586
G1 X50.524 Y49.222 E7.09016
G1 X50.76 Y49.451 E7.09325
G1 X50.913 Y49.802 E7.09686
G1 X50.931 Y50.093 E7.0996
G1 X50.775 Y50.523 E7.1039
G1 X50.369 Y50.857 E7.10884
G0 F7200 X50.175 Y50.904
G0 X50.572 Y51.616
G1 F600 X50.922 Y51.444 E7.11251
G1 X51.147 Y51.272 E7.11518
G1 X51.412 Y50.974 E7.11893
G1 X51.544 Y50.741 E7.12145
G1 X51.675 Y50.363 E7.12521
G1 X51.711 Y50.081 E7.12788
G1 X51.689 Y49.689 E7.13157
G1 X51.616 Y49.424 E7.13416
G1 X51.445 Y49.078 E7.13779
G1 X51.272 Y48.849 E7.14049
G1 X50.978 Y48.588 E7.14419
G1 X50.74 Y48.451 E7.14677
G1 X50.362 Y48.32 E7.15053
G1 X50.081 Y48.285 E7.1532
G1 X49.692 Y48.311 E7.15686
G1 X49.423 Y48.381 E7.15948
G1 X49.078 Y48.551 E7.16309
G1 X48.849 Y48.724 E7.16579
G1 X48.588 Y49.022 E7.16952
G1 X48.451 Y49.256 E7.17207
G1 X48.32 Y49.634 E7.17583
G1 X48.285 Y49.915 E7.17849
G1 X48.311 Y50.304 E7.18216
G1 X48.381 Y50.574 E7.18479
G1 X48.551 Y50.922 E7.18843
G1 X48.723 Y51.146 E7.19108
G1 X49.022 Y51.409 E7.19483
G1 X49.256 Y51.545 E7.19737
G1 X49.634 Y51.676 E7.20114
G1 X49.915 Y51.711 E7.2038
G1 X50.303 Y51.689 E7.20746
G1 X50.572 Y51.616 E7.21008
G0 F7200 X50.751 Y51.528
;MESH:NONMESH
G0 F600 X50.751 Y51.528 Z1.5
G0 F7200 X50.45 Y51.267
;TIME_ELAPSED:33.303589
;LAYER:8
;note -- min layer time used
;TYPE:WALL-INNER
;MESH:15977_Sphere_with_Grid_v1.obj
G1 F563.4 X50.895 Y51.003 E7.21526
G1 X51.124 Y50.73 E7.21883
G1 F562.1 X51.263 Y50.458 E7.2219
G1 F560.7 X51.341 Y50.056 E7.22602
G1 X51.267 Y49.548 E7.23118
G1 F563.4 X51.003 Y49.101 E7.23638
G1 F562.1 X50.732 Y48.873 E7.23994
G1 F564.7 X50.459 Y48.735 E7.243
G1 X50.056 Y48.655 E7.2471
G1 F562.1 X49.545 Y48.73 E7.25229
G1 F564.7 X49.099 Y48.995 E7.25747
G1 F562.1 X48.873 Y49.266 E7.26101
G1 F559.4 X48.737 Y49.534 E7.26405
G1 F560.7 X48.655 Y49.942 E7.26823
G1 F562.1 X48.729 Y50.45 E7.27339
G1 F564.7 X48.995 Y50.897 E7.27859
G1 F562.1 X49.267 Y51.124 E7.28214
G1 F559.4 X49.538 Y51.262 E7.28521
G1 X49.941 Y51.341 E7.28935
G1 X50.45 Y51.267 E7.29454
G0 F7200 X50.268 Y50.894
;TYPE:WALL-OUTER
G1 F600 X50.038 Y50.932 E7.29673
G1 X49.773 Y50.909 E7.29924
G1 X49.402 Y50.721 E7.30315
G1 X49.269 Y50.586 E7.30493
G1 X49.117 Y50.307 E7.30792
G1 X49.064 Y50.038 E7.3105
G1 X49.087 Y49.772 E7.31301
G1 X49.275 Y49.402 E7.31691
G1 X49.409 Y49.27 E7.31868
G1 X49.691 Y49.116 E7.3217
G1 X49.956 Y49.064 E7.32424
G1 X50.229 Y49.087 E7.32682
G1 X50.598 Y49.275 E7.33071
G1 X50.726 Y49.409 E7.33246
G1 X50.88 Y49.691 E7.33548
G1 X50.932 Y49.958 E7.33804
G1 X50.9 Y50.261 E7.3409
G1 X50.721 Y50.598 E7.34449
G1 X50.587 Y50.726 E7.34624
G1 X50.268 Y50.894 E7.34963
G0 F7200 X50.071 Y50.926
G0 X50.596 Y51.656
G1 F600 X50.96 Y51.473 E7.35346
G1 X51.181 Y51.302 E7.35609
G1 X51.471 Y50.96 E7.3603
G1 X51.657 Y50.594 E7.36417
G1 X51.758 Y50.082 E7.36907
G1 X51.733 Y49.701 E7.37266
G1 X51.655 Y49.403 E7.37556
G1 X51.473 Y49.035 E7.37942
G1 X51.302 Y48.815 E7.38204
G1 X50.961 Y48.525 E7.38625
G1 X50.594 Y48.343 E7.39011
G1 X50.082 Y48.238 E7.39502
G1 X49.697 Y48.266 E7.39865
G1 X49.402 Y48.341 E7.40152
G1 X49.035 Y48.522 E7.40536
G1 X48.815 Y48.695 E7.408
G1 X48.525 Y49.036 E7.41221
G1 X48.343 Y49.398 E7.41602
G1 X48.238 Y49.914 E7.42097
G1 X48.263 Y50.299 E7.4246
G1 X48.341 Y50.596 E7.42749
G1 X48.522 Y50.957 E7.43129
G1 X48.695 Y51.181 E7.43395
G1 X49.036 Y51.472 E7.43816
G1 X49.402 Y51.657 E7.44202
G1 X49.914 Y51.758 E7.44693
G1 X50.303 Y51.733 E7.4506
G1 X50.596 Y51.656 E7.45344
G0 F7200 X50.774 Y51.567
;MESH:NONMESH
G0 F600 X50.774 Y51.567 Z1.65
G0 F7200 X50.57 Y51.222
;TIME_ELAPSED:36.029359
;LAYER:9
;note -- min layer time used
;TYPE:WALL-INNER
;MESH:15977_Sphere_with_Grid_v1.obj
G1 F553 X50.913 Y50.996 E7.45764
G1 X51.101 Y50.778 E7.46057
G1 F546.7 X51.279 Y50.433 E7.46458
G1 F547.9 X51.35 Y49.924 E7.46987
G1 F549.2 X51.222 Y49.426 E7.47516
G1 F551.7 X50.996 Y49.083 E7.47936
G1 F550.5 X50.778 Y48.895 E7.48231
G1 F545.5 X50.433 Y48.717 E7.48633
G1 F549.2 X49.926 Y48.647 E7.49159
G1 F551.7 X49.424 Y48.775 E7.49688
G1 F554.3 X49.085 Y48.999 E7.50102
G1 F553 X48.894 Y49.221 E7.50401
G1 F546.7 X48.717 Y49.565 E7.508
G1 F549.2 X48.647 Y50.07 E7.51324
G1 F551.7 X48.775 Y50.572 E7.51854
G1 F554.3 X48.999 Y50.911 E7.52268
G1 F553 X49.221 Y51.102 E7.52567
G1 F546.7 X49.564 Y51.279 E7.52965
G1 X50.072 Y51.35 E7.53494
G1 F547.9 X50.57 Y51.222 E7.54024
G0 F7200 X50.442 Y50.824
;TYPE:WALL-OUTER
G1 F600 X50.115 Y50.931 E7.54348
G1 X49.783 Y50.907 E7.54661
G1 X49.543 Y50.818 E7.54901
G1 X49.327 Y50.655 E7.55156
G1 X49.167 Y50.429 E7.55416
G1 X49.065 Y50.115 E7.55727
G1 X49.089 Y49.781 E7.56042
G1 X49.178 Y49.543 E7.56281
G1 X49.341 Y49.327 E7.56535
G1 X49.567 Y49.167 E7.56796
G1 X49.881 Y49.065 E7.57106
G1 X50.241 Y49.094 E7.57446
G1 X50.452 Y49.178 E7.5766
G1 X50.67 Y49.342 E7.57916
G1 X50.824 Y49.554 E7.58163
G1 X50.931 Y49.881 E7.58486
G1 X50.902 Y50.241 E7.58826
G1 X50.818 Y50.452 E7.59039
G1 X50.654 Y50.67 E7.59296
G1 X50.442 Y50.824 E7.59542
G0 F7200 X50.252 Y50.886
G0 X50.758 Y51.599
G1 F600 X51.187 Y51.311 E7.60028
G1 X51.449 Y51.017 E7.60399
G1 X51.672 Y50.586 E7.60855
G1 X51.741 Y50.334 E7.61101
G1 X51.77 Y49.911 E7.615
G1 X51.732 Y49.619 E7.61777
G1 X51.599 Y49.238 E7.62156
G1 X51.312 Y48.809 E7.62642
G1 X51.017 Y48.547 E7.63013
G1 X50.586 Y48.324 E7.63469
G1 X50.335 Y48.255 E7.63714
G1 X49.912 Y48.229 E7.64113
G1 X49.617 Y48.268 E7.64393
G1 X49.238 Y48.397 E7.64769
G1 X48.81 Y48.684 E7.65254
G1 X48.547 Y48.983 E7.65628
G1 X48.324 Y49.41 E7.66081
G1 X48.255 Y49.658 E7.66323
G1 X48.229 Y50.084 E7.66725
G1 X48.268 Y50.379 E7.67005
G1 X48.397 Y50.758 E7.67381
G1 X48.684 Y51.186 E7.67866
G1 X48.983 Y51.449 E7.6824
G1 X49.41 Y51.672 E7.68694
G1 X49.662 Y51.742 E7.6894
G1 X50.085 Y51.771 E7.69338
G1 X50.377 Y51.732 E7.69615
G1 X50.758 Y51.599 E7.69995
G0 F7200 X50.923 Y51.488
;MESH:NONMESH
G0 F600 X50.923 Y51.488 Z1.8
G0 F7200 X50.571 Y51.223
;TIME_ELAPSED:38.788955
;LAYER:10
;note -- min layer time used
;TYPE:WALL-INNER
;MESH:15977_Sphere_with_Grid_v1.obj
G1 F546.7 X50.908 Y50.991 E7.70417
G1 F544.2 X51.102 Y50.779 E7.70715
G1 F547.9 X51.327 Y50.264 E7.71294
G1 F549.2 X51.324 Y49.719 E7.71854
G1 F551.7 X51.223 Y49.425 E7.72172
G1 F546.7 X50.991 Y49.088 E7.72594
G1 F545.5 X50.779 Y48.894 E7.72892
G1 F550.5 X50.266 Y48.67 E7.73465
G1 X49.717 Y48.677 E7.74028
G1 F553 X49.423 Y48.775 E7.74345
G1 F547.9 X49.09 Y49.005 E7.74761
G1 F544.2 X48.894 Y49.221 E7.75064
G1 F547.9 X48.67 Y49.726 E7.75633
G1 F549.2 X48.676 Y50.279 E7.76201
G1 F553 X48.775 Y50.573 E7.76518
G1 F547.9 X49.005 Y50.906 E7.76934
G1 F544.2 X49.221 Y51.102 E7.77237
G1 F546.7 X49.563 Y51.281 E7.77635
G1 F545.5 X49.732 Y51.327 E7.77817
G1 F547.9 X50.277 Y51.324 E7.78378
G1 F551.7 X50.571 Y51.223 E7.78696
G0 F7200 X50.438 Y50.828
;TYPE:WALL-OUTER
G1 F600 X50.159 Y50.923 E7.78973
G1 X49.728 Y50.896 E7.79379
G1 X49.408 Y50.723 E7.79721
G1 X49.185 Y50.468 E7.8004
G1 X49.077 Y50.159 E7.80348
G1 X49.085 Y49.781 E7.80703
G1 X49.273 Y49.408 E7.81096
G1 X49.528 Y49.185 E7.81415
G1 X49.841 Y49.077 E7.81726
G1 X50.214 Y49.085 E7.82077
G1 X50.594 Y49.274 E7.82476
G1 X50.828 Y49.558 E7.82822
G1 X50.919 Y49.819 E7.83082
G1 X50.911 Y50.213 E7.83453
G1 X50.722 Y50.594 E7.83853
G1 X50.438 Y50.828 E7.84199
G0 F7200 X50.249 Y50.892
G0 X50.758 Y51.599
G1 F600 X51.187 Y51.311 E7.84685
G1 X51.449 Y51.017 E7.85055
G1 X51.672 Y50.586 E7.85512
G1 X51.741 Y50.334 E7.85758
G1 X51.77 Y49.911 E7.86156
G1 X51.732 Y49.623 E7.8643
G1 X51.599 Y49.238 E7.86813
G1 X51.311 Y48.809 E7.87299
G1 X51.017 Y48.547 E7.87669
G1 X50.586 Y48.324 E7.88125
G1 X50.334 Y48.255 E7.88371
G1 X49.912 Y48.229 E7.88769
G1 X49.622 Y48.268 E7.89044
G1 X49.238 Y48.398 E7.89425
G1 X48.81 Y48.685 E7.8991
G1 X48.547 Y48.983 E7.90284
G1 X48.324 Y49.41 E7.90737
G1 X48.255 Y49.657 E7.90978
G1 X48.229 Y50.084 E7.91381
G1 X48.268 Y50.374 E7.91656
G1 X48.398 Y50.758 E7.92037
G1 X48.685 Y51.186 E7.92522
G1 X48.983 Y51.449 E7.92896
G1 X49.41 Y51.673 E7.93349
G1 X49.662 Y51.742 E7.93595
G1 X50.085 Y51.771 E7.93994
G1 X50.373 Y51.732 E7.94267
G1 X50.758 Y51.599 E7.9465
G0 F7200 X50.923 Y51.488
;MESH:NONMESH
G0 F600 X50.923 Y51.488 Z1.95
G0 F7200 X50.457 Y51.259
;TIME_ELAPSED:41.550717
;LAYER:11
;note -- min layer time used
;TYPE:WALL-INNER
;MESH:15977_Sphere_with_Grid_v1.obj
G1 F559.4 X50.895 Y51.008 E7.95159
G1 F566 X51.208 Y50.6 E7.95672
G1 F560.7 X51.343 Y50.07 E7.96222
G1 F559.4 X51.327 Y49.767 E7.96528
G1 X51.12 Y49.25 E7.9709
G1 F562.1 X51.011 Y49.104 E7.97273
G1 F564.7 X50.598 Y48.787 E7.97793
G1 F562.1 X50.073 Y48.653 E7.98337
G1 X49.76 Y48.672 E7.98652
G1 F560.7 X49.251 Y48.876 E7.99204
G1 F562.1 X49.104 Y48.985 E7.99388
G1 F563.4 X48.788 Y49.396 E7.99907
G1 F560.7 X48.653 Y49.924 E8.00455
G1 X48.672 Y50.237 E8.00771
G1 F559.4 X48.875 Y50.744 E8.01322
G1 F563.4 X48.984 Y50.89 E8.01504
G1 F566 X49.399 Y51.209 E8.02026
G1 F562.1 X49.698 Y51.312 E8.02344
G1 X50.061 Y51.345 E8.0271
G1 F556.8 X50.457 Y51.259 E8.0312
G0 F7200 X50.594 Y51.657
;TYPE:WALL-OUTER
G1 F600 X50.965 Y51.473 E8.0351
G1 X51.178 Y51.309 E8.03763
G1 X51.464 Y50.983 E8.04171
G1 X51.585 Y50.772 E8.04399
G1 X51.72 Y50.385 E8.04785
G1 X51.759 Y50.084 E8.0507
G1 X51.737 Y49.701 E8.05431
G1 X51.655 Y49.4 E8.05725
G1 X51.473 Y49.031 E8.06112
G1 X51.313 Y48.822 E8.06359
G1 X50.986 Y48.536 E8.06768
G1 X50.771 Y48.411 E8.07002
G1 X50.389 Y48.276 E8.07383
G1 X50.085 Y48.237 E8.07671
G1 X49.696 Y48.263 E8.08038
G1 X49.402 Y48.337 E8.08323
G1 X49.031 Y48.523 E8.08713
G1 X48.822 Y48.683 E8.08961
G1 X48.532 Y49.013 E8.09374
G1 X48.411 Y49.224 E8.09603
G1 X48.277 Y49.611 E8.09988
G1 X48.237 Y49.911 E8.10272
G1 X48.263 Y50.301 E8.1064
G1 X48.337 Y50.597 E8.10927
G1 X48.523 Y50.965 E8.11315
G1 X48.683 Y51.173 E8.11562
G1 X49.014 Y51.46 E8.11974
G1 X49.225 Y51.585 E8.12204
G1 X49.611 Y51.719 E8.12589
G1 X50.084 Y51.762 E8.13035
G1 X50.594 Y51.657 E8.13525
G0 F7200 X50.773 Y51.569
G0 X50.441 Y50.823
G1 F600 X50.117 Y50.929 E8.13846
G1 X49.74 Y50.897 E8.14202
G1 X49.562 Y50.829 E8.14381
G1 X49.316 Y50.644 E8.1467
G1 X49.173 Y50.443 E8.14902
G1 X49.064 Y50.09 E8.1525
G1 X49.069 Y49.874 E8.15453
G1 X49.166 Y49.564 E8.15758
G1 X49.353 Y49.315 E8.16051
G1 X49.554 Y49.173 E8.16283
G1 X49.906 Y49.064 E8.16629
G1 X50.122 Y49.069 E8.16833
G1 X50.433 Y49.166 E8.17139
G1 X50.714 Y49.39 E8.17477
G1 X50.823 Y49.555 E8.17663
G1 X50.932 Y49.908 E8.1801
G1 X50.927 Y50.122 E8.18212
G1 X50.831 Y50.432 E8.18517
G1 X50.643 Y50.68 E8.1881
G1 X50.441 Y50.823 E8.19042
G0 F7200 X50.251 Y50.885
;MESH:NONMESH
G0 F600 X50.251 Y50.885 Z2.1
G0 F7200 X50.241 Y51.31
;TIME_ELAPSED:44.280931
;LAYER:12
;note -- min layer time used
;TYPE:WALL-INNER
;MESH:15977_Sphere_with_Grid_v1.obj
G1 F586.8 X50.754 Y51.104 E8.19574
G1 F575.5 X50.978 Y50.893 E8.19876
G1 F578.3 X51.213 Y50.56 E8.20274
G1 F595.5 X51.335 Y50.052 E8.20769
G1 F591.1 X51.31 Y49.754 E8.21054
G1 F586.8 X51.108 Y49.247 E8.21579
G1 F575.5 X50.893 Y49.018 E8.21887
G1 F576.9 X50.56 Y48.783 E8.22286
G1 F591.1 X50.071 Y48.666 E8.22766
G1 F588.2 X49.752 Y48.688 E8.23072
G1 F586.8 X49.242 Y48.892 E8.23601
G1 F575.5 X49.018 Y49.102 E8.23902
G1 F578.3 X48.782 Y49.44 E8.24304
G1 F592.6 X48.666 Y49.928 E8.24782
G1 F586.8 X48.687 Y50.244 E8.25086
G1 F585.4 X48.892 Y50.754 E8.25616
G1 F575.5 X49.102 Y50.978 E8.25917
G1 F578.3 X49.44 Y51.214 E8.26319
G1 F592.6 X49.929 Y51.334 E8.26799
G1 F588.2 X50.241 Y51.31 E8.27099
G0 F7200 X50.75 Y51.572
;TYPE:WALL-OUTER
G1 F600 X50.99 Y51.433 E8.2736
G1 X51.291 Y51.167 E8.27738
G1 X51.575 Y50.741 E8.28219
G1 X51.684 Y50.434 E8.28526
G1 X51.739 Y50.083 E8.2886
G1 X51.71 Y49.678 E8.29242
G1 X51.572 Y49.242 E8.29672
G1 X51.437 Y49.01 E8.29924
G1 X51.167 Y48.705 E8.30307
G1 X50.741 Y48.421 E8.30789
G1 X50.435 Y48.312 E8.31094
G1 X50.087 Y48.261 E8.31425
G1 X49.678 Y48.287 E8.31811
G1 X49.246 Y48.425 E8.32237
G1 X49.006 Y48.563 E8.32498
G1 X48.705 Y48.829 E8.32875
G1 X48.421 Y49.259 E8.3336
G1 X48.312 Y49.561 E8.33662
G1 X48.261 Y49.912 E8.33996
G1 X48.286 Y50.319 E8.34379
G1 X48.424 Y50.75 E8.34805
G1 X48.563 Y50.99 E8.35066
G1 X48.829 Y51.291 E8.35443
G1 X49.259 Y51.575 E8.35928
G1 X49.562 Y51.684 E8.36231
G1 X49.913 Y51.739 E8.36565
G1 X50.317 Y51.71 E8.36946
G1 X50.75 Y51.572 E8.37373
G0 F7200 X50.923 Y51.472
G0 X50.561 Y50.746
G1 F600 X50.286 Y50.891 E8.37666
G1 X50.019 Y50.936 E8.37921
G1 X49.616 Y50.853 E8.38308
G1 X49.25 Y50.561 E8.38748
G1 X49.105 Y50.286 E8.3904
G1 X49.065 Y49.978 E8.39332
G1 X49.143 Y49.616 E8.39681
G1 X49.435 Y49.25 E8.40121
G1 X49.714 Y49.105 E8.40417
G1 X49.979 Y49.064 E8.40669
G1 X50.38 Y49.143 E8.41053
G1 X50.746 Y49.435 E8.41494
G1 X50.891 Y49.715 E8.4179
G1 X50.935 Y50.022 E8.42082
G1 X50.847 Y50.395 E8.42442
G1 X50.561 Y50.746 E8.42868
G0 F7200 X50.385 Y50.839
;MESH:NONMESH
G0 F600 X50.385 Y50.839 Z2.25
G0 F7200 X50.492 Y51.225
;TIME_ELAPSED:46.953364
;LAYER:13
;note -- min layer time used
;TYPE:WALL-INNER
;MESH:15977_Sphere_with_Grid_v1.obj
G1 F652.2 X50.835 Y51.017 E8.43215
G1 F646.9 X51.123 Y50.69 E8.43596
G1 F648.6 X51.287 Y50.29 E8.43972
G1 F652.2 X51.32 Y50.014 E8.44212
G1 F650.4 X51.225 Y49.504 E8.44662
G1 F652.2 X51.017 Y49.161 E8.45009
G1 F646.9 X50.689 Y48.872 E8.45391
G1 F648.6 X50.294 Y48.71 E8.45762
G1 F655.7 X50.017 Y48.678 E8.46002
G1 F652.2 X49.507 Y48.77 E8.46451
G1 F650.4 X49.161 Y48.979 E8.46801
G1 F646.9 X48.873 Y49.306 E8.47181
G1 X48.71 Y49.7 E8.47553
G1 F655.7 X48.678 Y49.985 E8.478
G1 F654 X48.769 Y50.486 E8.4824
G1 F650.4 X48.979 Y50.835 E8.48593
G1 F646.9 X49.306 Y51.123 E8.48973
G1 X49.706 Y51.287 E8.4935
G1 F652.2 X49.986 Y51.32 E8.49594
G1 X50.492 Y51.225 E8.5004
G0 F7200 X50.353 Y50.867
;TYPE:WALL-OUTER
G1 F600 X50.021 Y50.935 E8.50358
G1 X49.749 Y50.904 E8.50616
G1 X49.466 Y50.771 E8.5091
G1 X49.283 Y50.601 E8.51145
G1 X49.119 Y50.32 E8.51451
G1 X49.061 Y50.019 E8.51739
G1 X49.092 Y49.748 E8.51996
G1 X49.225 Y49.466 E8.52289
G1 X49.395 Y49.283 E8.52524
G1 X49.612 Y49.144 E8.52766
G1 X49.956 Y49.063 E8.53099
G1 X50.225 Y49.087 E8.53353
G1 X50.511 Y49.214 E8.53647
G1 X50.706 Y49.386 E8.53892
G1 X50.868 Y49.645 E8.54179
G1 X50.936 Y50.003 E8.54522
G1 X50.905 Y50.247 E8.54753
G1 X50.779 Y50.515 E8.55031
G1 X50.61 Y50.706 E8.55271
G1 X50.353 Y50.867 E8.55557
G0 F7200 X50.158 Y50.907
G0 X50.645 Y51.58
G1 F600 X51.082 Y51.316 E8.56037
G1 X51.445 Y50.91 E8.56549
G1 X51.663 Y50.37 E8.57097
G1 X51.706 Y50.017 E8.57431
G1 X51.667 Y49.625 E8.57802
G1 X51.58 Y49.352 E8.58071
G1 X51.316 Y48.914 E8.58552
G1 X50.909 Y48.551 E8.59065
G1 X50.371 Y48.333 E8.59611
G1 X50.018 Y48.294 E8.59945
G1 X49.628 Y48.333 E8.60314
G1 X49.35 Y48.416 E8.60587
G1 X48.914 Y48.68 E8.61066
G1 X48.551 Y49.086 E8.61578
G1 X48.333 Y49.622 E8.62122
G1 X48.294 Y49.982 E8.62463
G1 X48.329 Y50.368 E8.62827
G1 X48.416 Y50.645 E8.63101
G1 X48.68 Y51.082 E8.63581
G1 X49.086 Y51.445 E8.64093
G1 X49.626 Y51.663 E8.64641
G1 X49.983 Y51.706 E8.64979
G1 X50.371 Y51.667 E8.65346
G1 X50.645 Y51.58 E8.65616
G0 F7200 X50.816 Y51.477
;MESH:NONMESH
G0 F600 X50.816 Y51.477 Z2.4
G0 F7200 X50.537 Y51.483
;TIME_ELAPSED:49.504655
;LAYER:14
;note -- min layer time used
;TYPE:WALL-OUTER
;MESH:15977_Sphere_with_Grid_v1.obj
G1 F423.3 X50.073 Y51.573 E8.66246
G1 F424 X49.725 Y51.553 E8.6671
G1 F425.5 X49.463 Y51.485 E8.67069
G1 F424 X49.138 Y51.322 E8.67553
G1 F424.8 X48.827 Y51.056 E8.68097
G1 F425.5 X48.665 Y50.848 E8.68446
G1 F426.3 X48.513 Y50.534 E8.68908
G1 F424.8 X48.446 Y50.266 E8.69275
G1 F424 X48.421 Y49.923 E8.69733
G1 F425.5 X48.514 Y49.46 E8.70359
G1 X48.674 Y49.137 E8.70837
G1 F424.8 X48.94 Y48.827 E8.7138
G1 F425.5 X49.148 Y48.665 E8.71729
G1 F427 X49.463 Y48.513 E8.72191
G1 F424.8 X49.727 Y48.446 E8.72553
G1 F424 X50.071 Y48.42 E8.73012
G1 F425.5 X50.536 Y48.513 E8.73641
G1 F424.8 X50.859 Y48.674 E8.74121
G1 F424 X51.169 Y48.94 E8.74664
G1 F425.5 X51.332 Y49.15 E8.75017
G1 X51.486 Y49.46 E8.75476
G1 F422.5 X51.553 Y49.729 E8.75846
G1 X51.575 Y50.072 E8.76305
G1 F425.5 X51.483 Y50.536 E8.76933
G1 X51.322 Y50.859 E8.77411
G1 F424 X51.056 Y51.169 E8.77955
G1 F425.5 X50.847 Y51.331 E8.78305
G1 F426.3 X50.537 Y51.483 E8.78762
G0 F7200 X50.341 Y51.521
G0 X50.546 Y50.856
G1 F429.3 X50.756 Y50.673 E8.79129
G1 F431.7 X50.915 Y50.436 E8.79502
G1 F427.8 X51.01 Y50.076 E8.79993
G1 F424 X50.96 Y49.669 E8.80539
G1 F425.5 X50.857 Y49.451 E8.80858
G1 F429.3 X50.673 Y49.24 E8.81226
G1 F431.7 X50.436 Y49.081 E8.81599
G1 F428.6 X50.075 Y48.986 E8.82091
G1 F427 X49.707 Y49.025 E8.8258
G1 X49.45 Y49.14 E8.82952
G1 F428.6 X49.24 Y49.323 E8.83319
G1 F429.3 X49.062 Y49.604 E8.83756
G1 F426.3 X48.986 Y49.921 E8.84187
G1 F425.5 X49.037 Y50.326 E8.84729
G1 F426.3 X49.14 Y50.546 E8.8505
G1 F428.6 X49.323 Y50.756 E8.85417
G1 F429.3 X49.604 Y50.934 E8.85854
G1 F427 X49.834 Y51.002 E8.86171
G1 F426.3 X50.331 Y50.957 E8.86832
G1 X50.546 Y50.856 E8.87146
G0 F7200 X50.696 Y50.725
;MESH:NONMESH
G0 F600 X50.696 Y50.725 Z2.55
G0 F7200 X50.521 Y51.44
;TIME_ELAPSED:51.917740
;LAYER:15
;note -- min layer time used
;TYPE:WALL-OUTER
;MESH:15977_Sphere_with_Grid_v1.obj
G1 F449.4 X50.07 Y51.531 E8.87724
G1 X49.715 Y51.506 E8.88171
G1 F447.8 X49.493 Y51.447 E8.8846
G1 X49.117 Y51.253 E8.88994
G1 X48.858 Y51.024 E8.89429
G1 X48.705 Y50.823 E8.89748
G1 F446.1 X48.555 Y50.512 E8.90185
G1 X48.465 Y49.926 E8.90935
G1 F449.4 X48.555 Y49.483 E8.91502
G1 X48.746 Y49.116 E8.92022
G1 F448.6 X48.972 Y48.858 E8.92453
G1 X49.176 Y48.705 E8.92774
G1 F446.1 X49.717 Y48.493 E8.93509
G1 X50.07 Y48.465 E8.93957
G1 F449.4 X50.513 Y48.555 E8.94524
G1 X50.88 Y48.746 E8.95044
G1 F448.6 X51.138 Y48.971 E8.95475
G1 F449.4 X51.292 Y49.176 E8.95796
G1 F446.9 X51.504 Y49.714 E8.96527
G1 X51.532 Y50.07 E8.96977
G1 F449.4 X51.441 Y50.516 E8.97549
G1 F448.6 X51.253 Y50.88 E8.98064
G1 F447.8 X51.025 Y51.138 E8.98498
G1 F448.6 X50.822 Y51.292 E8.98819
G1 F449.4 X50.521 Y51.44 E8.9924
G0 F7200 X50.325 Y51.479
G0 X50.466 Y50.885
G1 F454.5 X50.743 Y50.667 E8.99678
G1 F452 X50.925 Y50.37 E9.00113
G1 F451.1 X51.001 Y50.016 E9.00565
G1 X50.906 Y49.581 E9.01122
G1 F452.8 X50.665 Y49.252 E9.01631
G1 X50.367 Y49.07 E9.02066
G1 F449.4 X50.021 Y48.999 E9.02509
G1 X49.581 Y49.093 E9.03074
G1 F452.8 X49.252 Y49.331 E9.0358
G1 X49.07 Y49.629 E9.04015
G1 F449.4 X48.999 Y49.975 E9.04459
G1 X49.093 Y50.415 E9.05024
G1 X49.293 Y50.708 E9.05469
G1 F451.1 X49.604 Y50.918 E9.05939
G1 F452.8 X49.914 Y50.996 E9.06337
G1 F456.3 X50.168 Y50.985 E9.06651
G1 F457.1 X50.466 Y50.885 E9.0704
G0 F7200 X50.623 Y50.762
;MESH:NONMESH
G0 F600 X50.623 Y50.762 Z2.7
G0 F7200 X50.497 Y51.392
;TIME_ELAPSED:54.153106
;LAYER:16
;note -- min layer time used
;TYPE:WALL-OUTER
;MESH:15977_Sphere_with_Grid_v1.obj
G1 F481.9 X49.922 Y51.476 E9.0772
G1 F480 X49.693 Y51.446 E9.07991
G1 F483.9 X49.362 Y51.336 E9.08398
G1 F481.9 X49.159 Y51.215 E9.08675
G1 X48.814 Y50.874 E9.09243
G1 F483.9 X48.605 Y50.495 E9.09748
G1 F482.9 X48.522 Y49.921 E9.10426
G1 F481.9 X48.551 Y49.693 E9.10695
G1 F483.9 X48.662 Y49.363 E9.11101
G1 F481.9 X48.784 Y49.158 E9.1138
G1 X49.128 Y48.813 E9.11951
G1 F483.9 X49.499 Y48.606 E9.12446
G1 X50.076 Y48.522 E9.13126
G1 X50.303 Y48.551 E9.13393
G1 F484.8 X50.633 Y48.662 E9.13798
G1 F482.9 X50.838 Y48.784 E9.14077
G1 X51.183 Y49.128 E9.14646
G1 F485.8 X51.395 Y49.504 E9.15148
G1 F481.9 X51.477 Y50.074 E9.15822
G1 X51.336 Y50.634 E9.16498
G1 X51.216 Y50.837 E9.16774
G1 X50.874 Y51.182 E9.17343
G1 F485.8 X50.497 Y51.392 E9.17844
G0 F7200 X50.3 Y51.42
G0 X50.319 Y50.93
G1 F487.8 X50.649 Y50.729 E9.18291
G1 X50.887 Y50.422 E9.18741
G1 F485.8 X50.973 Y50.132 E9.19092
G1 X50.932 Y49.679 E9.1962
G1 F487.8 X50.728 Y49.35 E9.20068
G1 X50.422 Y49.11 E9.20518
G1 F483.9 X50.085 Y49.02 E9.20925
G1 X49.677 Y49.069 E9.21404
G1 F489.8 X49.31 Y49.304 E9.21906
G1 F490.8 X49.11 Y49.574 E9.22293
G1 F483.9 X49.019 Y49.915 E9.22704
G1 F482.9 X49.068 Y50.318 E9.23179
G1 F485.8 X49.266 Y50.644 E9.23622
G1 X49.574 Y50.887 E9.24077
G1 F481.9 X49.893 Y50.974 E9.24465
G1 X50.319 Y50.93 E9.24966
G0 F7200 X50.489 Y50.826
;MESH:NONMESH
G0 F600 X50.489 Y50.826 Z2.85
G0 F7200 X50.29 Y51.372
;TIME_ELAPSED:56.175060
;LAYER:17
;note -- min layer time used
;TYPE:WALL-OUTER
;MESH:15977_Sphere_with_Grid_v1.obj
G1 F541.8 X49.734 Y51.378 E9.25545
G1 F540.5 X49.465 Y51.292 E9.2584
G1 F536.9 X49.159 Y51.115 E9.26212
G1 X48.845 Y50.796 E9.26682
G1 F543 X48.618 Y50.252 E9.27295
G1 F539.3 X48.624 Y49.736 E9.27835
G1 F538.1 X48.71 Y49.461 E9.28137
G1 F540.5 X48.878 Y49.157 E9.28499
G1 X49.201 Y48.845 E9.28968
G1 X49.744 Y48.617 E9.29583
G1 F539.3 X50.26 Y48.623 E9.30123
G1 X50.532 Y48.709 E9.30422
G1 F543 X50.84 Y48.878 E9.30787
G1 X51.152 Y49.2 E9.31253
G1 F541.8 X51.379 Y49.745 E9.31868
G1 F538.1 X51.376 Y50.261 E9.32409
G1 X51.291 Y50.531 E9.32706
G1 F541.8 X51.118 Y50.84 E9.33074
G1 X50.794 Y51.156 E9.33546
G1 F543 X50.29 Y51.372 E9.34116
G0 F7200 X50.09 Y51.374
G0 X50.561 Y50.774
G1 F541.8 X50.769 Y50.566 E9.34422
G1 F539.3 X50.93 Y50.206 E9.34835
G1 F538.1 X50.945 Y49.85 E9.35208
G1 F541.8 X50.772 Y49.434 E9.35678
G1 F543 X50.567 Y49.227 E9.35981
G1 X50.239 Y49.075 E9.36356
G1 F541.8 X49.849 Y49.051 E9.36763
G1 F540.5 X49.434 Y49.227 E9.37234
G1 X49.227 Y49.432 E9.37538
G1 X49.076 Y49.754 E9.37909
G1 F543 X49.051 Y50.149 E9.38321
G1 X49.226 Y50.564 E9.38789
G1 X49.61 Y50.873 E9.39301
G1 F540.5 X49.821 Y50.94 E9.39532
G1 F541.8 X50.193 Y50.937 E9.3992
G1 F543 X50.561 Y50.774 E9.40338
G0 F7200 X50.702 Y50.633
;MESH:NONMESH
G0 F600 X50.702 Y50.633 Z3
G0 F7200 X50.505 Y51.227
;TIME_ELAPSED:57.932034
;LAYER:18
;note -- min layer time used
;TYPE:WALL-OUTER
;MESH:15977_Sphere_with_Grid_v1.obj
G1 F606.1 X50.26 Y51.299 E9.40576
G1 F610.7 X49.802 Y51.3 E9.40999
G1 X49.482 Y51.219 E9.41304
G1 F606.1 X49.282 Y51.115 E9.41514
G1 F609.1 X48.979 Y50.847 E9.41889
G1 F607.6 X48.769 Y50.504 E9.42262
G1 F604.5 X48.698 Y50.26 E9.42499
G1 F615.4 X48.693 Y49.802 E9.42919
G1 X48.777 Y49.483 E9.43222
G1 F606.1 X48.884 Y49.282 E9.43434
G1 F607.6 X49.149 Y48.98 E9.43807
G1 X49.492 Y48.769 E9.44181
G1 F606.1 X49.736 Y48.697 E9.44418
G1 F615.4 X50.194 Y48.692 E9.44838
G1 X50.513 Y48.777 E9.45141
G1 F606.1 X50.714 Y48.884 E9.45353
G1 F609.1 X51.016 Y49.149 E9.45725
G1 F607.6 X51.227 Y49.491 E9.46098
G1 F606.1 X51.299 Y49.736 E9.46336
G1 F615.4 X51.304 Y50.194 E9.46756
G1 X51.219 Y50.515 E9.4706
G1 F607.6 X51.115 Y50.714 E9.47269
G1 F609.1 X50.847 Y51.017 E9.47644
G1 X50.505 Y51.227 E9.48016
G0 F7200 X50.313 Y51.283
G0 X50.38 Y50.849
G1 F609.1 X50.597 Y50.712 E9.48253
G1 X50.799 Y50.475 E9.48542
G1 F615.4 X50.922 Y50.1 E9.48904
G1 F617 X50.916 Y49.838 E9.49143
G1 F609.1 X50.85 Y49.617 E9.49357
G1 X50.711 Y49.401 E9.49595
G1 X50.474 Y49.198 E9.49884
G1 F615.4 X50.1 Y49.074 E9.50245
G1 F617 X49.838 Y49.08 E9.50485
G1 F607.6 X49.617 Y49.146 E9.50699
G1 X49.401 Y49.285 E9.50938
G1 X49.159 Y49.594 E9.51302
G1 F615.4 X49.074 Y49.896 E9.5159
G1 F618.6 X49.08 Y50.159 E9.5183
G1 F607.6 X49.146 Y50.376 E9.52041
G1 F609.1 X49.284 Y50.597 E9.52282
G1 X49.526 Y50.802 E9.52576
G1 F615.4 X49.771 Y50.896 E9.52817
G1 F618.6 X50.163 Y50.916 E9.53175
G1 F607.6 X50.38 Y50.849 E9.53386
G0 F7200 X50.548 Y50.743
;MESH:NONMESH
G0 F600 X50.548 Y50.743 Z3.15
G0 F7200 X50.299 Y51.009
;TIME_ELAPSED:59.428841
;LAYER:19
;note -- min layer time used
;TYPE:WALL-OUTER
;MESH:15977_Sphere_with_Grid_v1.obj
G1 F372.7 X49.896 Y51.048 E9.53999
G1 F374.4 X49.714 Y51.015 E9.54278
G1 F378 X49.333 Y50.816 E9.54919
G1 F376.2 X49.068 Y50.497 E9.55541
G1 F374.4 X48.948 Y50.121 E9.56136
G1 X48.985 Y49.706 E9.56764
G1 F375 X49.181 Y49.334 E9.57397
G1 X49.498 Y49.069 E9.58019
G1 F374.4 X49.875 Y48.948 E9.58616
G1 F375 X50.29 Y48.985 E9.59243
G1 F375.6 X50.666 Y49.183 E9.59881
G1 F374.4 X50.929 Y49.5 E9.60502
G1 F373.3 X51.05 Y49.883 E9.61109
G1 F373.8 X51.013 Y50.282 E9.61714
G1 F375.6 X50.923 Y50.505 E9.62075
G1 X50.658 Y50.826 E9.62701
G1 F375 X50.299 Y51.009 E9.63307
;MESH:NONMESH
G0 F600 X50.299 Y51.009 Z3.3
G0 F7200 X50.468 Y50.851
;TIME_ELAPSED:60.549650
;LAYER:20
;note -- min layer time used
;TYPE:WALL-OUTER
;MESH:15977_Sphere_with_Grid_v1.obj
G1 F510.6 X50.091 Y50.966 E9.63743
G1 F504.2 X49.707 Y50.921 E9.64175
G1 F502.1 X49.378 Y50.747 E9.64594
G1 F510.6 X49.145 Y50.47 E9.64994
G1 X49.064 Y50.264 E9.65238
G1 F507.4 X49.036 Y49.897 E9.65648
G1 F500 X49.078 Y49.711 E9.65863
G1 F502.1 X49.247 Y49.381 E9.6628
G1 F511.7 X49.531 Y49.145 E9.66687
G1 F509.6 X49.732 Y49.064 E9.66927
G1 F506.3 X50.099 Y49.036 E9.67337
G1 F501 X50.285 Y49.077 E9.67552
G1 F502.1 X50.618 Y49.249 E9.67973
G1 F509.6 X50.852 Y49.532 E9.68379
G1 F506.3 X50.931 Y49.728 E9.68615
G1 F503.1 X50.962 Y50.094 E9.69027
G1 F497.9 X50.919 Y50.289 E9.69253
G1 F499 X50.746 Y50.621 E9.69677
G1 F507.4 X50.468 Y50.851 E9.70078
;MESH:NONMESH
G0 F600 X50.468 Y50.851 Z3.45
G0 F7200 X50.551 Y50.669
;TIME_ELAPSED:61.334695
;LAYER:21
;note -- min layer time used
;TYPE:WALL-OUTER
;MESH:15977_Sphere_with_Grid_v1.obj
G1 F705.9 X50.208 Y50.846 E9.70387
G1 X49.835 Y50.851 E9.70685
G1 X49.576 Y50.758 E9.70905
G1 X49.331 Y50.554 E9.7116
G1 X49.141 Y50.171 E9.71501
G1 X49.147 Y49.834 E9.71771
G1 X49.24 Y49.578 E9.71989
G1 X49.442 Y49.331 E9.72244
G1 X49.826 Y49.141 E9.72586
G1 X50.166 Y49.148 E9.72858
G1 X50.417 Y49.239 E9.73072
G1 X50.667 Y49.44 E9.73328
G1 X50.846 Y49.788 E9.73641
G1 X50.867 Y50.05 E9.73851
G1 X50.758 Y50.42 E9.74159
G1 X50.551 Y50.669 E9.74418
;TIME_ELAPSED:61.797655
G1 F1500 E3.24418
M107
M5 ; laser off
G0 X0 Y0 ; return home
M82 ;absolute extrusion mode
M104 S0
;End of Gcode
