;FLAVOR:Marlin
;TIME:4094
;Filament used: 0.49844m
;Layer height: 0.06
;MINX:36
;MINY:36
;MINZ:0.3
;MAXX:64
;MAXY:64
;MAXZ:19.98
;TARGET_MACHINE.NAME:Unknown
;Generated with Cura_SteamEngine 5.10.2
M104 S200
M105
M109 S200
G21 ; set units to mm
G90 ; absolute positioning
M82 ; force absolute extrusion
M5  ; laser OFF safety
G0 X0 Y0 ; reset origin
M82 ;absolute extrusion mode
G92 E0
G92 E0
G1 F1500 E-6.5
;LAYER_COUNT:329
;LAYER:0
M107
G0 F3600 X37.289 Y37.081 Z0.3
;TYPE:SKIRT
G1 F1500 E0
G1 F1800 X37.786 Y36.686 E0.01194
G1 X38.279 Y36.405 E0.02262
G1 X38.929 Y36.16 E0.03568
G1 X39.486 Y36.046 E0.04638
G1 X40.24 Y36.001 E0.06059
G1 X59.351 Y36 E0.42007
G1 X60.083 Y36.012 E0.43385
G1 X60.743 Y36.083 E0.44633
G1 X61.293 Y36.229 E0.45704
G1 X61.867 Y36.479 E0.46881
G1 X62.348 Y36.781 E0.4795
G1 X62.92 Y37.289 E0.49389
G1 X63.31 Y37.782 E0.50571
G1 X63.62 Y38.333 E0.5176
G1 X63.839 Y38.925 E0.52948
G1 X63.954 Y39.482 E0.54018
G1 X63.999 Y40.24 E0.55446
G1 X64 Y59.32 E0.91336
G1 X63.988 Y60.081 E0.92768
G1 X63.917 Y60.741 E0.94017
G1 X63.75 Y61.349 E0.95203
G1 X63.489 Y61.925 E0.96392
G1 X63.141 Y62.451 E0.97579
G1 X62.715 Y62.917 E0.98766
G1 X62.273 Y63.272 E0.99833
G1 X61.674 Y63.618 E1.01134
G1 X61.142 Y63.82 E1.02204
G1 X60.482 Y63.96 E1.03474
G1 X60.038 Y63.997 E1.04312
G1 X40.649 Y64 E1.40783
G1 X39.917 Y63.988 E1.42161
G1 X39.257 Y63.917 E1.43409
G1 X38.707 Y63.771 E1.4448
G1 X38.133 Y63.521 E1.45657
G1 X37.652 Y63.219 E1.46726
G1 X37.08 Y62.711 E1.48165
G1 X36.69 Y62.218 E1.49347
G1 X36.38 Y61.667 E1.50536
G1 X36.162 Y61.079 E1.51716
G1 X36.047 Y60.524 E1.52782
G1 X36.001 Y59.745 E1.5425
G1 X36 Y40.614 E1.90237
G1 X36.012 Y39.914 E1.91553
G1 X36.084 Y39.255 E1.928
G1 X36.23 Y38.705 E1.93871
G1 X36.452 Y38.184 E1.94936
G1 X36.863 Y37.543 E1.96368
G1 X37.289 Y37.081 E1.97551
G0 F3600 X37.54 Y37.392
G1 F1800 X37.984 Y37.034 E1.98623
G1 X38.477 Y36.753 E1.99691
G1 X39.009 Y36.552 E2.00761
G1 X39.566 Y36.438 E2.0183
G1 X40.24 Y36.401 E2.031
G1 X59.345 Y36.4 E2.39037
G1 X60.043 Y36.41 E2.40351
G1 X60.64 Y36.47 E2.41479
G1 X61.19 Y36.616 E2.4255
G1 X61.654 Y36.818 E2.43501
G1 X62.135 Y37.12 E2.4457
G1 X62.608 Y37.539 E2.45758
G1 X62.963 Y37.981 E2.46825
G1 X63.246 Y38.475 E2.47896
G1 X63.447 Y39.006 E2.48964
G1 X63.562 Y39.563 E2.50034
G1 X63.599 Y40.24 E2.51309
G1 X63.6 Y59.314 E2.87188
G1 X63.59 Y60.041 E2.88556
G1 X63.53 Y60.638 E2.89685
G1 X63.384 Y61.187 E2.90753
G1 X63.153 Y61.707 E2.91823
G1 X62.844 Y62.183 E2.92891
G1 X62.462 Y62.607 E2.93965
G1 X62.071 Y62.927 E2.94915
G1 X61.528 Y63.245 E2.96099
G1 X61.057 Y63.429 E2.9705
G1 X60.449 Y63.561 E2.9822
G1 X60.005 Y63.598 E2.99058
G1 X40.655 Y63.6 E3.35457
G1 X39.957 Y63.59 E3.3677
G1 X39.36 Y63.53 E3.37898
G1 X38.81 Y63.384 E3.38969
G1 X38.346 Y63.182 E3.39921
G1 X37.865 Y62.88 E3.40989
G1 X37.392 Y62.461 E3.42178
G1 X37.037 Y62.019 E3.43244
G1 X36.754 Y61.525 E3.44315
G1 X36.553 Y60.994 E3.45383
G1 X36.446 Y60.5 E3.46334
G1 X36.401 Y59.745 E3.47757
G1 X36.4 Y40.62 E3.83732
G1 X36.41 Y39.955 E3.84983
G1 X36.471 Y39.358 E3.86112
G1 X36.617 Y38.808 E3.87182
G1 X36.819 Y38.344 E3.88134
G1 X37.159 Y37.812 E3.89322
G1 X37.54 Y37.392 E3.90388
G0 F3600 X37.794 Y37.701
G1 F1800 X38.185 Y37.38 E3.9134
G1 X38.622 Y37.126 E3.92291
G1 X39.093 Y36.943 E3.93241
G1 X39.588 Y36.837 E3.94193
G1 X40.24 Y36.801 E3.95422
G1 X59.339 Y36.8 E4.31348
G1 X60.037 Y36.81 E4.32661
G1 X60.54 Y36.857 E4.33611
G1 X61.03 Y36.983 E4.34563
G1 X61.494 Y37.185 E4.35515
G1 X61.92 Y37.457 E4.36466
G1 X62.298 Y37.792 E4.37416
G1 X62.618 Y38.183 E4.38366
G1 X62.873 Y38.62 E4.39318
G1 X63.056 Y39.091 E4.40268
G1 X63.163 Y39.585 E4.41219
G1 X63.199 Y40.24 E4.42453
G1 X63.2 Y59.308 E4.78321
G1 X63.19 Y60.035 E4.79689
G1 X63.143 Y60.538 E4.80639
G1 X63.017 Y61.028 E4.81591
G1 X62.816 Y61.492 E4.82542
G1 X62.544 Y61.918 E4.83493
G1 X62.209 Y62.297 E4.84444
G1 X61.818 Y62.617 E4.85395
G1 X61.382 Y62.872 E4.86345
G1 X60.911 Y63.056 E4.87296
G1 X60.416 Y63.162 E4.88248
G1 X59.972 Y63.199 E4.89086
G1 X40.661 Y63.2 E5.25411
G1 X39.963 Y63.19 E5.26724
G1 X39.46 Y63.143 E5.27675
G1 X38.97 Y63.017 E5.28626
G1 X38.506 Y62.815 E5.29578
G1 X38.08 Y62.543 E5.30529
G1 X37.702 Y62.208 E5.31479
G1 X37.382 Y61.817 E5.3243
G1 X37.127 Y61.38 E5.33381
G1 X36.944 Y60.909 E5.34332
G1 X36.837 Y60.415 E5.35283
G1 X36.801 Y59.745 E5.36545
G1 X36.8 Y40.626 E5.72509
G1 X36.81 Y39.961 E5.7376
G1 X36.858 Y39.458 E5.7471
G1 X36.984 Y38.968 E5.75662
G1 X37.186 Y38.504 E5.76614
G1 X37.458 Y38.078 E5.77565
G1 X37.794 Y37.701 E5.78515
G1 F1500 E-0.71485
;MESH:20mm cube.stl
G0 F3600 X40.424 Y39.335
G0 X40.424 Y40.424
G0 X59.09 Y59.12
G0 X59.4 Y59.4
;TYPE:WALL-INNER
G1 F1500 E5.78515
G1 F1800 X59.4 Y40.6 E6.13878
G1 X40.6 Y40.6 E6.49242
G1 X40.6 Y59.4 E6.84606
G1 X59.4 Y59.4 E7.1997
G0 F3600 X59.8 Y59.8
;TYPE:WALL-OUTER
G1 F1800 X59.8 Y40.2 E7.56839
G1 X40.2 Y40.2 E7.93707
G1 X40.2 Y59.8 E8.30576
G1 X59.8 Y59.8 E8.67445
G0 F3600 X59.8 Y59.6
G0 X59.02 Y59.02
;TYPE:SKIN
G1 F900 X40.98 Y59.02 E9.01379
G1 X40.98 Y40.98 E9.35313
G1 X59.02 Y40.98 E9.69247
G1 X59.02 Y59.02 E10.03182
G0 F3600 X58.717 Y41.18
G1 F900 X58.82 Y41.284 E10.03457
G0 F3600 X58.82 Y41.849
G1 F900 X58.151 Y41.18 E10.05237
G0 F3600 X57.585 Y41.18
G1 F900 X58.82 Y42.415 E10.08522
G0 F3600 X58.82 Y42.981
G1 F900 X57.02 Y41.18 E10.13312
G0 F3600 X56.454 Y41.18
G1 F900 X58.82 Y43.546 E10.19606
G0 F3600 X58.82 Y44.112
G1 F900 X55.888 Y41.18 E10.27406
G0 F3600 X55.323 Y41.18
G1 F900 X58.82 Y44.678 E10.3671
G0 F3600 X58.82 Y45.244
G1 F900 X54.757 Y41.18 E10.47519
G0 F3600 X54.191 Y41.18
G1 F900 X58.82 Y45.809 E10.59834
G0 F3600 X58.82 Y46.375
G1 F900 X53.626 Y41.18 E10.73652
G0 F3600 X53.06 Y41.18
G1 F900 X58.82 Y46.941 E10.88976
G0 F3600 X58.82 Y47.506
G1 F900 X52.494 Y41.18 E11.05805
G0 F3600 X51.929 Y41.18
G1 F900 X58.82 Y48.072 E11.24138
G0 F3600 X58.82 Y48.638
G1 F900 X51.363 Y41.18 E11.43976
G0 F3600 X50.797 Y41.18
G1 F900 X58.82 Y49.203 E11.65319
G0 F3600 X58.82 Y49.769
G1 F900 X50.231 Y41.18 E11.88168
G0 F3600 X49.666 Y41.18
G1 F900 X58.82 Y50.335 E12.12521
G0 F3600 X58.82 Y50.9
G1 F900 X49.1 Y41.18 E12.38378
G0 F3600 X48.534 Y41.18
G1 F900 X58.82 Y51.466 E12.65741
G0 F3600 X58.82 Y52.032
G1 F900 X47.969 Y41.18 E12.94608
G0 F3600 X47.403 Y41.18
G1 F900 X58.82 Y52.597 E13.2498
G0 F3600 X58.82 Y53.163
G1 F900 X46.837 Y41.18 E13.56857
G0 F3600 X46.272 Y41.18
G1 F900 X58.82 Y53.729 E13.90239
G0 F3600 X58.82 Y54.294
G1 F900 X45.706 Y41.18 E14.25125
G0 F3600 X45.14 Y41.18
G1 F900 X58.82 Y54.86 E14.61517
G0 F3600 X58.82 Y55.426
G1 F900 X44.575 Y41.18 E14.99413
G0 F3600 X44.009 Y41.18
G1 F900 X58.82 Y55.992 E15.38814
G0 F3600 X58.82 Y56.557
G1 F900 X43.443 Y41.18 E15.79721
G0 F3600 X42.878 Y41.18
G1 F900 X58.82 Y57.123 E16.22131
G0 F3600 X58.82 Y57.689
G1 F900 X42.312 Y41.18 E16.66047
G0 F3600 X41.746 Y41.18
G1 F900 X58.82 Y58.254 E17.11468
G0 F3600 X58.82 Y58.82
G1 F900 X41.18 Y41.18 E17.58394
G0 F3600 X41.18 Y41.745
G1 F900 X58.254 Y58.82 E18.03816
G0 F3600 X57.689 Y58.82
G1 F900 X41.18 Y42.311 E18.47733
G0 F3600 X41.18 Y42.877
G1 F900 X57.123 Y58.82 E18.90145
G0 F3600 X56.557 Y58.82
G1 F900 X41.18 Y43.443 E19.31051
G0 F3600 X41.18 Y44.008
G1 F900 X55.992 Y58.82 E19.70454
G0 F3600 X55.426 Y58.82
G1 F900 X41.18 Y44.574 E20.08352
G0 F3600 X41.18 Y45.14
G1 F900 X54.86 Y58.82 E20.44743
G0 F3600 X54.294 Y58.82
G1 F900 X41.18 Y45.705 E20.79631
G0 F3600 X41.18 Y46.271
G1 F900 X53.729 Y58.82 E21.13014
G0 F3600 X53.163 Y58.82
G1 F900 X41.18 Y46.837 E21.44891
G0 F3600 X41.18 Y47.402
G1 F900 X52.597 Y58.82 E21.75264
G0 F3600 X52.032 Y58.82
G1 F900 X41.18 Y47.968 E22.04133
G0 F3600 X41.18 Y48.534
G1 F900 X51.466 Y58.82 E22.31496
G0 F3600 X50.9 Y58.82
G1 F900 X41.18 Y49.099 E22.57354
G0 F3600 X41.18 Y49.665
G1 F900 X50.335 Y58.82 E22.81709
G0 F3600 X49.769 Y58.82
G1 F900 X41.18 Y50.231 E23.04557
G0 F3600 X41.18 Y50.796
G1 F900 X49.203 Y58.82 E23.25901
G0 F3600 X48.638 Y58.82
G1 F900 X41.18 Y51.362 E23.45741
G0 F3600 X41.18 Y51.928
G1 F900 X48.072 Y58.82 E23.64076
G0 F3600 X47.506 Y58.82
G1 F900 X41.18 Y52.493 E23.80905
G0 F3600 X41.18 Y53.059
G1 F900 X46.941 Y58.82 E23.96231
G0 F3600 X46.375 Y58.82
G1 F900 X41.18 Y53.625 E24.10051
G0 F3600 X41.18 Y54.191
G1 F900 X45.809 Y58.82 E24.22365
G0 F3600 X45.244 Y58.82
G1 F900 X41.18 Y54.756 E24.33176
G0 F3600 X41.18 Y55.322
G1 F900 X44.678 Y58.82 E24.42481
G0 F3600 X44.112 Y58.82
G1 F900 X41.18 Y55.888 E24.50281
G0 F3600 X41.18 Y56.453
G1 F900 X43.546 Y58.82 E24.56576
G0 F3600 X42.981 Y58.82
G1 F900 X41.18 Y57.019 E24.61368
G0 F3600 X41.18 Y57.585
G1 F900 X42.415 Y58.82 E24.64653
G0 F3600 X41.849 Y58.82
G1 F900 X41.18 Y58.15 E24.66434
G0 F3600 X41.18 Y58.716
G1 F900 X41.284 Y58.82 E24.66711
G0 F3600 X41.284 Y58.79
G1 F1500 E18.16711
;MESH:NONMESH
G0 F600 X41.284 Y58.79 Z0.36
G0 F3600 X40.424 Y40.424
G0 X40.424 Y39.335
G0 X37.794 Y37.701
;TIME_ELAPSED:78.319769
;LAYER:1
M106 S255
;TYPE:SKIRT
G1 F1500 E24.66711
G1 F1800 X38.185 Y37.38 E24.66901
G1 X38.622 Y37.126 E24.67091
G1 X39.093 Y36.943 E24.67281
G1 X39.588 Y36.837 E24.67472
G1 X40.24 Y36.801 E24.67717
G1 X59.339 Y36.8 E24.74903
G1 X60.037 Y36.81 E24.75165
G1 X60.54 Y36.857 E24.75355
G1 X61.03 Y36.983 E24.75546
G1 X61.494 Y37.185 E24.75736
G1 X61.92 Y37.457 E24.75926
G1 X62.298 Y37.792 E24.76116
G1 X62.618 Y38.183 E24.76306
G1 X62.873 Y38.62 E24.76497
G1 X63.056 Y39.091 E24.76687
G1 X63.163 Y39.585 E24.76877
G1 X63.199 Y40.24 E24.77124
G1 X63.2 Y59.308 E24.84297
G1 X63.19 Y60.035 E24.84571
G1 X63.143 Y60.538 E24.84761
G1 X63.017 Y61.028 E24.84951
G1 X62.816 Y61.492 E24.85141
G1 X62.544 Y61.918 E24.85331
G1 X62.209 Y62.297 E24.85522
G1 X61.818 Y62.617 E24.85712
G1 X61.382 Y62.872 E24.85902
G1 X60.911 Y63.056 E24.86092
G1 X60.416 Y63.162 E24.86283
G1 X59.972 Y63.199 E24.8645
G1 X40.661 Y63.2 E24.93715
G1 X39.963 Y63.19 E24.93978
G1 X39.46 Y63.143 E24.94168
G1 X38.97 Y63.017 E24.94358
G1 X38.506 Y62.815 E24.94549
G1 X38.08 Y62.543 E24.94739
G1 X37.702 Y62.208 E24.94929
G1 X37.382 Y61.817 E24.95119
G1 X37.127 Y61.38 E24.95309
G1 X36.944 Y60.909 E24.95499
G1 X36.837 Y60.415 E24.95689
G1 X36.801 Y59.745 E24.95942
G1 X36.8 Y40.626 E25.03135
G1 X36.81 Y39.961 E25.03385
G1 X36.858 Y39.458 E25.03575
G1 X36.984 Y38.968 E25.03765
G1 X37.186 Y38.504 E25.03956
G1 X37.458 Y38.078 E25.04146
G1 X37.794 Y37.701 E25.04336
G1 F1500 E18.54336
;MESH:20mm cube.stl
G0 F5400 X40.424 Y39.335
G0 X40.424 Y40.424
G0 X59.09 Y59.12
G0 X59.4 Y59.4
;TYPE:WALL-INNER
G1 F1500 E25.04336
G1 F2700 X59.4 Y40.6 E25.11409
G1 X40.6 Y40.6 E25.18481
G1 X40.6 Y59.4 E25.25554
G1 X59.4 Y59.4 E25.32627
G0 F5400 X59.8 Y59.8
;TYPE:WALL-OUTER
G1 F1800 X59.8 Y40.2 E25.40001
G1 X40.2 Y40.2 E25.47374
G1 X40.2 Y59.8 E25.54748
G1 X59.8 Y59.8 E25.62122
G0 F5400 X59.8 Y59.6
G0 X59.02 Y59.02
;TYPE:SKIN
G1 F900 X40.98 Y59.02 E25.68909
G1 X40.98 Y40.98 E25.75696
G1 X59.02 Y40.98 E25.82482
G1 X59.02 Y59.02 E25.89269
G0 F5400 X58.277 Y58.82
G1 F900 X58.82 Y58.277 E25.89558
G0 F5400 X58.82 Y57.711
G1 F900 X57.711 Y58.82 E25.90148
G0 F5400 X57.146 Y58.82
G1 F900 X58.82 Y57.146 E25.91039
G0 F5400 X58.82 Y56.58
G1 F900 X56.58 Y58.82 E25.92231
G0 F5400 X56.014 Y58.82
G1 F900 X58.82 Y56.014 E25.93724
G0 F5400 X58.82 Y55.448
G1 F900 X55.448 Y58.82 E25.95518
G0 F5400 X54.883 Y58.82
G1 F900 X58.82 Y54.883 E25.97612
G0 F5400 X58.82 Y54.317
G1 F900 X54.317 Y58.82 E26.00008
G0 F5400 X53.751 Y58.82
G1 F900 X58.82 Y53.751 E26.02705
G0 F5400 X58.82 Y53.186
G1 F900 X53.186 Y58.82 E26.05702
G0 F5400 X52.62 Y58.82
G1 F900 X58.82 Y52.62 E26.09001
G0 F5400 X58.82 Y52.054
G1 F900 X52.054 Y58.82 E26.12601
G0 F5400 X51.489 Y58.82
G1 F900 X58.82 Y51.489 E26.16501
G0 F5400 X58.82 Y50.923
G1 F900 X50.923 Y58.82 E26.20703
G0 F5400 X50.357 Y58.82
G1 F900 X58.82 Y50.357 E26.25206
G0 F5400 X58.82 Y49.792
G1 F900 X49.792 Y58.82 E26.30009
G0 F5400 X49.226 Y58.82
G1 F900 X58.82 Y49.226 E26.35113
G0 F5400 X58.82 Y48.66
G1 F900 X48.66 Y58.82 E26.40519
G0 F5400 X48.095 Y58.82
G1 F900 X58.82 Y48.095 E26.46225
G0 F5400 X58.82 Y47.529
G1 F900 X47.529 Y58.82 E26.52232
G0 F5400 X46.963 Y58.82
G1 F900 X58.82 Y46.963 E26.58541
G0 F5400 X58.82 Y46.398
G1 F900 X46.398 Y58.82 E26.6515
G0 F5400 X45.832 Y58.82
G1 F900 X58.82 Y45.832 E26.7206
G0 F5400 X58.82 Y45.266
G1 F900 X45.266 Y58.82 E26.79271
G0 F5400 X44.7 Y58.82
G1 F900 X58.82 Y44.7 E26.86784
G0 F5400 X58.82 Y44.135
G1 F900 X44.135 Y58.82 E26.94597
G0 F5400 X43.569 Y58.82
G1 F900 X58.82 Y43.569 E27.02711
G0 F5400 X58.82 Y43.003
G1 F900 X43.003 Y58.82 E27.11126
G0 F5400 X42.438 Y58.82
G1 F900 X58.82 Y42.438 E27.19842
G0 F5400 X58.82 Y41.872
G1 F900 X41.872 Y58.82 E27.28859
G0 F5400 X41.306 Y58.82
G1 F900 X58.82 Y41.306 E27.38177
G0 F5400 X58.381 Y41.18
G1 F900 X41.18 Y58.38 E27.47329
G0 F5400 X41.18 Y57.814
G1 F900 X57.815 Y41.18 E27.56179
G0 F5400 X57.249 Y41.18
G1 F900 X41.18 Y57.249 E27.64728
G0 F5400 X41.18 Y56.683
G1 F900 X56.684 Y41.18 E27.72977
G0 F5400 X56.118 Y41.18
G1 F900 X41.18 Y56.117 E27.80924
G0 F5400 X41.18 Y55.552
G1 F900 X55.552 Y41.18 E27.88571
G0 F5400 X54.987 Y41.18
G1 F900 X41.18 Y54.986 E27.95917
G0 F5400 X41.18 Y54.42
G1 F900 X54.421 Y41.18 E28.02961
G0 F5400 X53.855 Y41.18
G1 F900 X41.18 Y53.855 E28.09705
G0 F5400 X41.18 Y53.289
G1 F900 X53.29 Y41.18 E28.16148
G0 F5400 X52.724 Y41.18
G1 F900 X41.18 Y52.723 E28.22289
G0 F5400 X41.18 Y52.158
G1 F900 X52.158 Y41.18 E28.2813
G0 F5400 X51.593 Y41.18
G1 F900 X41.18 Y51.592 E28.3367
G0 F5400 X41.18 Y51.026
G1 F900 X51.027 Y41.18 E28.38909
G0 F5400 X50.461 Y41.18
G1 F900 X41.18 Y50.461 E28.43846
G0 F5400 X41.18 Y49.895
G1 F900 X49.896 Y41.18 E28.48483
G0 F5400 X49.33 Y41.18
G1 F900 X41.18 Y49.329 E28.52819
G0 F5400 X41.18 Y48.763
G1 F900 X48.764 Y41.18 E28.56854
G0 F5400 X48.199 Y41.18
G1 F900 X41.18 Y48.198 E28.60588
G0 F5400 X41.18 Y47.632
G1 F900 X47.633 Y41.18 E28.64021
G0 F5400 X47.067 Y41.18
G1 F900 X41.18 Y47.066 E28.67153
G0 F5400 X41.18 Y46.501
G1 F900 X46.501 Y41.18 E28.69984
G0 F5400 X45.936 Y41.18
G1 F900 X41.18 Y45.935 E28.72514
G0 F5400 X41.18 Y45.369
G1 F900 X45.37 Y41.18 E28.74743
G0 F5400 X44.804 Y41.18
G1 F900 X41.18 Y44.804 E28.76671
G0 F5400 X41.18 Y44.238
G1 F900 X44.239 Y41.18 E28.78299
G0 F5400 X43.673 Y41.18
G1 F900 X41.18 Y43.672 E28.79625
G0 F5400 X41.18 Y43.107
G1 F900 X43.107 Y41.18 E28.8065
G0 F5400 X42.542 Y41.18
G1 F900 X41.18 Y42.541 E28.81374
G0 F5400 X41.18 Y41.975
G1 F900 X41.976 Y41.18 E28.81798
G0 F5400 X41.41 Y41.18
G1 F900 X41.18 Y41.41 E28.8192
G0 F5400 X41.21 Y41.41
G1 F1500 E22.3192
;MESH:NONMESH
G0 F600 X41.21 Y41.41 Z0.42
G0 F5400 X40.424 Y40.424
G0 X40.424 Y39.335
G0 X37.794 Y37.701
;TIME_ELAPSED:145.571803
;LAYER:2
;TYPE:SKIRT
G1 F1500 E28.8192
G1 F1800 X38.185 Y37.38 E28.8211
G1 X38.622 Y37.126 E28.823
G1 X39.093 Y36.943 E28.82491
G1 X39.588 Y36.837 E28.82681
G1 X40.24 Y36.801 E28.82927
G1 X59.339 Y36.8 E28.90112
G1 X60.037 Y36.81 E28.90375
G1 X60.54 Y36.857 E28.90565
G1 X61.03 Y36.983 E28.90755
G1 X61.494 Y37.185 E28.90945
G1 X61.92 Y37.457 E28.91135
G1 X62.298 Y37.792 E28.91326
G1 X62.618 Y38.183 E28.91516
G1 X62.873 Y38.62 E28.91706
G1 X63.056 Y39.091 E28.91896
G1 X63.163 Y39.585 E28.92086
G1 X63.199 Y40.24 E28.92333
G1 X63.2 Y59.308 E28.99507
G1 X63.19 Y60.035 E28.9978
G1 X63.143 Y60.538 E28.9997
G1 X63.017 Y61.028 E29.00161
G1 X62.816 Y61.492 E29.00351
G1 X62.544 Y61.918 E29.00541
G1 X62.209 Y62.297 E29.00731
G1 X61.818 Y62.617 E29.00921
G1 X61.382 Y62.872 E29.01111
G1 X60.911 Y63.056 E29.01302
G1 X60.416 Y63.162 E29.01492
G1 X59.972 Y63.199 E29.0166
G1 X40.661 Y63.2 E29.08925
G1 X39.963 Y63.19 E29.09187
G1 X39.46 Y63.143 E29.09377
G1 X38.97 Y63.017 E29.09568
G1 X38.506 Y62.815 E29.09758
G1 X38.08 Y62.543 E29.09948
G1 X37.702 Y62.208 E29.10138
G1 X37.382 Y61.817 E29.10328
G1 X37.127 Y61.38 E29.10519
G1 X36.944 Y60.909 E29.10709
G1 X36.837 Y60.415 E29.10899
G1 X36.801 Y59.745 E29.11151
G1 X36.8 Y40.626 E29.18344
G1 X36.81 Y39.961 E29.18594
G1 X36.858 Y39.458 E29.18784
G1 X36.984 Y38.968 E29.18975
G1 X37.186 Y38.504 E29.19165
G1 X37.458 Y38.078 E29.19355
G1 X37.794 Y37.701 E29.19545
G1 F1500 E22.69545
;MESH:20mm cube.stl
G0 F7200 X40.424 Y39.335
G0 X40.424 Y40.424
G0 X59.09 Y59.12
G0 X59.4 Y59.4
;TYPE:WALL-INNER
G1 F1500 E29.19545
G1 F3600 X59.4 Y40.6 E29.26618
G1 X40.6 Y40.6 E29.33691
G1 X40.6 Y59.4 E29.40764
G1 X59.4 Y59.4 E29.47836
G0 F7200 X59.8 Y59.8
;TYPE:WALL-OUTER
G1 F1800 X59.8 Y40.2 E29.5521
G1 X40.2 Y40.2 E29.62584
G1 X40.2 Y59.8 E29.69958
G1 X59.8 Y59.8 E29.77331
G0 F7200 X59.8 Y59.6
G0 X59.02 Y59.02
;TYPE:SKIN
G1 F900 X40.98 Y59.02 E29.84118
G1 X40.98 Y40.98 E29.90905
G1 X59.02 Y40.98 E29.97692
G1 X59.02 Y59.02 E30.04479
G0 F7200 X58.717 Y41.18
G1 F900 X58.82 Y41.284 E30.04534
G0 F7200 X58.82 Y41.849
G1 F900 X58.151 Y41.18 E30.0489
G0 F7200 X57.585 Y41.18
G1 F900 X58.82 Y42.415 E30.05547
G0 F7200 X58.82 Y42.981
G1 F900 X57.02 Y41.18 E30.06505
G0 F7200 X56.454 Y41.18
G1 F900 X58.82 Y43.546 E30.07763
G0 F7200 X58.82 Y44.112
G1 F900 X55.888 Y41.18 E30.09323
G0 F7200 X55.323 Y41.18
G1 F900 X58.82 Y44.678 E30.11184
G0 F7200 X58.82 Y45.244
G1 F900 X54.757 Y41.18 E30.13346
G0 F7200 X54.191 Y41.18
G1 F900 X58.82 Y45.809 E30.15809
G0 F7200 X58.82 Y46.375
G1 F900 X53.626 Y41.18 E30.18573
G0 F7200 X53.06 Y41.18
G1 F900 X58.82 Y46.941 E30.21638
G0 F7200 X58.82 Y47.506
G1 F900 X52.494 Y41.18 E30.25003
G0 F7200 X51.929 Y41.18
G1 F900 X58.82 Y48.072 E30.2867
G0 F7200 X58.82 Y48.638
G1 F900 X51.363 Y41.18 E30.32638
G0 F7200 X50.797 Y41.18
G1 F900 X58.82 Y49.203 E30.36906
G0 F7200 X58.82 Y49.769
G1 F900 X50.231 Y41.18 E30.41476
G0 F7200 X49.666 Y41.18
G1 F900 X58.82 Y50.335 E30.46346
G0 F7200 X58.82 Y50.9
G1 F900 X49.1 Y41.18 E30.51518
G0 F7200 X48.534 Y41.18
G1 F900 X58.82 Y51.466 E30.5699
G0 F7200 X58.82 Y52.032
G1 F900 X47.969 Y41.18 E30.62764
G0 F7200 X47.403 Y41.18
G1 F900 X58.82 Y52.597 E30.68838
G0 F7200 X58.82 Y53.163
G1 F900 X46.837 Y41.18 E30.75214
G0 F7200 X46.272 Y41.18
G1 F900 X58.82 Y53.729 E30.8189
G0 F7200 X58.82 Y54.294
G1 F900 X45.706 Y41.18 E30.88867
G0 F7200 X45.14 Y41.18
G1 F900 X58.82 Y54.86 E30.96146
G0 F7200 X58.82 Y55.426
G1 F900 X44.575 Y41.18 E31.03725
G0 F7200 X44.009 Y41.18
G1 F900 X58.82 Y55.992 E31.11605
G0 F7200 X58.82 Y56.557
G1 F900 X43.443 Y41.18 E31.19786
G0 F7200 X42.878 Y41.18
G1 F900 X58.82 Y57.123 E31.28269
G0 F7200 X58.82 Y57.689
G1 F900 X42.312 Y41.18 E31.37052
G0 F7200 X41.746 Y41.18
G1 F900 X58.82 Y58.254 E31.46136
G0 F7200 X58.82 Y58.82
G1 F900 X41.18 Y41.18 E31.55521
G0 F7200 X41.18 Y41.745
G1 F900 X58.254 Y58.82 E31.64605
G0 F7200 X57.689 Y58.82
G1 F900 X41.18 Y42.311 E31.73389
G0 F7200 X41.18 Y42.877
G1 F900 X57.123 Y58.82 E31.81871
G0 F7200 X56.557 Y58.82
G1 F900 X41.18 Y43.443 E31.90053
G0 F7200 X41.18 Y44.008
G1 F900 X55.992 Y58.82 E31.97933
G0 F7200 X55.426 Y58.82
G1 F900 X41.18 Y44.574 E32.05513
G0 F7200 X41.18 Y45.14
G1 F900 X54.86 Y58.82 E32.12791
G0 F7200 X54.294 Y58.82
G1 F900 X41.18 Y45.705 E32.19768
G0 F7200 X41.18 Y46.271
G1 F900 X53.729 Y58.82 E32.26445
G0 F7200 X53.163 Y58.82
G1 F900 X41.18 Y46.837 E32.32821
G0 F7200 X41.18 Y47.402
G1 F900 X52.597 Y58.82 E32.38895
G0 F7200 X52.032 Y58.82
G1 F900 X41.18 Y47.968 E32.44669
G0 F7200 X41.18 Y48.534
G1 F900 X51.466 Y58.82 E32.50141
G0 F7200 X50.9 Y58.82
G1 F900 X41.18 Y49.099 E32.55313
G0 F7200 X41.18 Y49.665
G1 F900 X50.335 Y58.82 E32.60184
G0 F7200 X49.769 Y58.82
G1 F900 X41.18 Y50.231 E32.64754
G0 F7200 X41.18 Y50.796
G1 F900 X49.203 Y58.82 E32.69023
G0 F7200 X48.638 Y58.82
G1 F900 X41.18 Y51.362 E32.72991
G0 F7200 X41.18 Y51.928
G1 F900 X48.072 Y58.82 E32.76657
G0 F7200 X47.506 Y58.82
G1 F900 X41.18 Y52.493 E32.80023
G0 F7200 X41.18 Y53.059
G1 F900 X46.941 Y58.82 E32.83089
G0 F7200 X46.375 Y58.82
G1 F900 X41.18 Y53.625 E32.85852
G0 F7200 X41.18 Y54.191
G1 F900 X45.809 Y58.82 E32.88315
G0 F7200 X45.244 Y58.82
G1 F900 X41.18 Y54.756 E32.90478
G0 F7200 X41.18 Y55.322
G1 F900 X44.678 Y58.82 E32.92339
G0 F7200 X44.112 Y58.82
G1 F900 X41.18 Y55.888 E32.93899
G0 F7200 X41.18 Y56.453
G1 F900 X43.546 Y58.82 E32.95158
G0 F7200 X42.981 Y58.82
G1 F900 X41.18 Y57.019 E32.96116
G0 F7200 X41.18 Y57.585
G1 F900 X42.415 Y58.82 E32.96773
G0 F7200 X41.849 Y58.82
G1 F900 X41.18 Y58.15 E32.97129
G0 F7200 X41.18 Y58.716
G1 F900 X41.284 Y58.82 E32.97184
G0 F7200 X41.284 Y58.79
;MESH:NONMESH
G0 F600 X41.284 Y58.79 Z0.48
G0 F7200 X59.12 Y59.12
G0 X59.4 Y59.4
;TIME_ELAPSED:212.376832
;LAYER:3
;TYPE:WALL-INNER
;MESH:20mm cube.stl
G1 F3600 X59.4 Y40.6 E33.04257
G1 X40.6 Y40.6 E33.1133
G1 X40.6 Y59.4 E33.18403
G1 X59.4 Y59.4 E33.25476
G0 F7200 X59.8 Y59.8
;TYPE:WALL-OUTER
G1 F1800 X59.8 Y40.2 E33.32849
G1 X40.2 Y40.2 E33.40223
G1 X40.2 Y59.8 E33.47597
G1 X59.8 Y59.8 E33.5497
G0 F7200 X59.8 Y59.6
G0 X59.02 Y59.02
;TYPE:SKIN
G1 F900 X40.98 Y59.02 E33.61757
G1 X40.98 Y40.98 E33.68544
G1 X59.02 Y40.98 E33.75331
G1 X59.02 Y59.02 E33.82118
G0 F7200 X58.277 Y58.82
G1 F900 X58.82 Y58.277 E33.82407
G0 F7200 X58.82 Y57.711
G1 F900 X57.711 Y58.82 E33.82997
G0 F7200 X57.146 Y58.82
G1 F900 X58.82 Y57.146 E33.83887
G0 F7200 X58.82 Y56.58
G1 F900 X56.58 Y58.82 E33.85079
G0 F7200 X56.014 Y58.82
G1 F900 X58.82 Y56.014 E33.86572
G0 F7200 X58.82 Y55.448
G1 F900 X55.448 Y58.82 E33.88366
G0 F7200 X54.883 Y58.82
G1 F900 X58.82 Y54.883 E33.90461
G0 F7200 X58.82 Y54.317
G1 F900 X54.317 Y58.82 E33.92857
G0 F7200 X53.751 Y58.82
G1 F900 X58.82 Y53.751 E33.95554
G0 F7200 X58.82 Y53.186
G1 F900 X53.186 Y58.82 E33.98551
G0 F7200 X52.62 Y58.82
G1 F900 X58.82 Y52.62 E34.0185
G0 F7200 X58.82 Y52.054
G1 F900 X52.054 Y58.82 E34.0545
G0 F7200 X51.489 Y58.82
G1 F900 X58.82 Y51.489 E34.0935
G0 F7200 X58.82 Y50.923
G1 F900 X50.923 Y58.82 E34.13552
G0 F7200 X50.357 Y58.82
G1 F900 X58.82 Y50.357 E34.18054
G0 F7200 X58.82 Y49.792
G1 F900 X49.792 Y58.82 E34.22857
G0 F7200 X49.226 Y58.82
G1 F900 X58.82 Y49.226 E34.27962
G0 F7200 X58.82 Y48.66
G1 F900 X48.66 Y58.82 E34.33367
G0 F7200 X48.095 Y58.82
G1 F900 X58.82 Y48.095 E34.39074
G0 F7200 X58.82 Y47.529
G1 F900 X47.529 Y58.82 E34.45081
G0 F7200 X46.963 Y58.82
G1 F900 X58.82 Y46.963 E34.51389
G0 F7200 X58.82 Y46.398
G1 F900 X46.398 Y58.82 E34.57998
G0 F7200 X45.832 Y58.82
G1 F900 X58.82 Y45.832 E34.64909
G0 F7200 X58.82 Y45.266
G1 F900 X45.266 Y58.82 E34.7212
G0 F7200 X44.7 Y58.82
G1 F900 X58.82 Y44.7 E34.79632
G0 F7200 X58.82 Y44.135
G1 F900 X44.135 Y58.82 E34.87445
G0 F7200 X43.569 Y58.82
G1 F900 X58.82 Y43.569 E34.9556
G0 F7200 X58.82 Y43.003
G1 F900 X43.003 Y58.82 E35.03975
G0 F7200 X42.438 Y58.82
G1 F900 X58.82 Y42.438 E35.12691
G0 F7200 X58.82 Y41.872
G1 F900 X41.872 Y58.82 E35.21708
G0 F7200 X41.306 Y58.82
G1 F900 X58.82 Y41.306 E35.31026
G0 F7200 X58.381 Y41.18
G1 F900 X41.18 Y58.38 E35.40177
G0 F7200 X41.18 Y57.814
G1 F900 X57.815 Y41.18 E35.49028
G0 F7200 X57.249 Y41.18
G1 F900 X41.18 Y57.249 E35.57577
G0 F7200 X41.18 Y56.683
G1 F900 X56.684 Y41.18 E35.65826
G0 F7200 X56.118 Y41.18
G1 F900 X41.18 Y56.117 E35.73773
G0 F7200 X41.18 Y55.552
G1 F900 X55.552 Y41.18 E35.8142
G0 F7200 X54.987 Y41.18
G1 F900 X41.18 Y54.986 E35.88765
G0 F7200 X41.18 Y54.42
G1 F900 X54.421 Y41.18 E35.9581
G0 F7200 X53.855 Y41.18
G1 F900 X41.18 Y53.855 E36.02553
G0 F7200 X41.18 Y53.289
G1 F900 X53.29 Y41.18 E36.08996
G0 F7200 X52.724 Y41.18
G1 F900 X41.18 Y52.723 E36.15138
G0 F7200 X41.18 Y52.158
G1 F900 X52.158 Y41.18 E36.20979
G0 F7200 X51.593 Y41.18
G1 F900 X41.18 Y51.592 E36.26518
G0 F7200 X41.18 Y51.026
G1 F900 X51.027 Y41.18 E36.31757
G0 F7200 X50.461 Y41.18
G1 F900 X41.18 Y50.461 E36.36695
G0 F7200 X41.18 Y49.895
G1 F900 X49.896 Y41.18 E36.41332
G0 F7200 X49.33 Y41.18
G1 F900 X41.18 Y49.329 E36.45668
G0 F7200 X41.18 Y48.763
G1 F900 X48.764 Y41.18 E36.49703
G0 F7200 X48.199 Y41.18
G1 F900 X41.18 Y48.198 E36.53437
G0 F7200 X41.18 Y47.632
G1 F900 X47.633 Y41.18 E36.5687
G0 F7200 X47.067 Y41.18
G1 F900 X41.18 Y47.066 E36.60002
G0 F7200 X41.18 Y46.501
G1 F900 X46.501 Y41.18 E36.62833
G0 F7200 X45.936 Y41.18
G1 F900 X41.18 Y45.935 E36.65363
G0 F7200 X41.18 Y45.369
G1 F900 X45.37 Y41.18 E36.67592
G0 F7200 X44.804 Y41.18
G1 F900 X41.18 Y44.804 E36.6952
G0 F7200 X41.18 Y44.238
G1 F900 X44.239 Y41.18 E36.71147
G0 F7200 X43.673 Y41.18
G1 F900 X41.18 Y43.672 E36.72473
G0 F7200 X41.18 Y43.107
G1 F900 X43.107 Y41.18 E36.73499
G0 F7200 X42.542 Y41.18
G1 F900 X41.18 Y42.541 E36.74223
G0 F7200 X41.18 Y41.975
G1 F900 X41.976 Y41.18 E36.74646
G0 F7200 X41.41 Y41.18
G1 F900 X41.18 Y41.41 E36.74769
G0 F7200 X41.21 Y41.41
;MESH:NONMESH
G0 F600 X41.21 Y41.41 Z0.54
G0 F7200 X59.12 Y59.12
G0 X59.4 Y59.4
;TIME_ELAPSED:274.608554
;LAYER:4
;TYPE:WALL-INNER
;MESH:20mm cube.stl
G1 F3600 X59.4 Y40.6 E36.81841
G1 X40.6 Y40.6 E36.88914
G1 X40.6 Y59.4 E36.95987
G1 X59.4 Y59.4 E37.0306
G0 F7200 X59.8 Y59.8
;TYPE:WALL-OUTER
G1 F1800 X59.8 Y40.2 E37.10433
G1 X40.2 Y40.2 E37.17807
G1 X40.2 Y59.8 E37.25181
G1 X59.8 Y59.8 E37.32555
G0 F7200 X59.8 Y59.6
G0 X59.02 Y59.02
;TYPE:SKIN
G1 F900 X40.98 Y59.02 E37.39341
G1 X40.98 Y40.98 E37.46128
G1 X59.02 Y40.98 E37.52915
G1 X59.02 Y59.02 E37.59702
G0 F7200 X58.717 Y41.18
G1 F900 X58.82 Y41.284 E37.59757
G0 F7200 X58.82 Y41.849
G1 F900 X58.151 Y41.18 E37.60113
G0 F7200 X57.585 Y41.18
G1 F900 X58.82 Y42.415 E37.6077
G0 F7200 X58.82 Y42.981
G1 F900 X57.02 Y41.18 E37.61728
G0 F7200 X56.454 Y41.18
G1 F900 X58.82 Y43.546 E37.62987
G0 F7200 X58.82 Y44.112
G1 F900 X55.888 Y41.18 E37.64547
G0 F7200 X55.323 Y41.18
G1 F900 X58.82 Y44.678 E37.66408
G0 F7200 X58.82 Y45.244
G1 F900 X54.757 Y41.18 E37.6857
G0 F7200 X54.191 Y41.18
G1 F900 X58.82 Y45.809 E37.71032
G0 F7200 X58.82 Y46.375
G1 F900 X53.626 Y41.18 E37.73796
G0 F7200 X53.06 Y41.18
G1 F900 X58.82 Y46.941 E37.76861
G0 F7200 X58.82 Y47.506
G1 F900 X52.494 Y41.18 E37.80227
G0 F7200 X51.929 Y41.18
G1 F900 X58.82 Y48.072 E37.83893
G0 F7200 X58.82 Y48.638
G1 F900 X51.363 Y41.18 E37.87861
G0 F7200 X50.797 Y41.18
G1 F900 X58.82 Y49.203 E37.9213
G0 F7200 X58.82 Y49.769
G1 F900 X50.231 Y41.18 E37.96699
G0 F7200 X49.666 Y41.18
G1 F900 X58.82 Y50.335 E38.0157
G0 F7200 X58.82 Y50.9
G1 F900 X49.1 Y41.18 E38.06741
G0 F7200 X48.534 Y41.18
G1 F900 X58.82 Y51.466 E38.12214
G0 F7200 X58.82 Y52.032
G1 F900 X47.969 Y41.18 E38.17987
G0 F7200 X47.403 Y41.18
G1 F900 X58.82 Y52.597 E38.24062
G0 F7200 X58.82 Y53.163
G1 F900 X46.837 Y41.18 E38.30437
G0 F7200 X46.272 Y41.18
G1 F900 X58.82 Y53.729 E38.37113
G0 F7200 X58.82 Y54.294
G1 F900 X45.706 Y41.18 E38.44091
G0 F7200 X45.14 Y41.18
G1 F900 X58.82 Y54.86 E38.51369
G0 F7200 X58.82 Y55.426
G1 F900 X44.575 Y41.18 E38.58948
G0 F7200 X44.009 Y41.18
G1 F900 X58.82 Y55.992 E38.66829
G0 F7200 X58.82 Y56.557
G1 F900 X43.443 Y41.18 E38.7501
G0 F7200 X42.878 Y41.18
G1 F900 X58.82 Y57.123 E38.83492
G0 F7200 X58.82 Y57.689
G1 F900 X42.312 Y41.18 E38.92275
G0 F7200 X41.746 Y41.18
G1 F900 X58.82 Y58.254 E39.01359
G0 F7200 X58.82 Y58.82
G1 F900 X41.18 Y41.18 E39.10744
G0 F7200 X41.18 Y41.745
G1 F900 X58.254 Y58.82 E39.19829
G0 F7200 X57.689 Y58.82
G1 F900 X41.18 Y42.311 E39.28612
G0 F7200 X41.18 Y42.877
G1 F900 X57.123 Y58.82 E39.37095
G0 F7200 X56.557 Y58.82
G1 F900 X41.18 Y43.443 E39.45276
G0 F7200 X41.18 Y44.008
G1 F900 X55.992 Y58.82 E39.53157
G0 F7200 X55.426 Y58.82
G1 F900 X41.18 Y44.574 E39.60736
G0 F7200 X41.18 Y45.14
G1 F900 X54.86 Y58.82 E39.68014
G0 F7200 X54.294 Y58.82
G1 F900 X41.18 Y45.705 E39.74992
G0 F7200 X41.18 Y46.271
G1 F900 X53.729 Y58.82 E39.81668
G0 F7200 X53.163 Y58.82
G1 F900 X41.18 Y46.837 E39.88044
G0 F7200 X41.18 Y47.402
G1 F900 X52.597 Y58.82 E39.94119
G0 F7200 X52.032 Y58.82
G1 F900 X41.18 Y47.968 E39.99892
G0 F7200 X41.18 Y48.534
G1 F900 X51.466 Y58.82 E40.05365
G0 F7200 X50.9 Y58.82
G1 F900 X41.18 Y49.099 E40.10537
G0 F7200 X41.18 Y49.665
G1 F900 X50.335 Y58.82 E40.15407
G0 F7200 X49.769 Y58.82
G1 F900 X41.18 Y50.231 E40.19977
G0 F7200 X41.18 Y50.796
G1 F900 X49.203 Y58.82 E40.24246
G0 F7200 X48.638 Y58.82
G1 F900 X41.18 Y51.362 E40.28214
G0 F7200 X41.18 Y51.928
G1 F900 X48.072 Y58.82 E40.31881
G0 F7200 X47.506 Y58.82
G1 F900 X41.18 Y52.493 E40.35247
G0 F7200 X41.18 Y53.059
G1 F900 X46.941 Y58.82 E40.38312
G0 F7200 X46.375 Y58.82
G1 F900 X41.18 Y53.625 E40.41076
G0 F7200 X41.18 Y54.191
G1 F900 X45.809 Y58.82 E40.43539
G0 F7200 X45.244 Y58.82
G1 F900 X41.18 Y54.756 E40.45701
G0 F7200 X41.18 Y55.322
G1 F900 X44.678 Y58.82 E40.47562
G0 F7200 X44.112 Y58.82
G1 F900 X41.18 Y55.888 E40.49122
G0 F7200 X41.18 Y56.453
G1 F900 X43.546 Y58.82 E40.50381
G0 F7200 X42.981 Y58.82
G1 F900 X41.18 Y57.019 E40.51339
G0 F7200 X41.18 Y57.585
G1 F900 X42.415 Y58.82 E40.51996
G0 F7200 X41.849 Y58.82
G1 F900 X41.18 Y58.15 E40.52352
G0 F7200 X41.18 Y58.716
G1 F900 X41.284 Y58.82 E40.52408
G0 F7200 X41.284 Y58.79
;MESH:NONMESH
G0 F600 X41.284 Y58.79 Z0.6
G0 F7200 X59.12 Y59.12
G0 X59.4 Y59.4
;TIME_ELAPSED:336.969291
;LAYER:5
;TYPE:WALL-INNER
;MESH:20mm cube.stl
G1 F3600 X59.4 Y40.6 E40.59481
G1 X40.6 Y40.6 E40.66553
G1 X40.6 Y59.4 E40.73626
G1 X59.4 Y59.4 E40.80699
G0 F7200 X59.8 Y59.8
;TYPE:WALL-OUTER
G1 F1800 X59.8 Y40.2 E40.88073
G1 X40.2 Y40.2 E40.95446
G1 X40.2 Y59.8 E41.0282
G1 X59.8 Y59.8 E41.10194
G0 F7200 X59.8 Y59.6
G0 X59.02 Y59.02
;TYPE:SKIN
G1 F900 X40.98 Y59.02 E41.16981
G1 X40.98 Y40.98 E41.23768
G1 X59.02 Y40.98 E41.30554
G1 X59.02 Y59.02 E41.37341
G0 F7200 X58.277 Y58.82
G1 F900 X58.82 Y58.277 E41.3763
G0 F7200 X58.82 Y57.711
G1 F900 X57.711 Y58.82 E41.3822
G0 F7200 X57.146 Y58.82
G1 F900 X58.82 Y57.146 E41.39111
G0 F7200 X58.82 Y56.58
G1 F900 X56.58 Y58.82 E41.40303
G0 F7200 X56.014 Y58.82
G1 F900 X58.82 Y56.014 E41.41795
G0 F7200 X58.82 Y55.448
G1 F900 X55.448 Y58.82 E41.4359
G0 F7200 X54.883 Y58.82
G1 F900 X58.82 Y54.883 E41.45684
G0 F7200 X58.82 Y54.317
G1 F900 X54.317 Y58.82 E41.4808
G0 F7200 X53.751 Y58.82
G1 F900 X58.82 Y53.751 E41.50777
G0 F7200 X58.82 Y53.186
G1 F900 X53.186 Y58.82 E41.53774
G0 F7200 X52.62 Y58.82
G1 F900 X58.82 Y52.62 E41.57073
G0 F7200 X58.82 Y52.054
G1 F900 X52.054 Y58.82 E41.60673
G0 F7200 X51.489 Y58.82
G1 F900 X58.82 Y51.489 E41.64573
G0 F7200 X58.82 Y50.923
G1 F900 X50.923 Y58.82 E41.68775
G0 F7200 X50.357 Y58.82
G1 F900 X58.82 Y50.357 E41.73278
G0 F7200 X58.82 Y49.792
G1 F900 X49.792 Y58.82 E41.78081
G0 F7200 X49.226 Y58.82
G1 F900 X58.82 Y49.226 E41.83185
G0 F7200 X58.82 Y48.66
G1 F900 X48.66 Y58.82 E41.88591
G0 F7200 X48.095 Y58.82
G1 F900 X58.82 Y48.095 E41.94297
G0 F7200 X58.82 Y47.529
G1 F900 X47.529 Y58.82 E42.00304
G0 F7200 X46.963 Y58.82
G1 F900 X58.82 Y46.963 E42.06613
G0 F7200 X58.82 Y46.398
G1 F900 X46.398 Y58.82 E42.13222
G0 F7200 X45.832 Y58.82
G1 F900 X58.82 Y45.832 E42.20132
G0 F7200 X58.82 Y45.266
G1 F900 X45.266 Y58.82 E42.27343
G0 F7200 X44.7 Y58.82
G1 F900 X58.82 Y44.7 E42.34856
G0 F7200 X58.82 Y44.135
G1 F900 X44.135 Y58.82 E42.42669
G0 F7200 X43.569 Y58.82
G1 F900 X58.82 Y43.569 E42.50783
G0 F7200 X58.82 Y43.003
G1 F900 X43.003 Y58.82 E42.59198
G0 F7200 X42.438 Y58.82
G1 F900 X58.82 Y42.438 E42.67914
G0 F7200 X58.82 Y41.872
G1 F900 X41.872 Y58.82 E42.76931
G0 F7200 X41.306 Y58.82
G1 F900 X58.82 Y41.306 E42.86249
G0 F7200 X58.381 Y41.18
G1 F900 X41.18 Y58.38 E42.95401
G0 F7200 X41.18 Y57.814
G1 F900 X57.815 Y41.18 E43.04251
G0 F7200 X57.249 Y41.18
G1 F900 X41.18 Y57.249 E43.128
G0 F7200 X41.18 Y56.683
G1 F900 X56.684 Y41.18 E43.21049
G0 F7200 X56.118 Y41.18
G1 F900 X41.18 Y56.117 E43.28996
G0 F7200 X41.18 Y55.552
G1 F900 X55.552 Y41.18 E43.36643
G0 F7200 X54.987 Y41.18
G1 F900 X41.18 Y54.986 E43.43989
G0 F7200 X41.18 Y54.42
G1 F900 X54.421 Y41.18 E43.51033
G0 F7200 X53.855 Y41.18
G1 F900 X41.18 Y53.855 E43.57777
G0 F7200 X41.18 Y53.289
G1 F900 X53.29 Y41.18 E43.64219
G0 F7200 X52.724 Y41.18
G1 F900 X41.18 Y52.723 E43.70361
G0 F7200 X41.18 Y52.158
G1 F900 X52.158 Y41.18 E43.76202
G0 F7200 X51.593 Y41.18
G1 F900 X41.18 Y51.592 E43.81742
G0 F7200 X41.18 Y51.026
G1 F900 X51.027 Y41.18 E43.86981
G0 F7200 X50.461 Y41.18
G1 F900 X41.18 Y50.461 E43.91918
G0 F7200 X41.18 Y49.895
G1 F900 X49.896 Y41.18 E43.96555
G0 F7200 X49.33 Y41.18
G1 F900 X41.18 Y49.329 E44.00891
G0 F7200 X41.18 Y48.763
G1 F900 X48.764 Y41.18 E44.04926
G0 F7200 X48.199 Y41.18
G1 F900 X41.18 Y48.198 E44.0866
G0 F7200 X41.18 Y47.632
G1 F900 X47.633 Y41.18 E44.12093
G0 F7200 X47.067 Y41.18
G1 F900 X41.18 Y47.066 E44.15225
G0 F7200 X41.18 Y46.501
G1 F900 X46.501 Y41.18 E44.18056
G0 F7200 X45.936 Y41.18
G1 F900 X41.18 Y45.935 E44.20586
G0 F7200 X41.18 Y45.369
G1 F900 X45.37 Y41.18 E44.22815
G0 F7200 X44.804 Y41.18
G1 F900 X41.18 Y44.804 E44.24743
G0 F7200 X41.18 Y44.238
G1 F900 X44.239 Y41.18 E44.26371
G0 F7200 X43.673 Y41.18
G1 F900 X41.18 Y43.672 E44.27697
G0 F7200 X41.18 Y43.107
G1 F900 X43.107 Y41.18 E44.28722
G0 F7200 X42.542 Y41.18
G1 F900 X41.18 Y42.541 E44.29446
G0 F7200 X41.18 Y41.975
G1 F900 X41.976 Y41.18 E44.2987
G0 F7200 X41.41 Y41.18
G1 F900 X41.18 Y41.41 E44.29992
G0 F7200 X41.21 Y41.41
;MESH:NONMESH
G0 F600 X41.21 Y41.41 Z0.66
G0 F7200 X59.12 Y59.12
G0 X59.4 Y59.4
;TIME_ELAPSED:399.201013
;LAYER:6
;TYPE:WALL-INNER
;MESH:20mm cube.stl
G1 F3600 X59.4 Y40.6 E44.37065
G1 X40.6 Y40.6 E44.44137
G1 X40.6 Y59.4 E44.5121
G1 X59.4 Y59.4 E44.58283
G0 F7200 X59.8 Y59.8
;TYPE:WALL-OUTER
G1 F1800 X59.8 Y40.2 E44.65657
G1 X40.2 Y40.2 E44.73031
G1 X40.2 Y59.8 E44.80404
G1 X59.8 Y59.8 E44.87778
G0 F7200 X59.8 Y59.6
G0 X59.02 Y59.02
;TYPE:SKIN
G1 F900 X40.98 Y59.02 E44.94565
G1 X40.98 Y40.98 E45.01352
G1 X59.02 Y40.98 E45.08139
G1 X59.02 Y59.02 E45.14925
G0 F7200 X58.717 Y41.18
G1 F900 X58.82 Y41.284 E45.1498
G0 F7200 X58.82 Y41.849
G1 F900 X58.151 Y41.18 E45.15336
G0 F7200 X57.585 Y41.18
G1 F900 X58.82 Y42.415 E45.15993
G0 F7200 X58.82 Y42.981
G1 F900 X57.02 Y41.18 E45.16951
G0 F7200 X56.454 Y41.18
G1 F900 X58.82 Y43.546 E45.1821
G0 F7200 X58.82 Y44.112
G1 F900 X55.888 Y41.18 E45.1977
G0 F7200 X55.323 Y41.18
G1 F900 X58.82 Y44.678 E45.21631
G0 F7200 X58.82 Y45.244
G1 F900 X54.757 Y41.18 E45.23793
G0 F7200 X54.191 Y41.18
G1 F900 X58.82 Y45.809 E45.26256
G0 F7200 X58.82 Y46.375
G1 F900 X53.626 Y41.18 E45.29019
G0 F7200 X53.06 Y41.18
G1 F900 X58.82 Y46.941 E45.32084
G0 F7200 X58.82 Y47.506
G1 F900 X52.494 Y41.18 E45.3545
G0 F7200 X51.929 Y41.18
G1 F900 X58.82 Y48.072 E45.39117
G0 F7200 X58.82 Y48.638
G1 F900 X51.363 Y41.18 E45.43084
G0 F7200 X50.797 Y41.18
G1 F900 X58.82 Y49.203 E45.47353
G0 F7200 X58.82 Y49.769
G1 F900 X50.231 Y41.18 E45.51923
G0 F7200 X49.666 Y41.18
G1 F900 X58.82 Y50.335 E45.56793
G0 F7200 X58.82 Y50.9
G1 F900 X49.1 Y41.18 E45.61965
G0 F7200 X48.534 Y41.18
G1 F900 X58.82 Y51.466 E45.67437
G0 F7200 X58.82 Y52.032
G1 F900 X47.969 Y41.18 E45.73211
G0 F7200 X47.403 Y41.18
G1 F900 X58.82 Y52.597 E45.79285
G0 F7200 X58.82 Y53.163
G1 F900 X46.837 Y41.18 E45.8566
G0 F7200 X46.272 Y41.18
G1 F900 X58.82 Y53.729 E45.92337
G0 F7200 X58.82 Y54.294
G1 F900 X45.706 Y41.18 E45.99314
G0 F7200 X45.14 Y41.18
G1 F900 X58.82 Y54.86 E46.06592
G0 F7200 X58.82 Y55.426
G1 F900 X44.575 Y41.18 E46.14172
G0 F7200 X44.009 Y41.18
G1 F900 X58.82 Y55.992 E46.22052
G0 F7200 X58.82 Y56.557
G1 F900 X43.443 Y41.18 E46.30233
G0 F7200 X42.878 Y41.18
G1 F900 X58.82 Y57.123 E46.38715
G0 F7200 X58.82 Y57.689
G1 F900 X42.312 Y41.18 E46.47498
G0 F7200 X41.746 Y41.18
G1 F900 X58.82 Y58.254 E46.56583
G0 F7200 X58.82 Y58.82
G1 F900 X41.18 Y41.18 E46.65968
G0 F7200 X41.18 Y41.745
G1 F900 X58.254 Y58.82 E46.75052
G0 F7200 X57.689 Y58.82
G1 F900 X41.18 Y42.311 E46.83836
G0 F7200 X41.18 Y42.877
G1 F900 X57.123 Y58.82 E46.92318
G0 F7200 X56.557 Y58.82
G1 F900 X41.18 Y43.443 E47.00499
G0 F7200 X41.18 Y44.008
G1 F900 X55.992 Y58.82 E47.0838
G0 F7200 X55.426 Y58.82
G1 F900 X41.18 Y44.574 E47.15959
G0 F7200 X41.18 Y45.14
G1 F900 X54.86 Y58.82 E47.23238
G0 F7200 X54.294 Y58.82
G1 F900 X41.18 Y45.705 E47.30215
G0 F7200 X41.18 Y46.271
G1 F900 X53.729 Y58.82 E47.36892
G0 F7200 X53.163 Y58.82
G1 F900 X41.18 Y46.837 E47.43267
G0 F7200 X41.18 Y47.402
G1 F900 X52.597 Y58.82 E47.49342
G0 F7200 X52.032 Y58.82
G1 F900 X41.18 Y47.968 E47.55116
G0 F7200 X41.18 Y48.534
G1 F900 X51.466 Y58.82 E47.60588
G0 F7200 X50.9 Y58.82
G1 F900 X41.18 Y49.099 E47.6576
G0 F7200 X41.18 Y49.665
G1 F900 X50.335 Y58.82 E47.70631
G0 F7200 X49.769 Y58.82
G1 F900 X41.18 Y50.231 E47.752
G0 F7200 X41.18 Y50.796
G1 F900 X49.203 Y58.82 E47.79469
G0 F7200 X48.638 Y58.82
G1 F900 X41.18 Y51.362 E47.83437
G0 F7200 X41.18 Y51.928
G1 F900 X48.072 Y58.82 E47.87104
G0 F7200 X47.506 Y58.82
G1 F900 X41.18 Y52.493 E47.9047
G0 F7200 X41.18 Y53.059
G1 F900 X46.941 Y58.82 E47.93535
G0 F7200 X46.375 Y58.82
G1 F900 X41.18 Y53.625 E47.96299
G0 F7200 X41.18 Y54.191
G1 F900 X45.809 Y58.82 E47.98762
G0 F7200 X45.244 Y58.82
G1 F900 X41.18 Y54.756 E48.00924
G0 F7200 X41.18 Y55.322
G1 F900 X44.678 Y58.82 E48.02785
G0 F7200 X44.112 Y58.82
G1 F900 X41.18 Y55.888 E48.04345
G0 F7200 X41.18 Y56.453
G1 F900 X43.546 Y58.82 E48.05604
G0 F7200 X42.981 Y58.82
G1 F900 X41.18 Y57.019 E48.06563
G0 F7200 X41.18 Y57.585
G1 F900 X42.415 Y58.82 E48.0722
G0 F7200 X41.849 Y58.82
G1 F900 X41.18 Y58.15 E48.07576
G0 F7200 X41.18 Y58.716
G1 F900 X41.284 Y58.82 E48.07631
G0 F7200 X41.284 Y58.79
;MESH:NONMESH
G0 F600 X41.284 Y58.79 Z0.72
G0 F7200 X59.12 Y59.12
G0 X59.4 Y59.4
;TIME_ELAPSED:461.561751
;LAYER:7
;TYPE:WALL-INNER
;MESH:20mm cube.stl
G1 F3600 X59.4 Y40.6 E48.14704
G1 X40.6 Y40.6 E48.21777
G1 X40.6 Y59.4 E48.28849
G1 X59.4 Y59.4 E48.35922
G0 F7200 X59.8 Y59.8
;TYPE:WALL-OUTER
G1 F1800 X59.8 Y40.2 E48.43296
G1 X40.2 Y40.2 E48.5067
G1 X40.2 Y59.8 E48.58043
G1 X59.8 Y59.8 E48.65417
G0 F7200 X59.8 Y59.6
G0 X59.02 Y59.02
;TYPE:SKIN
G1 F900 X40.98 Y59.02 E48.72204
G1 X40.98 Y40.98 E48.78991
G1 X59.02 Y40.98 E48.85778
G1 X59.02 Y59.02 E48.92565
G0 F7200 X58.277 Y58.82
G1 F900 X58.82 Y58.277 E48.92853
G0 F7200 X58.82 Y57.711
G1 F900 X57.711 Y58.82 E48.93444
G0 F7200 X57.146 Y58.82
G1 F900 X58.82 Y57.146 E48.94334
G0 F7200 X58.82 Y56.58
G1 F900 X56.58 Y58.82 E48.95526
G0 F7200 X56.014 Y58.82
G1 F900 X58.82 Y56.014 E48.97019
G0 F7200 X58.82 Y55.448
G1 F900 X55.448 Y58.82 E48.98813
G0 F7200 X54.883 Y58.82
G1 F900 X58.82 Y54.883 E49.00908
G0 F7200 X58.82 Y54.317
G1 F900 X54.317 Y58.82 E49.03303
G0 F7200 X53.751 Y58.82
G1 F900 X58.82 Y53.751 E49.06
G0 F7200 X58.82 Y53.186
G1 F900 X53.186 Y58.82 E49.08998
G0 F7200 X52.62 Y58.82
G1 F900 X58.82 Y52.62 E49.12296
G0 F7200 X58.82 Y52.054
G1 F900 X52.054 Y58.82 E49.15896
G0 F7200 X51.489 Y58.82
G1 F900 X58.82 Y51.489 E49.19797
G0 F7200 X58.82 Y50.923
G1 F900 X50.923 Y58.82 E49.23998
G0 F7200 X50.357 Y58.82
G1 F900 X58.82 Y50.357 E49.28501
G0 F7200 X58.82 Y49.792
G1 F900 X49.792 Y58.82 E49.33304
G0 F7200 X49.226 Y58.82
G1 F900 X58.82 Y49.226 E49.38409
G0 F7200 X58.82 Y48.66
G1 F900 X48.66 Y58.82 E49.43814
G0 F7200 X48.095 Y58.82
G1 F900 X58.82 Y48.095 E49.4952
G0 F7200 X58.82 Y47.529
G1 F900 X47.529 Y58.82 E49.55528
G0 F7200 X46.963 Y58.82
G1 F900 X58.82 Y46.963 E49.61836
G0 F7200 X58.82 Y46.398
G1 F900 X46.398 Y58.82 E49.68445
G0 F7200 X45.832 Y58.82
G1 F900 X58.82 Y45.832 E49.75355
G0 F7200 X58.82 Y45.266
G1 F900 X45.266 Y58.82 E49.82567
G0 F7200 X44.7 Y58.82
G1 F900 X58.82 Y44.7 E49.90079
G0 F7200 X58.82 Y44.135
G1 F900 X44.135 Y58.82 E49.97892
G0 F7200 X43.569 Y58.82
G1 F900 X58.82 Y43.569 E50.06006
G0 F7200 X58.82 Y43.003
G1 F900 X43.003 Y58.82 E50.14422
G0 F7200 X42.438 Y58.82
G1 F900 X58.82 Y42.438 E50.23137
G0 F7200 X58.82 Y41.872
G1 F900 X41.872 Y58.82 E50.32155
G0 F7200 X41.306 Y58.82
G1 F900 X58.82 Y41.306 E50.41473
G0 F7200 X58.381 Y41.18
G1 F900 X41.18 Y58.38 E50.50624
G0 F7200 X41.18 Y57.814
G1 F900 X57.815 Y41.18 E50.59474
G0 F7200 X57.249 Y41.18
G1 F900 X41.18 Y57.249 E50.68024
G0 F7200 X41.18 Y56.683
G1 F900 X56.684 Y41.18 E50.76272
G0 F7200 X56.118 Y41.18
G1 F900 X41.18 Y56.117 E50.8422
G0 F7200 X41.18 Y55.552
G1 F900 X55.552 Y41.18 E50.91866
G0 F7200 X54.987 Y41.18
G1 F900 X41.18 Y54.986 E50.99212
G0 F7200 X41.18 Y54.42
G1 F900 X54.421 Y41.18 E51.06256
G0 F7200 X53.855 Y41.18
G1 F900 X41.18 Y53.855 E51.13
G0 F7200 X41.18 Y53.289
G1 F900 X53.29 Y41.18 E51.19443
G0 F7200 X52.724 Y41.18
G1 F900 X41.18 Y52.723 E51.25584
G0 F7200 X41.18 Y52.158
G1 F900 X52.158 Y41.18 E51.31425
G0 F7200 X51.593 Y41.18
G1 F900 X41.18 Y51.592 E51.36965
G0 F7200 X41.18 Y51.026
G1 F900 X51.027 Y41.18 E51.42204
G0 F7200 X50.461 Y41.18
G1 F900 X41.18 Y50.461 E51.47142
G0 F7200 X41.18 Y49.895
G1 F900 X49.896 Y41.18 E51.51779
G0 F7200 X49.33 Y41.18
G1 F900 X41.18 Y49.329 E51.56115
G0 F7200 X41.18 Y48.763
G1 F900 X48.764 Y41.18 E51.60149
G0 F7200 X48.199 Y41.18
G1 F900 X41.18 Y48.198 E51.63884
G0 F7200 X41.18 Y47.632
G1 F900 X47.633 Y41.18 E51.67317
G0 F7200 X47.067 Y41.18
G1 F900 X41.18 Y47.066 E51.70448
G0 F7200 X41.18 Y46.501
G1 F900 X46.501 Y41.18 E51.73279
G0 F7200 X45.936 Y41.18
G1 F900 X41.18 Y45.935 E51.7581
G0 F7200 X41.18 Y45.369
G1 F900 X45.37 Y41.18 E51.78039
G0 F7200 X44.804 Y41.18
G1 F900 X41.18 Y44.804 E51.79967
G0 F7200 X41.18 Y44.238
G1 F900 X44.239 Y41.18 E51.81594
G0 F7200 X43.673 Y41.18
G1 F900 X41.18 Y43.672 E51.8292
G0 F7200 X41.18 Y43.107
G1 F900 X43.107 Y41.18 E51.83945
G0 F7200 X42.542 Y41.18
G1 F900 X41.18 Y42.541 E51.8467
G0 F7200 X41.18 Y41.975
G1 F900 X41.976 Y41.18 E51.85093
G0 F7200 X41.41 Y41.18
G1 F900 X41.18 Y41.41 E51.85215
G0 F7200 X41.21 Y41.41
;MESH:NONMESH
G0 F600 X41.21 Y41.41 Z0.78
G0 F7200 X59.12 Y59.12
G0 X59.4 Y59.4
;TIME_ELAPSED:523.793472
;LAYER:8
;TYPE:WALL-INNER
;MESH:20mm cube.stl
G1 F3600 X59.4 Y40.6 E51.92288
G1 X40.6 Y40.6 E51.99361
G1 X40.6 Y59.4 E52.06434
G1 X59.4 Y59.4 E52.13506
G0 F7200 X59.8 Y59.8
;TYPE:WALL-OUTER
G1 F1800 X59.8 Y40.2 E52.2088
G1 X40.2 Y40.2 E52.28254
G1 X40.2 Y59.8 E52.35628
G1 X59.8 Y59.8 E52.43001
G0 F7200 X59.8 Y59.6
G0 X59.02 Y59.02
;TYPE:SKIN
G1 F900 X40.98 Y59.02 E52.49788
G1 X40.98 Y40.98 E52.56575
G1 X59.02 Y40.98 E52.63362
G1 X59.02 Y59.02 E52.70149
G0 F7200 X58.717 Y41.18
G1 F900 X58.82 Y41.284 E52.70204
G0 F7200 X58.82 Y41.849
G1 F900 X58.151 Y41.18 E52.7056
G0 F7200 X57.585 Y41.18
G1 F900 X58.82 Y42.415 E52.71217
G0 F7200 X58.82 Y42.981
G1 F900 X57.02 Y41.18 E52.72175
G0 F7200 X56.454 Y41.18
G1 F900 X58.82 Y43.546 E52.73434
G0 F7200 X58.82 Y44.112
G1 F900 X55.888 Y41.18 E52.74994
G0 F7200 X55.323 Y41.18
G1 F900 X58.82 Y44.678 E52.76854
G0 F7200 X58.82 Y45.244
G1 F900 X54.757 Y41.18 E52.79016
G0 F7200 X54.191 Y41.18
G1 F900 X58.82 Y45.809 E52.81479
G0 F7200 X58.82 Y46.375
G1 F900 X53.626 Y41.18 E52.84243
G0 F7200 X53.06 Y41.18
G1 F900 X58.82 Y46.941 E52.87308
G0 F7200 X58.82 Y47.506
G1 F900 X52.494 Y41.18 E52.90673
G0 F7200 X51.929 Y41.18
G1 F900 X58.82 Y48.072 E52.9434
G0 F7200 X58.82 Y48.638
G1 F900 X51.363 Y41.18 E52.98308
G0 F7200 X50.797 Y41.18
G1 F900 X58.82 Y49.203 E53.02576
G0 F7200 X58.82 Y49.769
G1 F900 X50.231 Y41.18 E53.07146
G0 F7200 X49.666 Y41.18
G1 F900 X58.82 Y50.335 E53.12017
G0 F7200 X58.82 Y50.9
G1 F900 X49.1 Y41.18 E53.17188
G0 F7200 X48.534 Y41.18
G1 F900 X58.82 Y51.466 E53.22661
G0 F7200 X58.82 Y52.032
G1 F900 X47.969 Y41.18 E53.28434
G0 F7200 X47.403 Y41.18
G1 F900 X58.82 Y52.597 E53.34508
G0 F7200 X58.82 Y53.163
G1 F900 X46.837 Y41.18 E53.40884
G0 F7200 X46.272 Y41.18
G1 F900 X58.82 Y53.729 E53.4756
G0 F7200 X58.82 Y54.294
G1 F900 X45.706 Y41.18 E53.54537
G0 F7200 X45.14 Y41.18
G1 F900 X58.82 Y54.86 E53.61816
G0 F7200 X58.82 Y55.426
G1 F900 X44.575 Y41.18 E53.69395
G0 F7200 X44.009 Y41.18
G1 F900 X58.82 Y55.992 E53.77275
G0 F7200 X58.82 Y56.557
G1 F900 X43.443 Y41.18 E53.85457
G0 F7200 X42.878 Y41.18
G1 F900 X58.82 Y57.123 E53.93939
G0 F7200 X58.82 Y57.689
G1 F900 X42.312 Y41.18 E54.02722
G0 F7200 X41.746 Y41.18
G1 F900 X58.82 Y58.254 E54.11806
G0 F7200 X58.82 Y58.82
G1 F900 X41.18 Y41.18 E54.21191
G0 F7200 X41.18 Y41.745
G1 F900 X58.254 Y58.82 E54.30276
G0 F7200 X57.689 Y58.82
G1 F900 X41.18 Y42.311 E54.39059
G0 F7200 X41.18 Y42.877
G1 F900 X57.123 Y58.82 E54.47541
G0 F7200 X56.557 Y58.82
G1 F900 X41.18 Y43.443 E54.55723
G0 F7200 X41.18 Y44.008
G1 F900 X55.992 Y58.82 E54.63603
G0 F7200 X55.426 Y58.82
G1 F900 X41.18 Y44.574 E54.71183
G0 F7200 X41.18 Y45.14
G1 F900 X54.86 Y58.82 E54.78461
G0 F7200 X54.294 Y58.82
G1 F900 X41.18 Y45.705 E54.85439
G0 F7200 X41.18 Y46.271
G1 F900 X53.729 Y58.82 E54.92115
G0 F7200 X53.163 Y58.82
G1 F900 X41.18 Y46.837 E54.98491
G0 F7200 X41.18 Y47.402
G1 F900 X52.597 Y58.82 E55.04565
G0 F7200 X52.032 Y58.82
G1 F900 X41.18 Y47.968 E55.10339
G0 F7200 X41.18 Y48.534
G1 F900 X51.466 Y58.82 E55.15812
G0 F7200 X50.9 Y58.82
G1 F900 X41.18 Y49.099 E55.20983
G0 F7200 X41.18 Y49.665
G1 F900 X50.335 Y58.82 E55.25854
G0 F7200 X49.769 Y58.82
G1 F900 X41.18 Y50.231 E55.30424
G0 F7200 X41.18 Y50.796
G1 F900 X49.203 Y58.82 E55.34693
G0 F7200 X48.638 Y58.82
G1 F900 X41.18 Y51.362 E55.38661
G0 F7200 X41.18 Y51.928
G1 F900 X48.072 Y58.82 E55.42328
G0 F7200 X47.506 Y58.82
G1 F900 X41.18 Y52.493 E55.45693
G0 F7200 X41.18 Y53.059
G1 F900 X46.941 Y58.82 E55.48759
G0 F7200 X46.375 Y58.82
G1 F900 X41.18 Y53.625 E55.51523
G0 F7200 X41.18 Y54.191
G1 F900 X45.809 Y58.82 E55.53985
G0 F7200 X45.244 Y58.82
G1 F900 X41.18 Y54.756 E55.56148
G0 F7200 X41.18 Y55.322
G1 F900 X44.678 Y58.82 E55.58009
G0 F7200 X44.112 Y58.82
G1 F900 X41.18 Y55.888 E55.59569
G0 F7200 X41.18 Y56.453
G1 F900 X43.546 Y58.82 E55.60828
G0 F7200 X42.981 Y58.82
G1 F900 X41.18 Y57.019 E55.61786
G0 F7200 X41.18 Y57.585
G1 F900 X42.415 Y58.82 E55.62443
G0 F7200 X41.849 Y58.82
G1 F900 X41.18 Y58.15 E55.62799
G0 F7200 X41.18 Y58.716
G1 F900 X41.284 Y58.82 E55.62855
G0 F7200 X41.284 Y58.79
;MESH:NONMESH
G0 F600 X41.284 Y58.79 Z0.84
G0 F7200 X59.12 Y59.12
G0 X59.4 Y59.4
;TIME_ELAPSED:586.154210
;LAYER:9
;TYPE:WALL-INNER
;MESH:20mm cube.stl
G1 F3600 X59.4 Y40.6 E55.69927
G1 X40.6 Y40.6 E55.77
G1 X40.6 Y59.4 E55.84073
G1 X59.4 Y59.4 E55.91146
G0 F7200 X59.8 Y59.8
;TYPE:WALL-OUTER
G1 F1800 X59.8 Y40.2 E55.98519
G1 X40.2 Y40.2 E56.05893
G1 X40.2 Y59.8 E56.13267
G1 X59.8 Y59.8 E56.20641
G0 F7200 X59.8 Y59.6
G0 X59.02 Y59.02
;TYPE:SKIN
G1 F900 X40.98 Y59.02 E56.27427
G1 X40.98 Y40.98 E56.34214
G1 X59.02 Y40.98 E56.41001
G1 X59.02 Y59.02 E56.47788
G0 F7200 X58.277 Y58.82
G1 F900 X58.82 Y58.277 E56.48077
G0 F7200 X58.82 Y57.711
G1 F900 X57.711 Y58.82 E56.48667
G0 F7200 X57.146 Y58.82
G1 F900 X58.82 Y57.146 E56.49558
G0 F7200 X58.82 Y56.58
G1 F900 X56.58 Y58.82 E56.50749
G0 F7200 X56.014 Y58.82
G1 F900 X58.82 Y56.014 E56.52242
G0 F7200 X58.82 Y55.448
G1 F900 X55.448 Y58.82 E56.54036
G0 F7200 X54.883 Y58.82
G1 F900 X58.82 Y54.883 E56.56131
G0 F7200 X58.82 Y54.317
G1 F900 X54.317 Y58.82 E56.58527
G0 F7200 X53.751 Y58.82
G1 F900 X58.82 Y53.751 E56.61224
G0 F7200 X58.82 Y53.186
G1 F900 X53.186 Y58.82 E56.64221
G0 F7200 X52.62 Y58.82
G1 F900 X58.82 Y52.62 E56.6752
G0 F7200 X58.82 Y52.054
G1 F900 X52.054 Y58.82 E56.7112
G0 F7200 X51.489 Y58.82
G1 F900 X58.82 Y51.489 E56.7502
G0 F7200 X58.82 Y50.923
G1 F900 X50.923 Y58.82 E56.79222
G0 F7200 X50.357 Y58.82
G1 F900 X58.82 Y50.357 E56.83724
G0 F7200 X58.82 Y49.792
G1 F900 X49.792 Y58.82 E56.88528
G0 F7200 X49.226 Y58.82
G1 F900 X58.82 Y49.226 E56.93632
G0 F7200 X58.82 Y48.66
G1 F900 X48.66 Y58.82 E56.99038
G0 F7200 X48.095 Y58.82
G1 F900 X58.82 Y48.095 E57.04744
G0 F7200 X58.82 Y47.529
G1 F900 X47.529 Y58.82 E57.10751
G0 F7200 X46.963 Y58.82
G1 F900 X58.82 Y46.963 E57.17059
G0 F7200 X58.82 Y46.398
G1 F900 X46.398 Y58.82 E57.23668
G0 F7200 X45.832 Y58.82
G1 F900 X58.82 Y45.832 E57.30579
G0 F7200 X58.82 Y45.266
G1 F900 X45.266 Y58.82 E57.3779
G0 F7200 X44.7 Y58.82
G1 F900 X58.82 Y44.7 E57.45302
G0 F7200 X58.82 Y44.135
G1 F900 X44.135 Y58.82 E57.53115
G0 F7200 X43.569 Y58.82
G1 F900 X58.82 Y43.569 E57.6123
G0 F7200 X58.82 Y43.003
G1 F900 X43.003 Y58.82 E57.69645
G0 F7200 X42.438 Y58.82
G1 F900 X58.82 Y42.438 E57.78361
G0 F7200 X58.82 Y41.872
G1 F900 X41.872 Y58.82 E57.87378
G0 F7200 X41.306 Y58.82
G1 F900 X58.82 Y41.306 E57.96696
G0 F7200 X58.381 Y41.18
G1 F900 X41.18 Y58.38 E58.05848
G0 F7200 X41.18 Y57.814
G1 F900 X57.815 Y41.18 E58.14698
G0 F7200 X57.249 Y41.18
G1 F900 X41.18 Y57.249 E58.23247
G0 F7200 X41.18 Y56.683
G1 F900 X56.684 Y41.18 E58.31496
G0 F7200 X56.118 Y41.18
G1 F900 X41.18 Y56.117 E58.39443
G0 F7200 X41.18 Y55.552
G1 F900 X55.552 Y41.18 E58.4709
G0 F7200 X54.987 Y41.18
G1 F900 X41.18 Y54.986 E58.54435
G0 F7200 X41.18 Y54.42
G1 F900 X54.421 Y41.18 E58.6148
G0 F7200 X53.855 Y41.18
G1 F900 X41.18 Y53.855 E58.68223
G0 F7200 X41.18 Y53.289
G1 F900 X53.29 Y41.18 E58.74666
G0 F7200 X52.724 Y41.18
G1 F900 X41.18 Y52.723 E58.80808
G0 F7200 X41.18 Y52.158
G1 F900 X52.158 Y41.18 E58.86649
G0 F7200 X51.593 Y41.18
G1 F900 X41.18 Y51.592 E58.92188
G0 F7200 X41.18 Y51.026
G1 F900 X51.027 Y41.18 E58.97427
G0 F7200 X50.461 Y41.18
G1 F900 X41.18 Y50.461 E59.02365
G0 F7200 X41.18 Y49.895
G1 F900 X49.896 Y41.18 E59.07002
G0 F7200 X49.33 Y41.18
G1 F900 X41.18 Y49.329 E59.11338
G0 F7200 X41.18 Y48.763
G1 F900 X48.764 Y41.18 E59.15373
G0 F7200 X48.199 Y41.18
G1 F900 X41.18 Y48.198 E59.19107
G0 F7200 X41.18 Y47.632
G1 F900 X47.633 Y41.18 E59.2254
G0 F7200 X47.067 Y41.18
G1 F900 X41.18 Y47.066 E59.25672
G0 F7200 X41.18 Y46.501
G1 F900 X46.501 Y41.18 E59.28503
G0 F7200 X45.936 Y41.18
G1 F900 X41.18 Y45.935 E59.31033
G0 F7200 X41.18 Y45.369
G1 F900 X45.37 Y41.18 E59.33262
G0 F7200 X44.804 Y41.18
G1 F900 X41.18 Y44.804 E59.3519
G0 F7200 X41.18 Y44.238
G1 F900 X44.239 Y41.18 E59.36817
G0 F7200 X43.673 Y41.18
G1 F900 X41.18 Y43.672 E59.38143
G0 F7200 X41.18 Y43.107
G1 F900 X43.107 Y41.18 E59.39169
G0 F7200 X42.542 Y41.18
G1 F900 X41.18 Y42.541 E59.39893
G0 F7200 X41.18 Y41.975
G1 F900 X41.976 Y41.18 E59.40316
G0 F7200 X41.41 Y41.18
G1 F900 X41.18 Y41.41 E59.40439
G0 F7200 X41.21 Y41.41
;MESH:NONMESH
G0 F600 X41.21 Y41.41 Z0.9
G0 F7200 X59.12 Y59.12
G0 X59.4 Y59.4
;TIME_ELAPSED:648.385932
;LAYER:10
;TYPE:WALL-INNER
;MESH:20mm cube.stl
G1 F3600 X59.4 Y40.6 E59.47511
G1 X40.6 Y40.6 E59.54584
G1 X40.6 Y59.4 E59.61657
G1 X59.4 Y59.4 E59.6873
G0 F7200 X59.8 Y59.8
;TYPE:WALL-OUTER
G1 F1800 X59.8 Y40.2 E59.76103
G1 X40.2 Y40.2 E59.83477
G1 X40.2 Y59.8 E59.90851
G1 X59.8 Y59.8 E59.98225
G0 F7200 X59.8 Y59.6
G0 X59.02 Y59.02
;TYPE:SKIN
G1 F900 X40.98 Y59.02 E60.05012
G1 X40.98 Y40.98 E60.11798
G1 X59.02 Y40.98 E60.18585
G1 X59.02 Y59.02 E60.25372
G0 F7200 X58.717 Y41.18
G1 F900 X58.82 Y41.284 E60.25427
G0 F7200 X58.82 Y41.849
G1 F900 X58.151 Y41.18 E60.25783
G0 F7200 X57.585 Y41.18
G1 F900 X58.82 Y42.415 E60.2644
G0 F7200 X58.82 Y42.981
G1 F900 X57.02 Y41.18 E60.27398
G0 F7200 X56.454 Y41.18
G1 F900 X58.82 Y43.546 E60.28657
G0 F7200 X58.82 Y44.112
G1 F900 X55.888 Y41.18 E60.30217
G0 F7200 X55.323 Y41.18
G1 F900 X58.82 Y44.678 E60.32078
G0 F7200 X58.82 Y45.244
G1 F900 X54.757 Y41.18 E60.3424
G0 F7200 X54.191 Y41.18
G1 F900 X58.82 Y45.809 E60.36702
G0 F7200 X58.82 Y46.375
G1 F900 X53.626 Y41.18 E60.39466
G0 F7200 X53.06 Y41.18
G1 F900 X58.82 Y46.941 E60.42531
G0 F7200 X58.82 Y47.506
G1 F900 X52.494 Y41.18 E60.45897
G0 F7200 X51.929 Y41.18
G1 F900 X58.82 Y48.072 E60.49563
G0 F7200 X58.82 Y48.638
G1 F900 X51.363 Y41.18 E60.53531
G0 F7200 X50.797 Y41.18
G1 F900 X58.82 Y49.203 E60.578
G0 F7200 X58.82 Y49.769
G1 F900 X50.231 Y41.18 E60.62369
G0 F7200 X49.666 Y41.18
G1 F900 X58.82 Y50.335 E60.6724
G0 F7200 X58.82 Y50.9
G1 F900 X49.1 Y41.18 E60.72411
G0 F7200 X48.534 Y41.18
G1 F900 X58.82 Y51.466 E60.77884
G0 F7200 X58.82 Y52.032
G1 F900 X47.969 Y41.18 E60.83657
G0 F7200 X47.403 Y41.18
G1 F900 X58.82 Y52.597 E60.89732
G0 F7200 X58.82 Y53.163
G1 F900 X46.837 Y41.18 E60.96107
G0 F7200 X46.272 Y41.18
G1 F900 X58.82 Y53.729 E61.02784
G0 F7200 X58.82 Y54.294
G1 F900 X45.706 Y41.18 E61.09761
G0 F7200 X45.14 Y41.18
G1 F900 X58.82 Y54.86 E61.17039
G0 F7200 X58.82 Y55.426
G1 F900 X44.575 Y41.18 E61.24618
G0 F7200 X44.009 Y41.18
G1 F900 X58.82 Y55.992 E61.32499
G0 F7200 X58.82 Y56.557
G1 F900 X43.443 Y41.18 E61.4068
G0 F7200 X42.878 Y41.18
G1 F900 X58.82 Y57.123 E61.49162
G0 F7200 X58.82 Y57.689
G1 F900 X42.312 Y41.18 E61.57945
G0 F7200 X41.746 Y41.18
G1 F900 X58.82 Y58.254 E61.67029
G0 F7200 X58.82 Y58.82
G1 F900 X41.18 Y41.18 E61.76415
G0 F7200 X41.18 Y41.745
G1 F900 X58.254 Y58.82 E61.85499
G0 F7200 X57.689 Y58.82
G1 F900 X41.18 Y42.311 E61.94282
G0 F7200 X41.18 Y42.877
G1 F900 X57.123 Y58.82 E62.02765
G0 F7200 X56.557 Y58.82
G1 F900 X41.18 Y43.443 E62.10946
G0 F7200 X41.18 Y44.008
G1 F900 X55.992 Y58.82 E62.18827
G0 F7200 X55.426 Y58.82
G1 F900 X41.18 Y44.574 E62.26406
G0 F7200 X41.18 Y45.14
G1 F900 X54.86 Y58.82 E62.33684
G0 F7200 X54.294 Y58.82
G1 F900 X41.18 Y45.705 E62.40662
G0 F7200 X41.18 Y46.271
G1 F900 X53.729 Y58.82 E62.47339
G0 F7200 X53.163 Y58.82
G1 F900 X41.18 Y46.837 E62.53714
G0 F7200 X41.18 Y47.402
G1 F900 X52.597 Y58.82 E62.59789
G0 F7200 X52.032 Y58.82
G1 F900 X41.18 Y47.968 E62.65562
G0 F7200 X41.18 Y48.534
G1 F900 X51.466 Y58.82 E62.71035
G0 F7200 X50.9 Y58.82
G1 F900 X41.18 Y49.099 E62.76207
G0 F7200 X41.18 Y49.665
G1 F900 X50.335 Y58.82 E62.81077
G0 F7200 X49.769 Y58.82
G1 F900 X41.18 Y50.231 E62.85647
G0 F7200 X41.18 Y50.796
G1 F900 X49.203 Y58.82 E62.89916
G0 F7200 X48.638 Y58.82
G1 F900 X41.18 Y51.362 E62.93884
G0 F7200 X41.18 Y51.928
G1 F900 X48.072 Y58.82 E62.97551
G0 F7200 X47.506 Y58.82
G1 F900 X41.18 Y52.493 E63.00917
G0 F7200 X41.18 Y53.059
G1 F900 X46.941 Y58.82 E63.03982
G0 F7200 X46.375 Y58.82
G1 F900 X41.18 Y53.625 E63.06746
G0 F7200 X41.18 Y54.191
G1 F900 X45.809 Y58.82 E63.09209
G0 F7200 X45.244 Y58.82
G1 F900 X41.18 Y54.756 E63.11371
G0 F7200 X41.18 Y55.322
G1 F900 X44.678 Y58.82 E63.13232
G0 F7200 X44.112 Y58.82
G1 F900 X41.18 Y55.888 E63.14792
G0 F7200 X41.18 Y56.453
G1 F900 X43.546 Y58.82 E63.16051
G0 F7200 X42.981 Y58.82
G1 F900 X41.18 Y57.019 E63.17009
G0 F7200 X41.18 Y57.585
G1 F900 X42.415 Y58.82 E63.17666
G0 F7200 X41.849 Y58.82
G1 F900 X41.18 Y58.15 E63.18023
G0 F7200 X41.18 Y58.716
G1 F900 X41.284 Y58.82 E63.18078
G0 F7200 X41.284 Y58.79
;MESH:NONMESH
G0 F600 X41.284 Y58.79 Z0.96
G0 F7200 X59.12 Y59.12
G0 X59.4 Y59.4
;TIME_ELAPSED:710.746669
;LAYER:11
;TYPE:WALL-INNER
;MESH:20mm cube.stl
G1 F3600 X59.4 Y40.6 E63.25151
G1 X40.6 Y40.6 E63.32223
G1 X40.6 Y59.4 E63.39296
G1 X59.4 Y59.4 E63.46369
G0 F7200 X59.8 Y59.8
;TYPE:WALL-OUTER
G1 F1800 X59.8 Y40.2 E63.53743
G1 X40.2 Y40.2 E63.61116
G1 X40.2 Y59.8 E63.6849
G1 X59.8 Y59.8 E63.75864
G0 F7200 X59.8 Y59.6
G0 X59.02 Y59.02
;TYPE:SKIN
G1 F900 X40.98 Y59.02 E63.82651
G1 X40.98 Y40.98 E63.89438
G1 X59.02 Y40.98 E63.96224
G1 X59.02 Y59.02 E64.03011
G0 F7200 X58.277 Y58.82
G1 F900 X58.82 Y58.277 E64.033
G0 F7200 X58.82 Y57.711
G1 F900 X57.711 Y58.82 E64.0389
G0 F7200 X57.146 Y58.82
G1 F900 X58.82 Y57.146 E64.04781
G0 F7200 X58.82 Y56.58
G1 F900 X56.58 Y58.82 E64.05973
G0 F7200 X56.014 Y58.82
G1 F900 X58.82 Y56.014 E64.07466
G0 F7200 X58.82 Y55.448
G1 F900 X55.448 Y58.82 E64.0926
G0 F7200 X54.883 Y58.82
G1 F900 X58.82 Y54.883 E64.11354
G0 F7200 X58.82 Y54.317
G1 F900 X54.317 Y58.82 E64.1375
G0 F7200 X53.751 Y58.82
G1 F900 X58.82 Y53.751 E64.16447
G0 F7200 X58.82 Y53.186
G1 F900 X53.186 Y58.82 E64.19445
G0 F7200 X52.62 Y58.82
G1 F900 X58.82 Y52.62 E64.22743
G0 F7200 X58.82 Y52.054
G1 F900 X52.054 Y58.82 E64.26343
G0 F7200 X51.489 Y58.82
G1 F900 X58.82 Y51.489 E64.30243
G0 F7200 X58.82 Y50.923
G1 F900 X50.923 Y58.82 E64.34445
G0 F7200 X50.357 Y58.82
G1 F900 X58.82 Y50.357 E64.38948
G0 F7200 X58.82 Y49.792
G1 F900 X49.792 Y58.82 E64.43751
G0 F7200 X49.226 Y58.82
G1 F900 X58.82 Y49.226 E64.48855
G0 F7200 X58.82 Y48.66
G1 F900 X48.66 Y58.82 E64.54261
G0 F7200 X48.095 Y58.82
G1 F900 X58.82 Y48.095 E64.59967
G0 F7200 X58.82 Y47.529
G1 F900 X47.529 Y58.82 E64.65974
G0 F7200 X46.963 Y58.82
G1 F900 X58.82 Y46.963 E64.72283
G0 F7200 X58.82 Y46.398
G1 F900 X46.398 Y58.82 E64.78892
G0 F7200 X45.832 Y58.82
G1 F900 X58.82 Y45.832 E64.85802
G0 F7200 X58.82 Y45.266
G1 F900 X45.266 Y58.82 E64.93013
G0 F7200 X44.7 Y58.82
G1 F900 X58.82 Y44.7 E65.00526
G0 F7200 X58.82 Y44.135
G1 F900 X44.135 Y58.82 E65.08339
G0 F7200 X43.569 Y58.82
G1 F900 X58.82 Y43.569 E65.16453
G0 F7200 X58.82 Y43.003
G1 F900 X43.003 Y58.82 E65.24868
G0 F7200 X42.438 Y58.82
G1 F900 X58.82 Y42.438 E65.33584
G0 F7200 X58.82 Y41.872
G1 F900 X41.872 Y58.82 E65.42601
G0 F7200 X41.306 Y58.82
G1 F900 X58.82 Y41.306 E65.51919
G0 F7200 X58.381 Y41.18
G1 F900 X41.18 Y58.38 E65.61071
G0 F7200 X41.18 Y57.814
G1 F900 X57.815 Y41.18 E65.69921
G0 F7200 X57.249 Y41.18
G1 F900 X41.18 Y57.249 E65.78471
G0 F7200 X41.18 Y56.683
G1 F900 X56.684 Y41.18 E65.86719
G0 F7200 X56.118 Y41.18
G1 F900 X41.18 Y56.117 E65.94666
G0 F7200 X41.18 Y55.552
G1 F900 X55.552 Y41.18 E66.02313
G0 F7200 X54.987 Y41.18
G1 F900 X41.18 Y54.986 E66.09659
G0 F7200 X41.18 Y54.42
G1 F900 X54.421 Y41.18 E66.16703
G0 F7200 X53.855 Y41.18
G1 F900 X41.18 Y53.855 E66.23447
G0 F7200 X41.18 Y53.289
G1 F900 X53.29 Y41.18 E66.2989
G0 F7200 X52.724 Y41.18
G1 F900 X41.18 Y52.723 E66.36031
G0 F7200 X41.18 Y52.158
G1 F900 X52.158 Y41.18 E66.41872
G0 F7200 X51.593 Y41.18
G1 F900 X41.18 Y51.592 E66.47412
G0 F7200 X41.18 Y51.026
G1 F900 X51.027 Y41.18 E66.52651
G0 F7200 X50.461 Y41.18
G1 F900 X41.18 Y50.461 E66.57589
G0 F7200 X41.18 Y49.895
G1 F900 X49.896 Y41.18 E66.62226
G0 F7200 X49.33 Y41.18
G1 F900 X41.18 Y49.329 E66.66561
G0 F7200 X41.18 Y48.763
G1 F900 X48.764 Y41.18 E66.70596
G0 F7200 X48.199 Y41.18
G1 F900 X41.18 Y48.198 E66.7433
G0 F7200 X41.18 Y47.632
G1 F900 X47.633 Y41.18 E66.77763
G0 F7200 X47.067 Y41.18
G1 F900 X41.18 Y47.066 E66.80895
G0 F7200 X41.18 Y46.501
G1 F900 X46.501 Y41.18 E66.83726
G0 F7200 X45.936 Y41.18
G1 F900 X41.18 Y45.935 E66.86256
G0 F7200 X41.18 Y45.369
G1 F900 X45.37 Y41.18 E66.88485
G0 F7200 X44.804 Y41.18
G1 F900 X41.18 Y44.804 E66.90413
G0 F7200 X41.18 Y44.238
G1 F900 X44.239 Y41.18 E66.92041
G0 F7200 X43.673 Y41.18
G1 F900 X41.18 Y43.672 E66.93367
G0 F7200 X41.18 Y43.107
G1 F900 X43.107 Y41.18 E66.94392
G0 F7200 X42.542 Y41.18
G1 F900 X41.18 Y42.541 E66.95116
G0 F7200 X41.18 Y41.975
G1 F900 X41.976 Y41.18 E66.9554
G0 F7200 X41.41 Y41.18
G1 F900 X41.18 Y41.41 E66.95662
G0 F7200 X41.21 Y41.41
;MESH:NONMESH
G0 F600 X41.21 Y41.41 Z1.02
G0 F7200 X59.12 Y59.12
G0 X59.4 Y59.4
;TIME_ELAPSED:772.978391
;LAYER:12
;TYPE:WALL-INNER
;MESH:20mm cube.stl
G1 F3600 X59.4 Y40.6 E67.02735
G1 X40.6 Y40.6 E67.09808
G1 X40.6 Y59.4 E67.1688
G1 X59.4 Y59.4 E67.23953
G0 F7200 X59.8 Y59.8
;TYPE:WALL-OUTER
G1 F1800 X59.8 Y40.2 E67.31327
G1 X40.2 Y40.2 E67.38701
G1 X40.2 Y59.8 E67.46074
G1 X59.8 Y59.8 E67.53448
G0 F7200 X59.8 Y59.6
G0 X59.02 Y59.02
;TYPE:SKIN
G1 F900 X40.98 Y59.02 E67.60235
G1 X40.98 Y40.98 E67.67022
G1 X59.02 Y40.98 E67.73809
G1 X59.02 Y59.02 E67.80595
G0 F7200 X58.717 Y41.18
G1 F900 X58.82 Y41.284 E67.80651
G0 F7200 X58.82 Y41.849
G1 F900 X58.151 Y41.18 E67.81006
G0 F7200 X57.585 Y41.18
G1 F900 X58.82 Y42.415 E67.81664
G0 F7200 X58.82 Y42.981
G1 F900 X57.02 Y41.18 E67.82621
G0 F7200 X56.454 Y41.18
G1 F900 X58.82 Y43.546 E67.8388
G0 F7200 X58.82 Y44.112
G1 F900 X55.888 Y41.18 E67.8544
G0 F7200 X55.323 Y41.18
G1 F900 X58.82 Y44.678 E67.87301
G0 F7200 X58.82 Y45.244
G1 F900 X54.757 Y41.18 E67.89463
G0 F7200 X54.191 Y41.18
G1 F900 X58.82 Y45.809 E67.91926
G0 F7200 X58.82 Y46.375
G1 F900 X53.626 Y41.18 E67.9469
G0 F7200 X53.06 Y41.18
G1 F900 X58.82 Y46.941 E67.97754
G0 F7200 X58.82 Y47.506
G1 F900 X52.494 Y41.18 E68.0112
G0 F7200 X51.929 Y41.18
G1 F900 X58.82 Y48.072 E68.04787
G0 F7200 X58.82 Y48.638
G1 F900 X51.363 Y41.18 E68.08754
G0 F7200 X50.797 Y41.18
G1 F900 X58.82 Y49.203 E68.13023
G0 F7200 X58.82 Y49.769
G1 F900 X50.231 Y41.18 E68.17593
G0 F7200 X49.666 Y41.18
G1 F900 X58.82 Y50.335 E68.22463
G0 F7200 X58.82 Y50.9
G1 F900 X49.1 Y41.18 E68.27635
G0 F7200 X48.534 Y41.18
G1 F900 X58.82 Y51.466 E68.33107
G0 F7200 X58.82 Y52.032
G1 F900 X47.969 Y41.18 E68.38881
G0 F7200 X47.403 Y41.18
G1 F900 X58.82 Y52.597 E68.44955
G0 F7200 X58.82 Y53.163
G1 F900 X46.837 Y41.18 E68.51331
G0 F7200 X46.272 Y41.18
G1 F900 X58.82 Y53.729 E68.58007
G0 F7200 X58.82 Y54.294
G1 F900 X45.706 Y41.18 E68.64984
G0 F7200 X45.14 Y41.18
G1 F900 X58.82 Y54.86 E68.72262
G0 F7200 X58.82 Y55.426
G1 F900 X44.575 Y41.18 E68.79842
G0 F7200 X44.009 Y41.18
G1 F900 X58.82 Y55.992 E68.87722
G0 F7200 X58.82 Y56.557
G1 F900 X43.443 Y41.18 E68.95903
G0 F7200 X42.878 Y41.18
G1 F900 X58.82 Y57.123 E69.04385
G0 F7200 X58.82 Y57.689
G1 F900 X42.312 Y41.18 E69.13169
G0 F7200 X41.746 Y41.18
G1 F900 X58.82 Y58.254 E69.22253
G0 F7200 X58.82 Y58.82
G1 F900 X41.18 Y41.18 E69.31638
G0 F7200 X41.18 Y41.745
G1 F900 X58.254 Y58.82 E69.40722
G0 F7200 X57.689 Y58.82
G1 F900 X41.18 Y42.311 E69.49506
G0 F7200 X41.18 Y42.877
G1 F900 X57.123 Y58.82 E69.57988
G0 F7200 X56.557 Y58.82
G1 F900 X41.18 Y43.443 E69.66169
G0 F7200 X41.18 Y44.008
G1 F900 X55.992 Y58.82 E69.7405
G0 F7200 X55.426 Y58.82
G1 F900 X41.18 Y44.574 E69.81629
G0 F7200 X41.18 Y45.14
G1 F900 X54.86 Y58.82 E69.88908
G0 F7200 X54.294 Y58.82
G1 F900 X41.18 Y45.705 E69.95885
G0 F7200 X41.18 Y46.271
G1 F900 X53.729 Y58.82 E70.02562
G0 F7200 X53.163 Y58.82
G1 F900 X41.18 Y46.837 E70.08937
G0 F7200 X41.18 Y47.402
G1 F900 X52.597 Y58.82 E70.15012
G0 F7200 X52.032 Y58.82
G1 F900 X41.18 Y47.968 E70.20786
G0 F7200 X41.18 Y48.534
G1 F900 X51.466 Y58.82 E70.26258
G0 F7200 X50.9 Y58.82
G1 F900 X41.18 Y49.099 E70.3143
G0 F7200 X41.18 Y49.665
G1 F900 X50.335 Y58.82 E70.36301
G0 F7200 X49.769 Y58.82
G1 F900 X41.18 Y50.231 E70.40871
G0 F7200 X41.18 Y50.796
G1 F900 X49.203 Y58.82 E70.45139
G0 F7200 X48.638 Y58.82
G1 F900 X41.18 Y51.362 E70.49107
G0 F7200 X41.18 Y51.928
G1 F900 X48.072 Y58.82 E70.52774
G0 F7200 X47.506 Y58.82
G1 F900 X41.18 Y52.493 E70.5614
G0 F7200 X41.18 Y53.059
G1 F900 X46.941 Y58.82 E70.59205
G0 F7200 X46.375 Y58.82
G1 F900 X41.18 Y53.625 E70.61969
G0 F7200 X41.18 Y54.191
G1 F900 X45.809 Y58.82 E70.64432
G0 F7200 X45.244 Y58.82
G1 F900 X41.18 Y54.756 E70.66594
G0 F7200 X41.18 Y55.322
G1 F900 X44.678 Y58.82 E70.68455
G0 F7200 X44.112 Y58.82
G1 F900 X41.18 Y55.888 E70.70015
G0 F7200 X41.18 Y56.453
G1 F900 X43.546 Y58.82 E70.71274
G0 F7200 X42.981 Y58.82
G1 F900 X41.18 Y57.019 E70.72233
G0 F7200 X41.18 Y57.585
G1 F900 X42.415 Y58.82 E70.7289
G0 F7200 X41.849 Y58.82
G1 F900 X41.18 Y58.15 E70.73246
G0 F7200 X41.18 Y58.716
G1 F900 X41.284 Y58.82 E70.73301
G0 F7200 X41.284 Y58.79
;MESH:NONMESH
G0 F600 X41.284 Y58.79 Z1.08
G0 F7200 X59.12 Y59.12
G0 X59.4 Y59.4
;TIME_ELAPSED:835.339128
;LAYER:13
;TYPE:WALL-INNER
;MESH:20mm cube.stl
G1 F3600 X59.4 Y40.6 E70.80374
G1 X40.6 Y40.6 E70.87447
G1 X40.6 Y59.4 E70.9452
G1 X59.4 Y59.4 E71.01592
G0 F7200 X59.8 Y59.8
;TYPE:WALL-OUTER
G1 F1800 X59.8 Y40.2 E71.08966
G1 X40.2 Y40.2 E71.1634
G1 X40.2 Y59.8 E71.23714
G1 X59.8 Y59.8 E71.31087
G0 F7200 X59.8 Y59.6
G0 X59.02 Y59.02
;TYPE:SKIN
G1 F900 X40.98 Y59.02 E71.37874
G1 X40.98 Y40.98 E71.44661
G1 X59.02 Y40.98 E71.51448
G1 X59.02 Y59.02 E71.58235
G0 F7200 X58.277 Y58.82
G1 F900 X58.82 Y58.277 E71.58524
G0 F7200 X58.82 Y57.711
G1 F900 X57.711 Y58.82 E71.59114
G0 F7200 X57.146 Y58.82
G1 F900 X58.82 Y57.146 E71.60004
G0 F7200 X58.82 Y56.58
G1 F900 X56.58 Y58.82 E71.61196
G0 F7200 X56.014 Y58.82
G1 F900 X58.82 Y56.014 E71.62689
G0 F7200 X58.82 Y55.448
G1 F900 X55.448 Y58.82 E71.64483
G0 F7200 X54.883 Y58.82
G1 F900 X58.82 Y54.883 E71.66578
G0 F7200 X58.82 Y54.317
G1 F900 X54.317 Y58.82 E71.68973
G0 F7200 X53.751 Y58.82
G1 F900 X58.82 Y53.751 E71.7167
G0 F7200 X58.82 Y53.186
G1 F900 X53.186 Y58.82 E71.74668
G0 F7200 X52.62 Y58.82
G1 F900 X58.82 Y52.62 E71.77967
G0 F7200 X58.82 Y52.054
G1 F900 X52.054 Y58.82 E71.81566
G0 F7200 X51.489 Y58.82
G1 F900 X58.82 Y51.489 E71.85467
G0 F7200 X58.82 Y50.923
G1 F900 X50.923 Y58.82 E71.89668
G0 F7200 X50.357 Y58.82
G1 F900 X58.82 Y50.357 E71.94171
G0 F7200 X58.82 Y49.792
G1 F900 X49.792 Y58.82 E71.98974
G0 F7200 X49.226 Y58.82
G1 F900 X58.82 Y49.226 E72.04079
G0 F7200 X58.82 Y48.66
G1 F900 X48.66 Y58.82 E72.09484
G0 F7200 X48.095 Y58.82
G1 F900 X58.82 Y48.095 E72.1519
G0 F7200 X58.82 Y47.529
G1 F900 X47.529 Y58.82 E72.21198
G0 F7200 X46.963 Y58.82
G1 F900 X58.82 Y46.963 E72.27506
G0 F7200 X58.82 Y46.398
G1 F900 X46.398 Y58.82 E72.34115
G0 F7200 X45.832 Y58.82
G1 F900 X58.82 Y45.832 E72.41025
G0 F7200 X58.82 Y45.266
G1 F900 X45.266 Y58.82 E72.48237
G0 F7200 X44.7 Y58.82
G1 F900 X58.82 Y44.7 E72.55749
G0 F7200 X58.82 Y44.135
G1 F900 X44.135 Y58.82 E72.63562
G0 F7200 X43.569 Y58.82
G1 F900 X58.82 Y43.569 E72.71676
G0 F7200 X58.82 Y43.003
G1 F900 X43.003 Y58.82 E72.80092
G0 F7200 X42.438 Y58.82
G1 F900 X58.82 Y42.438 E72.88808
G0 F7200 X58.82 Y41.872
G1 F900 X41.872 Y58.82 E72.97825
G0 F7200 X41.306 Y58.82
G1 F900 X58.82 Y41.306 E73.07143
G0 F7200 X58.381 Y41.18
G1 F900 X41.18 Y58.38 E73.16294
G0 F7200 X41.18 Y57.814
G1 F900 X57.815 Y41.18 E73.25144
G0 F7200 X57.249 Y41.18
G1 F900 X41.18 Y57.249 E73.33694
G0 F7200 X41.18 Y56.683
G1 F900 X56.684 Y41.18 E73.41942
G0 F7200 X56.118 Y41.18
G1 F900 X41.18 Y56.117 E73.4989
G0 F7200 X41.18 Y55.552
G1 F900 X55.552 Y41.18 E73.57536
G0 F7200 X54.987 Y41.18
G1 F900 X41.18 Y54.986 E73.64882
G0 F7200 X41.18 Y54.42
G1 F900 X54.421 Y41.18 E73.71926
G0 F7200 X53.855 Y41.18
G1 F900 X41.18 Y53.855 E73.7867
G0 F7200 X41.18 Y53.289
G1 F900 X53.29 Y41.18 E73.85113
G0 F7200 X52.724 Y41.18
G1 F900 X41.18 Y52.723 E73.91255
G0 F7200 X41.18 Y52.158
G1 F900 X52.158 Y41.18 E73.97095
G0 F7200 X51.593 Y41.18
G1 F900 X41.18 Y51.592 E74.02635
G0 F7200 X41.18 Y51.026
G1 F900 X51.027 Y41.18 E74.07874
G0 F7200 X50.461 Y41.18
G1 F900 X41.18 Y50.461 E74.12812
G0 F7200 X41.18 Y49.895
G1 F900 X49.896 Y41.18 E74.17449
G0 F7200 X49.33 Y41.18
G1 F900 X41.18 Y49.329 E74.21785
G0 F7200 X41.18 Y48.763
G1 F900 X48.764 Y41.18 E74.2582
G0 F7200 X48.199 Y41.18
G1 F900 X41.18 Y48.198 E74.29554
G0 F7200 X41.18 Y47.632
G1 F900 X47.633 Y41.18 E74.32987
G0 F7200 X47.067 Y41.18
G1 F900 X41.18 Y47.066 E74.36119
G0 F7200 X41.18 Y46.501
G1 F900 X46.501 Y41.18 E74.3895
G0 F7200 X45.936 Y41.18
G1 F900 X41.18 Y45.935 E74.4148
G0 F7200 X41.18 Y45.369
G1 F900 X45.37 Y41.18 E74.43709
G0 F7200 X44.804 Y41.18
G1 F900 X41.18 Y44.804 E74.45637
G0 F7200 X41.18 Y44.238
G1 F900 X44.239 Y41.18 E74.47264
G0 F7200 X43.673 Y41.18
G1 F900 X41.18 Y43.672 E74.4859
G0 F7200 X41.18 Y43.107
G1 F900 X43.107 Y41.18 E74.49615
G0 F7200 X42.542 Y41.18
G1 F900 X41.18 Y42.541 E74.5034
G0 F7200 X41.18 Y41.975
G1 F900 X41.976 Y41.18 E74.50763
G0 F7200 X41.41 Y41.18
G1 F900 X41.18 Y41.41 E74.50885
G0 F7200 X41.21 Y41.41
;MESH:NONMESH
G0 F600 X41.21 Y41.41 Z1.14
G0 F7200 X40.76 Y40.76
;TIME_ELAPSED:897.355785
;LAYER:14
;TYPE:FILL
;MESH:20mm cube.stl
G1 F4800 X59.24 Y59.24 E74.60718
G1 X59.31 Y59.31
G0 F7200 X59.12 Y59.12
G0 X57.73 Y59.09
G0 X57.73 Y59.24
G1 F4800 X59.24 Y57.73 E74.61521
G1 X59.31 Y57.66
G0 F7200 X59.09 Y57.66
G0 X59.09 Y53.583
G0 X59.24 Y53.583
G1 F4800 X46.417 Y40.76 E74.68343
G1 X46.347 Y40.69
G0 F7200 X46.347 Y40.91
G0 X47.926 Y40.91
G0 X47.926 Y40.76
G1 F4800 X40.76 Y47.925 E74.72156
G1 X40.69 Y47.995
G0 F7200 X40.91 Y47.995
G0 X40.91 Y46.417
G0 X40.76 Y46.417
G1 F4800 X53.583 Y59.24 E74.78978
G1 X53.653 Y59.31
G0 F7200 X53.653 Y59.09
G0 X52.073 Y59.09
G0 X52.073 Y59.24
G1 F4800 X59.24 Y52.073 E74.82791
G1 X59.31 Y52.003
G0 F7200 X59.09 Y52.003
G0 X59.09 Y47.926
G0 X59.24 Y47.926
G1 F4800 X52.074 Y40.76 E74.86604
G1 X52.004 Y40.69
G0 F7200 X52.004 Y40.91
G0 X53.582 Y40.91
G0 X53.582 Y40.76
G1 F4800 X40.76 Y53.582 E74.93426
G1 X40.69 Y53.652
G0 F7200 X40.91 Y53.652
G0 X40.91 Y52.073
G0 X40.76 Y52.073
G1 F4800 X47.926 Y59.24 E74.97239
G1 X47.996 Y59.31
G0 F7200 X47.996 Y59.09
G0 X46.416 Y59.09
G0 X46.416 Y59.24
G1 F4800 X59.24 Y46.416 E75.04061
G1 X59.31 Y46.346
G0 F7200 X59.09 Y46.346
G0 X59.09 Y42.269
G0 X59.24 Y42.269
G1 F4800 X57.731 Y40.76 E75.04864
G1 X57.661 Y40.69
G0 F7200 X57.661 Y40.91
G0 X59.12 Y40.88
G0 X59.239 Y40.76
G1 F4800 X40.76 Y59.239 E75.14696
G1 X40.69 Y59.309
G0 F7200 X40.88 Y59.12
G0 X40.91 Y57.73
G0 X40.76 Y57.73
G1 F4800 X42.269 Y59.24 E75.15499
G1 X42.339 Y59.31
G0 F7200 X42.339 Y59.09
G0 X40.91 Y42.268
G0 X40.76 Y42.268
G1 F4800 X42.269 Y40.76 E75.16302
G1 X42.339 Y40.69
G0 F7200 X42.339 Y40.91
G0 X59.12 Y59.12
G0 X59.4 Y59.4
;TYPE:WALL-INNER
G1 F3600 X59.4 Y40.6 E75.23374
G1 X40.6 Y40.6 E75.30447
G1 X40.6 Y59.4 E75.3752
G1 X59.4 Y59.4 E75.44593
G0 F7200 X59.8 Y59.8
;TYPE:WALL-OUTER
G1 F1800 X59.8 Y40.2 E75.51966
G1 X40.2 Y40.2 E75.5934
G1 X40.2 Y59.8 E75.66714
G1 X59.8 Y59.8 E75.74088
G0 F7200 X59.8 Y59.6
G0 X58.79 Y58.908
;MESH:NONMESH
G0 F600 X58.79 Y58.908 Z1.2
G0 F7200 X40.88 Y40.88
G0 X40.76 Y40.76
;TIME_ELAPSED:905.077204
;LAYER:15
;TYPE:FILL
;MESH:20mm cube.stl
G1 F4800 X59.24 Y59.24 E75.8392
G1 X59.31 Y59.31
G0 F7200 X59.12 Y59.12
G0 X57.73 Y59.09
G0 X57.73 Y59.24
G1 F4800 X59.24 Y57.73 E75.84723
G1 X59.31 Y57.66
G0 F7200 X59.09 Y57.66
G0 X59.09 Y53.583
G0 X59.24 Y53.583
G1 F4800 X46.417 Y40.76 E75.91546
G1 X46.347 Y40.69
G0 F7200 X46.347 Y40.91
G0 X47.926 Y40.91
G0 X47.926 Y40.76
G1 F4800 X40.76 Y47.925 E75.95358
G1 X40.69 Y47.995
G0 F7200 X40.91 Y47.995
G0 X40.91 Y46.417
G0 X40.76 Y46.417
G1 F4800 X53.583 Y59.24 E76.0218
G1 X53.653 Y59.31
G0 F7200 X53.653 Y59.09
G0 X52.073 Y59.09
G0 X52.073 Y59.24
G1 F4800 X59.24 Y52.073 E76.05993
G1 X59.31 Y52.003
G0 F7200 X59.09 Y52.003
G0 X59.09 Y47.926
G0 X59.24 Y47.926
G1 F4800 X52.074 Y40.76 E76.09806
G1 X52.004 Y40.69
G0 F7200 X52.004 Y40.91
G0 X53.582 Y40.91
G0 X53.582 Y40.76
G1 F4800 X40.76 Y53.582 E76.16628
G1 X40.69 Y53.652
G0 F7200 X40.91 Y53.652
G0 X40.91 Y52.073
G0 X40.76 Y52.073
G1 F4800 X47.926 Y59.24 E76.20441
G1 X47.996 Y59.31
G0 F7200 X47.996 Y59.09
G0 X46.416 Y59.09
G0 X46.416 Y59.24
G1 F4800 X59.24 Y46.416 E76.27264
G1 X59.31 Y46.346
G0 F7200 X59.09 Y46.346
G0 X59.09 Y42.269
G0 X59.24 Y42.269
G1 F4800 X57.731 Y40.76 E76.28067
G1 X57.661 Y40.69
G0 F7200 X57.661 Y40.91
G0 X59.12 Y40.88
G0 X59.239 Y40.76
G1 F4800 X40.76 Y59.239 E76.37898
G1 X40.69 Y59.309
G0 F7200 X40.88 Y59.12
G0 X40.91 Y57.73
G0 X40.76 Y57.73
G1 F4800 X42.269 Y59.24 E76.38701
G1 X42.339 Y59.31
G0 F7200 X42.339 Y59.09
G0 X40.91 Y42.268
G0 X40.76 Y42.268
G1 F4800 X42.269 Y40.76 E76.39504
G1 X42.339 Y40.69
G0 F7200 X42.339 Y40.91
G0 X59.12 Y59.12
G0 X59.4 Y59.4
;TYPE:WALL-INNER
G1 F3600 X59.4 Y40.6 E76.46577
G1 X40.6 Y40.6 E76.53649
G1 X40.6 Y59.4 E76.60722
G1 X59.4 Y59.4 E76.67795
G0 F7200 X59.8 Y59.8
;TYPE:WALL-OUTER
G1 F1800 X59.8 Y40.2 E76.75169
G1 X40.2 Y40.2 E76.82543
G1 X40.2 Y59.8 E76.89916
G1 X59.8 Y59.8 E76.9729
G0 F7200 X59.8 Y59.6
G0 X58.79 Y58.908
;MESH:NONMESH
G0 F600 X58.79 Y58.908 Z1.26
G0 F7200 X40.88 Y40.88
G0 X40.76 Y40.76
;TIME_ELAPSED:912.798624
;LAYER:16
;TYPE:FILL
;MESH:20mm cube.stl
G1 F4800 X59.24 Y59.24 E77.07122
G1 X59.31 Y59.31
G0 F7200 X59.12 Y59.12
G0 X57.73 Y59.09
G0 X57.73 Y59.24
G1 F4800 X59.24 Y57.73 E77.07926
G1 X59.31 Y57.66
G0 F7200 X59.09 Y57.66
G0 X59.09 Y53.583
G0 X59.24 Y53.583
G1 F4800 X46.417 Y40.76 E77.14748
G1 X46.347 Y40.69
G0 F7200 X46.347 Y40.91
G0 X47.926 Y40.91
G0 X47.926 Y40.76
G1 F4800 X40.76 Y47.925 E77.1856
G1 X40.69 Y47.995
G0 F7200 X40.91 Y47.995
G0 X40.91 Y46.417
G0 X40.76 Y46.417
G1 F4800 X53.583 Y59.24 E77.25383
G1 X53.653 Y59.31
G0 F7200 X53.653 Y59.09
G0 X52.073 Y59.09
G0 X52.073 Y59.24
G1 F4800 X59.24 Y52.073 E77.29196
G1 X59.31 Y52.003
G0 F7200 X59.09 Y52.003
G0 X59.09 Y47.926
G0 X59.24 Y47.926
G1 F4800 X52.074 Y40.76 E77.33008
G1 X52.004 Y40.69
G0 F7200 X52.004 Y40.91
G0 X53.582 Y40.91
G0 X53.582 Y40.76
G1 F4800 X40.76 Y53.582 E77.3983
G1 X40.69 Y53.652
G0 F7200 X40.91 Y53.652
G0 X40.91 Y52.073
G0 X40.76 Y52.073
G1 F4800 X47.926 Y59.24 E77.43643
G1 X47.996 Y59.31
G0 F7200 X47.996 Y59.09
G0 X46.416 Y59.09
G0 X46.416 Y59.24
G1 F4800 X59.24 Y46.416 E77.50466
G1 X59.31 Y46.346
G0 F7200 X59.09 Y46.346
G0 X59.09 Y42.269
G0 X59.24 Y42.269
G1 F4800 X57.731 Y40.76 E77.51269
G1 X57.661 Y40.69
G0 F7200 X57.661 Y40.91
G0 X59.12 Y40.88
G0 X59.239 Y40.76
G1 F4800 X40.76 Y59.239 E77.61101
G1 X40.69 Y59.309
G0 F7200 X40.88 Y59.12
G0 X40.91 Y57.73
G0 X40.76 Y57.73
G1 F4800 X42.269 Y59.24 E77.61904
G1 X42.339 Y59.31
G0 F7200 X42.339 Y59.09
G0 X40.91 Y42.268
G0 X40.76 Y42.268
G1 F4800 X42.269 Y40.76 E77.62706
G1 X42.339 Y40.69
G0 F7200 X42.339 Y40.91
G0 X59.12 Y59.12
G0 X59.4 Y59.4
;TYPE:WALL-INNER
G1 F3600 X59.4 Y40.6 E77.69779
G1 X40.6 Y40.6 E77.76852
G1 X40.6 Y59.4 E77.83925
G1 X59.4 Y59.4 E77.90997
G0 F7200 X59.8 Y59.8
;TYPE:WALL-OUTER
G1 F1800 X59.8 Y40.2 E77.98371
G1 X40.2 Y40.2 E78.05745
G1 X40.2 Y59.8 E78.13119
G1 X59.8 Y59.8 E78.20492
G0 F7200 X59.8 Y59.6
G0 X58.79 Y58.908
;MESH:NONMESH
G0 F600 X58.79 Y58.908 Z1.32
G0 F7200 X40.88 Y40.88
G0 X40.76 Y40.76
;TIME_ELAPSED:920.520043
;LAYER:17
;TYPE:FILL
;MESH:20mm cube.stl
G1 F4800 X59.24 Y59.24 E78.30324
G1 X59.31 Y59.31
G0 F7200 X59.12 Y59.12
G0 X57.73 Y59.09
G0 X57.73 Y59.24
G1 F4800 X59.24 Y57.73 E78.31128
G1 X59.31 Y57.66
G0 F7200 X59.09 Y57.66
G0 X59.09 Y53.583
G0 X59.24 Y53.583
G1 F4800 X46.417 Y40.76 E78.3795
G1 X46.347 Y40.69
G0 F7200 X46.347 Y40.91
G0 X47.926 Y40.91
G0 X47.926 Y40.76
G1 F4800 X40.76 Y47.925 E78.41763
G1 X40.69 Y47.995
G0 F7200 X40.91 Y47.995
G0 X40.91 Y46.417
G0 X40.76 Y46.417
G1 F4800 X53.583 Y59.24 E78.48585
G1 X53.653 Y59.31
G0 F7200 X53.653 Y59.09
G0 X52.073 Y59.09
G0 X52.073 Y59.24
G1 F4800 X59.24 Y52.073 E78.52398
G1 X59.31 Y52.003
G0 F7200 X59.09 Y52.003
G0 X59.09 Y47.926
G0 X59.24 Y47.926
G1 F4800 X52.074 Y40.76 E78.56211
G1 X52.004 Y40.69
G0 F7200 X52.004 Y40.91
G0 X53.582 Y40.91
G0 X53.582 Y40.76
G1 F4800 X40.76 Y53.582 E78.63033
G1 X40.69 Y53.652
G0 F7200 X40.91 Y53.652
G0 X40.91 Y52.073
G0 X40.76 Y52.073
G1 F4800 X47.926 Y59.24 E78.66845
G1 X47.996 Y59.31
G0 F7200 X47.996 Y59.09
G0 X46.416 Y59.09
G0 X46.416 Y59.24
G1 F4800 X59.24 Y46.416 E78.73668
G1 X59.31 Y46.346
G0 F7200 X59.09 Y46.346
G0 X59.09 Y42.269
G0 X59.24 Y42.269
G1 F4800 X57.731 Y40.76 E78.74471
G1 X57.661 Y40.69
G0 F7200 X57.661 Y40.91
G0 X59.12 Y40.88
G0 X59.239 Y40.76
G1 F4800 X40.76 Y59.239 E78.84303
G1 X40.69 Y59.309
G0 F7200 X40.88 Y59.12
G0 X40.91 Y57.73
G0 X40.76 Y57.73
G1 F4800 X42.269 Y59.24 E78.85106
G1 X42.339 Y59.31
G0 F7200 X42.339 Y59.09
G0 X40.91 Y42.268
G0 X40.76 Y42.268
G1 F4800 X42.269 Y40.76 E78.85909
G1 X42.339 Y40.69
G0 F7200 X42.339 Y40.91
G0 X59.12 Y59.12
G0 X59.4 Y59.4
;TYPE:WALL-INNER
G1 F3600 X59.4 Y40.6 E78.92981
G1 X40.6 Y40.6 E79.00054
G1 X40.6 Y59.4 E79.07127
G1 X59.4 Y59.4 E79.142
G0 F7200 X59.8 Y59.8
;TYPE:WALL-OUTER
G1 F1800 X59.8 Y40.2 E79.21573
G1 X40.2 Y40.2 E79.28947
G1 X40.2 Y59.8 E79.36321
G1 X59.8 Y59.8 E79.43695
G0 F7200 X59.8 Y59.6
G0 X58.79 Y58.908
;MESH:NONMESH
G0 F600 X58.79 Y58.908 Z1.38
G0 F7200 X40.88 Y40.88
G0 X40.76 Y40.76
;TIME_ELAPSED:928.241462
;LAYER:18
;TYPE:FILL
;MESH:20mm cube.stl
G1 F4800 X59.24 Y59.24 E79.53527
G1 X59.31 Y59.31
G0 F7200 X59.12 Y59.12
G0 X57.73 Y59.09
G0 X57.73 Y59.24
G1 F4800 X59.24 Y57.73 E79.5433
G1 X59.31 Y57.66
G0 F7200 X59.09 Y57.66
G0 X59.09 Y53.583
G0 X59.24 Y53.583
G1 F4800 X46.417 Y40.76 E79.61152
G1 X46.347 Y40.69
G0 F7200 X46.347 Y40.91
G0 X47.926 Y40.91
G0 X47.926 Y40.76
G1 F4800 X40.76 Y47.925 E79.64965
G1 X40.69 Y47.995
G0 F7200 X40.91 Y47.995
G0 X40.91 Y46.417
G0 X40.76 Y46.417
G1 F4800 X53.583 Y59.24 E79.71787
G1 X53.653 Y59.31
G0 F7200 X53.653 Y59.09
G0 X52.073 Y59.09
G0 X52.073 Y59.24
G1 F4800 X59.24 Y52.073 E79.756
G1 X59.31 Y52.003
G0 F7200 X59.09 Y52.003
G0 X59.09 Y47.926
G0 X59.24 Y47.926
G1 F4800 X52.074 Y40.76 E79.79413
G1 X52.004 Y40.69
G0 F7200 X52.004 Y40.91
G0 X53.582 Y40.91
G0 X53.582 Y40.76
G1 F4800 X40.76 Y53.582 E79.86235
G1 X40.69 Y53.652
G0 F7200 X40.91 Y53.652
G0 X40.91 Y52.073
G0 X40.76 Y52.073
G1 F4800 X47.926 Y59.24 E79.90048
G1 X47.996 Y59.31
G0 F7200 X47.996 Y59.09
G0 X46.416 Y59.09
G0 X46.416 Y59.24
G1 F4800 X59.24 Y46.416 E79.96871
G1 X59.31 Y46.346
G0 F7200 X59.09 Y46.346
G0 X59.09 Y42.269
G0 X59.24 Y42.269
G1 F4800 X57.731 Y40.76 E79.97674
G1 X57.661 Y40.69
G0 F7200 X57.661 Y40.91
G0 X59.12 Y40.88
G0 X59.239 Y40.76
G1 F4800 X40.76 Y59.239 E80.07505
G1 X40.69 Y59.309
G0 F7200 X40.88 Y59.12
G0 X40.91 Y57.73
G0 X40.76 Y57.73
G1 F4800 X42.269 Y59.24 E80.08308
G1 X42.339 Y59.31
G0 F7200 X42.339 Y59.09
G0 X40.91 Y42.268
G0 X40.76 Y42.268
G1 F4800 X42.269 Y40.76 E80.09111
G1 X42.339 Y40.69
G0 F7200 X42.339 Y40.91
G0 X59.12 Y59.12
G0 X59.4 Y59.4
;TYPE:WALL-INNER
G1 F3600 X59.4 Y40.6 E80.16184
G1 X40.6 Y40.6 E80.23256
G1 X40.6 Y59.4 E80.30329
G1 X59.4 Y59.4 E80.37402
G0 F7200 X59.8 Y59.8
;TYPE:WALL-OUTER
G1 F1800 X59.8 Y40.2 E80.44776
G1 X40.2 Y40.2 E80.52149
G1 X40.2 Y59.8 E80.59523
G1 X59.8 Y59.8 E80.66897
G0 F7200 X59.8 Y59.6
G0 X58.79 Y58.908
;MESH:NONMESH
G0 F600 X58.79 Y58.908 Z1.44
G0 F7200 X40.88 Y40.88
G0 X40.76 Y40.76
;TIME_ELAPSED:935.962881
;LAYER:19
;TYPE:FILL
;MESH:20mm cube.stl
G1 F4800 X59.24 Y59.24 E80.76729
G1 X59.31 Y59.31
G0 F7200 X59.12 Y59.12
G0 X57.73 Y59.09
G0 X57.73 Y59.24
G1 F4800 X59.24 Y57.73 E80.77532
G1 X59.31 Y57.66
G0 F7200 X59.09 Y57.66
G0 X59.09 Y53.583
G0 X59.24 Y53.583
G1 F4800 X46.417 Y40.76 E80.84355
G1 X46.347 Y40.69
G0 F7200 X46.347 Y40.91
G0 X47.926 Y40.91
G0 X47.926 Y40.76
G1 F4800 X40.76 Y47.925 E80.88167
G1 X40.69 Y47.995
G0 F7200 X40.91 Y47.995
G0 X40.91 Y46.417
G0 X40.76 Y46.417
G1 F4800 X53.583 Y59.24 E80.9499
G1 X53.653 Y59.31
G0 F7200 X53.653 Y59.09
G0 X52.073 Y59.09
G0 X52.073 Y59.24
G1 F4800 X59.24 Y52.073 E80.98803
G1 X59.31 Y52.003
G0 F7200 X59.09 Y52.003
G0 X59.09 Y47.926
G0 X59.24 Y47.926
G1 F4800 X52.074 Y40.76 E81.02615
G1 X52.004 Y40.69
G0 F7200 X52.004 Y40.91
G0 X53.582 Y40.91
G0 X53.582 Y40.76
G1 F4800 X40.76 Y53.582 E81.09437
G1 X40.69 Y53.652
G0 F7200 X40.91 Y53.652
G0 X40.91 Y52.073
G0 X40.76 Y52.073
G1 F4800 X47.926 Y59.24 E81.1325
G1 X47.996 Y59.31
G0 F7200 X47.996 Y59.09
G0 X46.416 Y59.09
G0 X46.416 Y59.24
G1 F4800 X59.24 Y46.416 E81.20073
G1 X59.31 Y46.346
G0 F7200 X59.09 Y46.346
G0 X59.09 Y42.269
G0 X59.24 Y42.269
G1 F4800 X57.731 Y40.76 E81.20876
G1 X57.661 Y40.69
G0 F7200 X57.661 Y40.91
G0 X59.12 Y40.88
G0 X59.239 Y40.76
G1 F4800 X40.76 Y59.239 E81.30707
G1 X40.69 Y59.309
G0 F7200 X40.88 Y59.12
G0 X40.91 Y57.73
G0 X40.76 Y57.73
G1 F4800 X42.269 Y59.24 E81.31511
G1 X42.339 Y59.31
G0 F7200 X42.339 Y59.09
G0 X40.91 Y42.268
G0 X40.76 Y42.268
G1 F4800 X42.269 Y40.76 E81.32313
G1 X42.339 Y40.69
G0 F7200 X42.339 Y40.91
G0 X59.12 Y59.12
G0 X59.4 Y59.4
;TYPE:WALL-INNER
G1 F3600 X59.4 Y40.6 E81.39386
G1 X40.6 Y40.6 E81.46459
G1 X40.6 Y59.4 E81.53531
G1 X59.4 Y59.4 E81.60604
G0 F7200 X59.8 Y59.8
;TYPE:WALL-OUTER
G1 F1800 X59.8 Y40.2 E81.67978
G1 X40.2 Y40.2 E81.75352
G1 X40.2 Y59.8 E81.82725
G1 X59.8 Y59.8 E81.90099
G0 F7200 X59.8 Y59.6
G0 X58.79 Y58.908
;MESH:NONMESH
G0 F600 X58.79 Y58.908 Z1.5
G0 F7200 X40.88 Y40.88
G0 X40.76 Y40.76
;TIME_ELAPSED:943.684300
;LAYER:20
;TYPE:FILL
;MESH:20mm cube.stl
G1 F4800 X59.24 Y59.24 E81.99931
G1 X59.31 Y59.31
G0 F7200 X59.12 Y59.12
G0 X57.73 Y59.09
G0 X57.73 Y59.24
G1 F4800 X59.24 Y57.73 E82.00735
G1 X59.31 Y57.66
G0 F7200 X59.09 Y57.66
G0 X59.09 Y53.583
G0 X59.24 Y53.583
G1 F4800 X46.417 Y40.76 E82.07557
G1 X46.347 Y40.69
G0 F7200 X46.347 Y40.91
G0 X47.926 Y40.91
G0 X47.926 Y40.76
G1 F4800 X40.76 Y47.925 E82.11369
G1 X40.69 Y47.995
G0 F7200 X40.91 Y47.995
G0 X40.91 Y46.417
G0 X40.76 Y46.417
G1 F4800 X53.583 Y59.24 E82.18192
G1 X53.653 Y59.31
G0 F7200 X53.653 Y59.09
G0 X52.073 Y59.09
G0 X52.073 Y59.24
G1 F4800 X59.24 Y52.073 E82.22005
G1 X59.31 Y52.003
G0 F7200 X59.09 Y52.003
G0 X59.09 Y47.926
G0 X59.24 Y47.926
G1 F4800 X52.074 Y40.76 E82.25818
G1 X52.004 Y40.69
G0 F7200 X52.004 Y40.91
G0 X53.582 Y40.91
G0 X53.582 Y40.76
G1 F4800 X40.76 Y53.582 E82.32639
G1 X40.69 Y53.652
G0 F7200 X40.91 Y53.652
G0 X40.91 Y52.073
G0 X40.76 Y52.073
G1 F4800 X47.926 Y59.24 E82.36452
G1 X47.996 Y59.31
G0 F7200 X47.996 Y59.09
G0 X46.416 Y59.09
G0 X46.416 Y59.24
G1 F4800 X59.24 Y46.416 E82.43275
G1 X59.31 Y46.346
G0 F7200 X59.09 Y46.346
G0 X59.09 Y42.269
G0 X59.24 Y42.269
G1 F4800 X57.731 Y40.76 E82.44078
G1 X57.661 Y40.69
G0 F7200 X57.661 Y40.91
G0 X59.12 Y40.88
G0 X59.239 Y40.76
G1 F4800 X40.76 Y59.239 E82.5391
G1 X40.69 Y59.309
G0 F7200 X40.88 Y59.12
G0 X40.91 Y57.73
G0 X40.76 Y57.73
G1 F4800 X42.269 Y59.24 E82.54713
G1 X42.339 Y59.31
G0 F7200 X42.339 Y59.09
G0 X40.91 Y42.268
G0 X40.76 Y42.268
G1 F4800 X42.269 Y40.76 E82.55515
G1 X42.339 Y40.69
G0 F7200 X42.339 Y40.91
G0 X59.12 Y59.12
G0 X59.4 Y59.4
;TYPE:WALL-INNER
G1 F3600 X59.4 Y40.6 E82.62588
G1 X40.6 Y40.6 E82.69661
G1 X40.6 Y59.4 E82.76734
G1 X59.4 Y59.4 E82.83807
G0 F7200 X59.8 Y59.8
;TYPE:WALL-OUTER
G1 F1800 X59.8 Y40.2 E82.9118
G1 X40.2 Y40.2 E82.98554
G1 X40.2 Y59.8 E83.05928
G1 X59.8 Y59.8 E83.13301
G0 F7200 X59.8 Y59.6
G0 X58.79 Y58.908
;MESH:NONMESH
G0 F600 X58.79 Y58.908 Z1.56
G0 F7200 X40.88 Y40.88
G0 X40.76 Y40.76
;TIME_ELAPSED:951.405720
;LAYER:21
;TYPE:FILL
;MESH:20mm cube.stl
G1 F4800 X59.24 Y59.24 E83.23134
G1 X59.31 Y59.31
G0 F7200 X59.12 Y59.12
G0 X57.73 Y59.09
G0 X57.73 Y59.24
G1 F4800 X59.24 Y57.73 E83.23937
G1 X59.31 Y57.66
G0 F7200 X59.09 Y57.66
G0 X59.09 Y53.583
G0 X59.24 Y53.583
G1 F4800 X46.417 Y40.76 E83.30759
G1 X46.347 Y40.69
G0 F7200 X46.347 Y40.91
G0 X47.926 Y40.91
G0 X47.926 Y40.76
G1 F4800 X40.76 Y47.925 E83.34572
G1 X40.69 Y47.995
G0 F7200 X40.91 Y47.995
G0 X40.91 Y46.417
G0 X40.76 Y46.417
G1 F4800 X53.583 Y59.24 E83.41394
G1 X53.653 Y59.31
G0 F7200 X53.653 Y59.09
G0 X52.073 Y59.09
G0 X52.073 Y59.24
G1 F4800 X59.24 Y52.073 E83.45207
G1 X59.31 Y52.003
G0 F7200 X59.09 Y52.003
G0 X59.09 Y47.926
G0 X59.24 Y47.926
G1 F4800 X52.074 Y40.76 E83.4902
G1 X52.004 Y40.69
G0 F7200 X52.004 Y40.91
G0 X53.582 Y40.91
G0 X53.582 Y40.76
G1 F4800 X40.76 Y53.582 E83.55842
G1 X40.69 Y53.652
G0 F7200 X40.91 Y53.652
G0 X40.91 Y52.073
G0 X40.76 Y52.073
G1 F4800 X47.926 Y59.24 E83.59655
G1 X47.996 Y59.31
G0 F7200 X47.996 Y59.09
G0 X46.416 Y59.09
G0 X46.416 Y59.24
G1 F4800 X59.24 Y46.416 E83.66478
G1 X59.31 Y46.346
G0 F7200 X59.09 Y46.346
G0 X59.09 Y42.269
G0 X59.24 Y42.269
G1 F4800 X57.731 Y40.76 E83.6728
G1 X57.661 Y40.69
G0 F7200 X57.661 Y40.91
G0 X59.12 Y40.88
G0 X59.239 Y40.76
G1 F4800 X40.76 Y59.239 E83.77112
G1 X40.69 Y59.309
G0 F7200 X40.88 Y59.12
G0 X40.91 Y57.73
G0 X40.76 Y57.73
G1 F4800 X42.269 Y59.24 E83.77915
G1 X42.339 Y59.31
G0 F7200 X42.339 Y59.09
G0 X40.91 Y42.268
G0 X40.76 Y42.268
G1 F4800 X42.269 Y40.76 E83.78718
G1 X42.339 Y40.69
G0 F7200 X42.339 Y40.91
G0 X59.12 Y59.12
G0 X59.4 Y59.4
;TYPE:WALL-INNER
G1 F3600 X59.4 Y40.6 E83.85791
G1 X40.6 Y40.6 E83.92863
G1 X40.6 Y59.4 E83.99936
G1 X59.4 Y59.4 E84.07009
G0 F7200 X59.8 Y59.8
;TYPE:WALL-OUTER
G1 F1800 X59.8 Y40.2 E84.14383
G1 X40.2 Y40.2 E84.21756
G1 X40.2 Y59.8 E84.2913
G1 X59.8 Y59.8 E84.36504
G0 F7200 X59.8 Y59.6
G0 X58.79 Y58.908
;MESH:NONMESH
G0 F600 X58.79 Y58.908 Z1.62
G0 F7200 X40.88 Y40.88
G0 X40.76 Y40.76
;TIME_ELAPSED:959.127139
;LAYER:22
;TYPE:FILL
;MESH:20mm cube.stl
G1 F4800 X59.24 Y59.24 E84.46336
G1 X59.31 Y59.31
G0 F7200 X59.12 Y59.12
G0 X57.73 Y59.09
G0 X57.73 Y59.24
G1 F4800 X59.24 Y57.73 E84.47139
G1 X59.31 Y57.66
G0 F7200 X59.09 Y57.66
G0 X59.09 Y53.583
G0 X59.24 Y53.583
G1 F4800 X46.417 Y40.76 E84.53962
G1 X46.347 Y40.69
G0 F7200 X46.347 Y40.91
G0 X47.926 Y40.91
G0 X47.926 Y40.76
G1 F4800 X40.76 Y47.925 E84.57774
G1 X40.69 Y47.995
G0 F7200 X40.91 Y47.995
G0 X40.91 Y46.417
G0 X40.76 Y46.417
G1 F4800 X53.583 Y59.24 E84.64596
G1 X53.653 Y59.31
G0 F7200 X53.653 Y59.09
G0 X52.073 Y59.09
G0 X52.073 Y59.24
G1 F4800 X59.24 Y52.073 E84.6841
G1 X59.31 Y52.003
G0 F7200 X59.09 Y52.003
G0 X59.09 Y47.926
G0 X59.24 Y47.926
G1 F4800 X52.074 Y40.76 E84.72222
G1 X52.004 Y40.69
G0 F7200 X52.004 Y40.91
G0 X53.582 Y40.91
G0 X53.582 Y40.76
G1 F4800 X40.76 Y53.582 E84.79044
G1 X40.69 Y53.652
G0 F7200 X40.91 Y53.652
G0 X40.91 Y52.073
G0 X40.76 Y52.073
G1 F4800 X47.926 Y59.24 E84.82857
G1 X47.996 Y59.31
G0 F7200 X47.996 Y59.09
G0 X46.416 Y59.09
G0 X46.416 Y59.24
G1 F4800 X59.24 Y46.416 E84.8968
G1 X59.31 Y46.346
G0 F7200 X59.09 Y46.346
G0 X59.09 Y42.269
G0 X59.24 Y42.269
G1 F4800 X57.731 Y40.76 E84.90483
G1 X57.661 Y40.69
G0 F7200 X57.661 Y40.91
G0 X59.12 Y40.88
G0 X59.239 Y40.76
G1 F4800 X40.76 Y59.239 E85.00314
G1 X40.69 Y59.309
G0 F7200 X40.88 Y59.12
G0 X40.91 Y57.73
G0 X40.76 Y57.73
G1 F4800 X42.269 Y59.24 E85.01117
G1 X42.339 Y59.31
G0 F7200 X42.339 Y59.09
G0 X40.91 Y42.268
G0 X40.76 Y42.268
G1 F4800 X42.269 Y40.76 E85.0192
G1 X42.339 Y40.69
G0 F7200 X42.339 Y40.91
G0 X59.12 Y59.12
G0 X59.4 Y59.4
;TYPE:WALL-INNER
G1 F3600 X59.4 Y40.6 E85.08993
G1 X40.6 Y40.6 E85.16066
G1 X40.6 Y59.4 E85.23138
G1 X59.4 Y59.4 E85.30211
G0 F7200 X59.8 Y59.8
;TYPE:WALL-OUTER
G1 F1800 X59.8 Y40.2 E85.37585
G1 X40.2 Y40.2 E85.44959
G1 X40.2 Y59.8 E85.52332
G1 X59.8 Y59.8 E85.59706
G0 F7200 X59.8 Y59.6
G0 X58.79 Y58.908
;MESH:NONMESH
G0 F600 X58.79 Y58.908 Z1.68
G0 F7200 X40.88 Y40.88
G0 X40.76 Y40.76
;TIME_ELAPSED:966.848558
;LAYER:23
;TYPE:FILL
;MESH:20mm cube.stl
G1 F4800 X59.24 Y59.24 E85.69538
G1 X59.31 Y59.31
G0 F7200 X59.12 Y59.12
G0 X57.73 Y59.09
G0 X57.73 Y59.24
G1 F4800 X59.24 Y57.73 E85.70342
G1 X59.31 Y57.66
G0 F7200 X59.09 Y57.66
G0 X59.09 Y53.583
G0 X59.24 Y53.583
G1 F4800 X46.417 Y40.76 E85.77164
G1 X46.347 Y40.69
G0 F7200 X46.347 Y40.91
G0 X47.926 Y40.91
G0 X47.926 Y40.76
G1 F4800 X40.76 Y47.925 E85.80976
G1 X40.69 Y47.995
G0 F7200 X40.91 Y47.995
G0 X40.91 Y46.417
G0 X40.76 Y46.417
G1 F4800 X53.583 Y59.24 E85.87799
G1 X53.653 Y59.31
G0 F7200 X53.653 Y59.09
G0 X52.073 Y59.09
G0 X52.073 Y59.24
G1 F4800 X59.24 Y52.073 E85.91612
G1 X59.31 Y52.003
G0 F7200 X59.09 Y52.003
G0 X59.09 Y47.926
G0 X59.24 Y47.926
G1 F4800 X52.074 Y40.76 E85.95424
G1 X52.004 Y40.69
G0 F7200 X52.004 Y40.91
G0 X53.582 Y40.91
G0 X53.582 Y40.76
G1 F4800 X40.76 Y53.582 E86.02246
G1 X40.69 Y53.652
G0 F7200 X40.91 Y53.652
G0 X40.91 Y52.073
G0 X40.76 Y52.073
G1 F4800 X47.926 Y59.24 E86.06059
G1 X47.996 Y59.31
G0 F7200 X47.996 Y59.09
G0 X46.416 Y59.09
G0 X46.416 Y59.24
G1 F4800 X59.24 Y46.416 E86.12882
G1 X59.31 Y46.346
G0 F7200 X59.09 Y46.346
G0 X59.09 Y42.269
G0 X59.24 Y42.269
G1 F4800 X57.731 Y40.76 E86.13685
G1 X57.661 Y40.69
G0 F7200 X57.661 Y40.91
G0 X59.12 Y40.88
G0 X59.239 Y40.76
G1 F4800 X40.76 Y59.239 E86.23517
G1 X40.69 Y59.309
G0 F7200 X40.88 Y59.12
G0 X40.91 Y57.73
G0 X40.76 Y57.73
G1 F4800 X42.269 Y59.24 E86.2432
G1 X42.339 Y59.31
G0 F7200 X42.339 Y59.09
G0 X40.91 Y42.268
G0 X40.76 Y42.268
G1 F4800 X42.269 Y40.76 E86.25122
G1 X42.339 Y40.69
G0 F7200 X42.339 Y40.91
G0 X59.12 Y59.12
G0 X59.4 Y59.4
;TYPE:WALL-INNER
G1 F3600 X59.4 Y40.6 E86.32195
G1 X40.6 Y40.6 E86.39268
G1 X40.6 Y59.4 E86.46341
G1 X59.4 Y59.4 E86.53413
G0 F7200 X59.8 Y59.8
;TYPE:WALL-OUTER
G1 F1800 X59.8 Y40.2 E86.60787
G1 X40.2 Y40.2 E86.68161
G1 X40.2 Y59.8 E86.75535
G1 X59.8 Y59.8 E86.82908
G0 F7200 X59.8 Y59.6
G0 X58.79 Y58.908
;MESH:NONMESH
G0 F600 X58.79 Y58.908 Z1.74
G0 F7200 X40.88 Y40.88
G0 X40.76 Y40.76
;TIME_ELAPSED:974.569977
;LAYER:24
;TYPE:FILL
;MESH:20mm cube.stl
G1 F4800 X59.24 Y59.24 E86.92741
G1 X59.31 Y59.31
G0 F7200 X59.12 Y59.12
G0 X57.73 Y59.09
G0 X57.73 Y59.24
G1 F4800 X59.24 Y57.73 E86.93544
G1 X59.31 Y57.66
G0 F7200 X59.09 Y57.66
G0 X59.09 Y53.583
G0 X59.24 Y53.583
G1 F4800 X46.417 Y40.76 E87.00366
G1 X46.347 Y40.69
G0 F7200 X46.347 Y40.91
G0 X47.926 Y40.91
G0 X47.926 Y40.76
G1 F4800 X40.76 Y47.925 E87.04179
G1 X40.69 Y47.995
G0 F7200 X40.91 Y47.995
G0 X40.91 Y46.417
G0 X40.76 Y46.417
G1 F4800 X53.583 Y59.24 E87.11001
G1 X53.653 Y59.31
G0 F7200 X53.653 Y59.09
G0 X52.073 Y59.09
G0 X52.073 Y59.24
G1 F4800 X59.24 Y52.073 E87.14814
G1 X59.31 Y52.003
G0 F7200 X59.09 Y52.003
G0 X59.09 Y47.926
G0 X59.24 Y47.926
G1 F4800 X52.074 Y40.76 E87.18627
G1 X52.004 Y40.69
G0 F7200 X52.004 Y40.91
G0 X53.582 Y40.91
G0 X53.582 Y40.76
G1 F4800 X40.76 Y53.582 E87.25449
G1 X40.69 Y53.652
G0 F7200 X40.91 Y53.652
G0 X40.91 Y52.073
G0 X40.76 Y52.073
G1 F4800 X47.926 Y59.24 E87.29262
G1 X47.996 Y59.31
G0 F7200 X47.996 Y59.09
G0 X46.416 Y59.09
G0 X46.416 Y59.24
G1 F4800 X59.24 Y46.416 E87.36084
G1 X59.31 Y46.346
G0 F7200 X59.09 Y46.346
G0 X59.09 Y42.269
G0 X59.24 Y42.269
G1 F4800 X57.731 Y40.76 E87.36887
G1 X57.661 Y40.69
G0 F7200 X57.661 Y40.91
G0 X59.12 Y40.88
G0 X59.239 Y40.76
G1 F4800 X40.76 Y59.239 E87.46719
G1 X40.69 Y59.309
G0 F7200 X40.88 Y59.12
G0 X40.91 Y57.73
G0 X40.76 Y57.73
G1 F4800 X42.269 Y59.24 E87.47522
G1 X42.339 Y59.31
G0 F7200 X42.339 Y59.09
G0 X40.91 Y42.268
G0 X40.76 Y42.268
G1 F4800 X42.269 Y40.76 E87.48325
G1 X42.339 Y40.69
G0 F7200 X42.339 Y40.91
G0 X59.12 Y59.12
G0 X59.4 Y59.4
;TYPE:WALL-INNER
G1 F3600 X59.4 Y40.6 E87.55397
G1 X40.6 Y40.6 E87.6247
G1 X40.6 Y59.4 E87.69543
G1 X59.4 Y59.4 E87.76616
G0 F7200 X59.8 Y59.8
;TYPE:WALL-OUTER
G1 F1800 X59.8 Y40.2 E87.83989
G1 X40.2 Y40.2 E87.91363
G1 X40.2 Y59.8 E87.98737
G1 X59.8 Y59.8 E88.06111
G0 F7200 X59.8 Y59.6
G0 X58.79 Y58.908
;MESH:NONMESH
G0 F600 X58.79 Y58.908 Z1.8
G0 F7200 X40.88 Y40.88
G0 X40.76 Y40.76
;TIME_ELAPSED:982.291397
;LAYER:25
;TYPE:FILL
;MESH:20mm cube.stl
G1 F4800 X59.24 Y59.24 E88.15943
G1 X59.31 Y59.31
G0 F7200 X59.12 Y59.12
G0 X57.73 Y59.09
G0 X57.73 Y59.24
G1 F4800 X59.24 Y57.73 E88.16746
G1 X59.31 Y57.66
G0 F7200 X59.09 Y57.66
G0 X59.09 Y53.583
G0 X59.24 Y53.583
G1 F4800 X46.417 Y40.76 E88.23569
G1 X46.347 Y40.69
G0 F7200 X46.347 Y40.91
G0 X47.926 Y40.91
G0 X47.926 Y40.76
G1 F4800 X40.76 Y47.925 E88.27381
G1 X40.69 Y47.995
G0 F7200 X40.91 Y47.995
G0 X40.91 Y46.417
G0 X40.76 Y46.417
G1 F4800 X53.583 Y59.24 E88.34203
G1 X53.653 Y59.31
G0 F7200 X53.653 Y59.09
G0 X52.073 Y59.09
G0 X52.073 Y59.24
G1 F4800 X59.24 Y52.073 E88.38016
G1 X59.31 Y52.003
G0 F7200 X59.09 Y52.003
G0 X59.09 Y47.926
G0 X59.24 Y47.926
G1 F4800 X52.074 Y40.76 E88.41829
G1 X52.004 Y40.69
G0 F7200 X52.004 Y40.91
G0 X53.582 Y40.91
G0 X53.582 Y40.76
G1 F4800 X40.76 Y53.582 E88.48651
G1 X40.69 Y53.652
G0 F7200 X40.91 Y53.652
G0 X40.91 Y52.073
G0 X40.76 Y52.073
G1 F4800 X47.926 Y59.24 E88.52464
G1 X47.996 Y59.31
G0 F7200 X47.996 Y59.09
G0 X46.416 Y59.09
G0 X46.416 Y59.24
G1 F4800 X59.24 Y46.416 E88.59287
G1 X59.31 Y46.346
G0 F7200 X59.09 Y46.346
G0 X59.09 Y42.269
G0 X59.24 Y42.269
G1 F4800 X57.731 Y40.76 E88.6009
G1 X57.661 Y40.69
G0 F7200 X57.661 Y40.91
G0 X59.12 Y40.88
G0 X59.239 Y40.76
G1 F4800 X40.76 Y59.239 E88.69921
G1 X40.69 Y59.309
G0 F7200 X40.88 Y59.12
G0 X40.91 Y57.73
G0 X40.76 Y57.73
G1 F4800 X42.269 Y59.24 E88.70724
G1 X42.339 Y59.31
G0 F7200 X42.339 Y59.09
G0 X40.91 Y42.268
G0 X40.76 Y42.268
G1 F4800 X42.269 Y40.76 E88.71527
G1 X42.339 Y40.69
G0 F7200 X42.339 Y40.91
G0 X59.12 Y59.12
G0 X59.4 Y59.4
;TYPE:WALL-INNER
G1 F3600 X59.4 Y40.6 E88.786
G1 X40.6 Y40.6 E88.85672
G1 X40.6 Y59.4 E88.92745
G1 X59.4 Y59.4 E88.99818
G0 F7200 X59.8 Y59.8
;TYPE:WALL-OUTER
G1 F1800 X59.8 Y40.2 E89.07192
G1 X40.2 Y40.2 E89.14565
G1 X40.2 Y59.8 E89.21939
G1 X59.8 Y59.8 E89.29313
G0 F7200 X59.8 Y59.6
G0 X58.79 Y58.908
;MESH:NONMESH
G0 F600 X58.79 Y58.908 Z1.86
G0 F7200 X40.88 Y40.88
G0 X40.76 Y40.76
;TIME_ELAPSED:990.012816
;LAYER:26
;TYPE:FILL
;MESH:20mm cube.stl
G1 F4800 X59.24 Y59.24 E89.39145
G1 X59.31 Y59.31
G0 F7200 X59.12 Y59.12
G0 X57.73 Y59.09
G0 X57.73 Y59.24
G1 F4800 X59.24 Y57.73 E89.39948
G1 X59.31 Y57.66
G0 F7200 X59.09 Y57.66
G0 X59.09 Y53.583
G0 X59.24 Y53.583
G1 F4800 X46.417 Y40.76 E89.46771
G1 X46.347 Y40.69
G0 F7200 X46.347 Y40.91
G0 X47.926 Y40.91
G0 X47.926 Y40.76
G1 F4800 X40.76 Y47.925 E89.50583
G1 X40.69 Y47.995
G0 F7200 X40.91 Y47.995
G0 X40.91 Y46.417
G0 X40.76 Y46.417
G1 F4800 X53.583 Y59.24 E89.57406
G1 X53.653 Y59.31
G0 F7200 X53.653 Y59.09
G0 X52.073 Y59.09
G0 X52.073 Y59.24
G1 F4800 X59.24 Y52.073 E89.61219
G1 X59.31 Y52.003
G0 F7200 X59.09 Y52.003
G0 X59.09 Y47.926
G0 X59.24 Y47.926
G1 F4800 X52.074 Y40.76 E89.65031
G1 X52.004 Y40.69
G0 F7200 X52.004 Y40.91
G0 X53.582 Y40.91
G0 X53.582 Y40.76
G1 F4800 X40.76 Y53.582 E89.71853
G1 X40.69 Y53.652
G0 F7200 X40.91 Y53.652
G0 X40.91 Y52.073
G0 X40.76 Y52.073
G1 F4800 X47.926 Y59.24 E89.75666
G1 X47.996 Y59.31
G0 F7200 X47.996 Y59.09
G0 X46.416 Y59.09
G0 X46.416 Y59.24
G1 F4800 X59.24 Y46.416 E89.82489
G1 X59.31 Y46.346
G0 F7200 X59.09 Y46.346
G0 X59.09 Y42.269
G0 X59.24 Y42.269
G1 F4800 X57.731 Y40.76 E89.83292
G1 X57.661 Y40.69
G0 F7200 X57.661 Y40.91
G0 X59.12 Y40.88
G0 X59.239 Y40.76
G1 F4800 X40.76 Y59.239 E89.93124
G1 X40.69 Y59.309
G0 F7200 X40.88 Y59.12
G0 X40.91 Y57.73
G0 X40.76 Y57.73
G1 F4800 X42.269 Y59.24 E89.93927
G1 X42.339 Y59.31
G0 F7200 X42.339 Y59.09
G0 X40.91 Y42.268
G0 X40.76 Y42.268
G1 F4800 X42.269 Y40.76 E89.94729
G1 X42.339 Y40.69
G0 F7200 X42.339 Y40.91
G0 X59.12 Y59.12
G0 X59.4 Y59.4
;TYPE:WALL-INNER
G1 F3600 X59.4 Y40.6 E90.01802
G1 X40.6 Y40.6 E90.08875
G1 X40.6 Y59.4 E90.15948
G1 X59.4 Y59.4 E90.2302
G0 F7200 X59.8 Y59.8
;TYPE:WALL-OUTER
G1 F1800 X59.8 Y40.2 E90.30394
G1 X40.2 Y40.2 E90.37768
G1 X40.2 Y59.8 E90.45142
G1 X59.8 Y59.8 E90.52515
G0 F7200 X59.8 Y59.6
G0 X58.79 Y58.908
;MESH:NONMESH
G0 F600 X58.79 Y58.908 Z1.92
G0 F7200 X40.88 Y40.88
G0 X40.76 Y40.76
;TIME_ELAPSED:997.734235
;LAYER:27
;TYPE:FILL
;MESH:20mm cube.stl
G1 F4800 X59.24 Y59.24 E90.62347
G1 X59.31 Y59.31
G0 F7200 X59.12 Y59.12
G0 X57.73 Y59.09
G0 X57.73 Y59.24
G1 F4800 X59.24 Y57.73 E90.63151
G1 X59.31 Y57.66
G0 F7200 X59.09 Y57.66
G0 X59.09 Y53.583
G0 X59.24 Y53.583
G1 F4800 X46.417 Y40.76 E90.69973
G1 X46.347 Y40.69
G0 F7200 X46.347 Y40.91
G0 X47.926 Y40.91
G0 X47.926 Y40.76
G1 F4800 X40.76 Y47.925 E90.73786
G1 X40.69 Y47.995
G0 F7200 X40.91 Y47.995
G0 X40.91 Y46.417
G0 X40.76 Y46.417
G1 F4800 X53.583 Y59.24 E90.80608
G1 X53.653 Y59.31
G0 F7200 X53.653 Y59.09
G0 X52.073 Y59.09
G0 X52.073 Y59.24
G1 F4800 X59.24 Y52.073 E90.84421
G1 X59.31 Y52.003
G0 F7200 X59.09 Y52.003
G0 X59.09 Y47.926
G0 X59.24 Y47.926
G1 F4800 X52.074 Y40.76 E90.88234
G1 X52.004 Y40.69
G0 F7200 X52.004 Y40.91
G0 X53.582 Y40.91
G0 X53.582 Y40.76
G1 F4800 X40.76 Y53.582 E90.95056
G1 X40.69 Y53.652
G0 F7200 X40.91 Y53.652
G0 X40.91 Y52.073
G0 X40.76 Y52.073
G1 F4800 X47.926 Y59.24 E90.98868
G1 X47.996 Y59.31
G0 F7200 X47.996 Y59.09
G0 X46.416 Y59.09
G0 X46.416 Y59.24
G1 F4800 X59.24 Y46.416 E91.05691
G1 X59.31 Y46.346
G0 F7200 X59.09 Y46.346
G0 X59.09 Y42.269
G0 X59.24 Y42.269
G1 F4800 X57.731 Y40.76 E91.06494
G1 X57.661 Y40.69
G0 F7200 X57.661 Y40.91
G0 X59.12 Y40.88
G0 X59.239 Y40.76
G1 F4800 X40.76 Y59.239 E91.16326
G1 X40.69 Y59.309
G0 F7200 X40.88 Y59.12
G0 X40.91 Y57.73
G0 X40.76 Y57.73
G1 F4800 X42.269 Y59.24 E91.17129
G1 X42.339 Y59.31
G0 F7200 X42.339 Y59.09
G0 X40.91 Y42.268
G0 X40.76 Y42.268
G1 F4800 X42.269 Y40.76 E91.17932
G1 X42.339 Y40.69
G0 F7200 X42.339 Y40.91
G0 X59.12 Y59.12
G0 X59.4 Y59.4
;TYPE:WALL-INNER
G1 F3600 X59.4 Y40.6 E91.25004
G1 X40.6 Y40.6 E91.32077
G1 X40.6 Y59.4 E91.3915
G1 X59.4 Y59.4 E91.46223
G0 F7200 X59.8 Y59.8
;TYPE:WALL-OUTER
G1 F1800 X59.8 Y40.2 E91.53596
G1 X40.2 Y40.2 E91.6097
G1 X40.2 Y59.8 E91.68344
G1 X59.8 Y59.8 E91.75718
G0 F7200 X59.8 Y59.6
G0 X58.79 Y58.908
;MESH:NONMESH
G0 F600 X58.79 Y58.908 Z1.98
G0 F7200 X40.88 Y40.88
G0 X40.76 Y40.76
;TIME_ELAPSED:1005.455654
;LAYER:28
;TYPE:FILL
;MESH:20mm cube.stl
G1 F4800 X59.24 Y59.24 E91.8555
G1 X59.31 Y59.31
G0 F7200 X59.12 Y59.12
G0 X57.73 Y59.09
G0 X57.73 Y59.24
G1 F4800 X59.24 Y57.73 E91.86353
G1 X59.31 Y57.66
G0 F7200 X59.09 Y57.66
G0 X59.09 Y53.583
G0 X59.24 Y53.583
G1 F4800 X46.417 Y40.76 E91.93175
G1 X46.347 Y40.69
G0 F7200 X46.347 Y40.91
G0 X47.926 Y40.91
G0 X47.926 Y40.76
G1 F4800 X40.76 Y47.925 E91.96988
G1 X40.69 Y47.995
G0 F7200 X40.91 Y47.995
G0 X40.91 Y46.417
G0 X40.76 Y46.417
G1 F4800 X53.583 Y59.24 E92.0381
G1 X53.653 Y59.31
G0 F7200 X53.653 Y59.09
G0 X52.073 Y59.09
G0 X52.073 Y59.24
G1 F4800 X59.24 Y52.073 E92.07623
G1 X59.31 Y52.003
G0 F7200 X59.09 Y52.003
G0 X59.09 Y47.926
G0 X59.24 Y47.926
G1 F4800 X52.074 Y40.76 E92.11436
G1 X52.004 Y40.69
G0 F7200 X52.004 Y40.91
G0 X53.582 Y40.91
G0 X53.582 Y40.76
G1 F4800 X40.76 Y53.582 E92.18258
G1 X40.69 Y53.652
G0 F7200 X40.91 Y53.652
G0 X40.91 Y52.073
G0 X40.76 Y52.073
G1 F4800 X47.926 Y59.24 E92.22071
G1 X47.996 Y59.31
G0 F7200 X47.996 Y59.09
G0 X46.416 Y59.09
G0 X46.416 Y59.24
G1 F4800 X59.24 Y46.416 E92.28894
G1 X59.31 Y46.346
G0 F7200 X59.09 Y46.346
G0 X59.09 Y42.269
G0 X59.24 Y42.269
G1 F4800 X57.731 Y40.76 E92.29697
G1 X57.661 Y40.69
G0 F7200 X57.661 Y40.91
G0 X59.12 Y40.88
G0 X59.239 Y40.76
G1 F4800 X40.76 Y59.239 E92.39528
G1 X40.69 Y59.309
G0 F7200 X40.88 Y59.12
G0 X40.91 Y57.73
G0 X40.76 Y57.73
G1 F4800 X42.269 Y59.24 E92.40331
G1 X42.339 Y59.31
G0 F7200 X42.339 Y59.09
G0 X40.91 Y42.268
G0 X40.76 Y42.268
G1 F4800 X42.269 Y40.76 E92.41134
G1 X42.339 Y40.69
G0 F7200 X42.339 Y40.91
G0 X59.12 Y59.12
G0 X59.4 Y59.4
;TYPE:WALL-INNER
G1 F3600 X59.4 Y40.6 E92.48207
G1 X40.6 Y40.6 E92.55279
G1 X40.6 Y59.4 E92.62352
G1 X59.4 Y59.4 E92.69425
G0 F7200 X59.8 Y59.8
;TYPE:WALL-OUTER
G1 F1800 X59.8 Y40.2 E92.76799
G1 X40.2 Y40.2 E92.84172
G1 X40.2 Y59.8 E92.91546
G1 X59.8 Y59.8 E92.9892
G0 F7200 X59.8 Y59.6
G0 X58.79 Y58.908
;MESH:NONMESH
G0 F600 X58.79 Y58.908 Z2.04
G0 F7200 X40.88 Y40.88
G0 X40.76 Y40.76
;TIME_ELAPSED:1013.177073
;LAYER:29
;TYPE:FILL
;MESH:20mm cube.stl
G1 F4800 X59.24 Y59.24 E93.08752
G1 X59.31 Y59.31
G0 F7200 X59.12 Y59.12
G0 X57.73 Y59.09
G0 X57.73 Y59.24
G1 F4800 X59.24 Y57.73 E93.09555
G1 X59.31 Y57.66
G0 F7200 X59.09 Y57.66
G0 X59.09 Y53.583
G0 X59.24 Y53.583
G1 F4800 X46.417 Y40.76 E93.16378
G1 X46.347 Y40.69
G0 F7200 X46.347 Y40.91
G0 X47.926 Y40.91
G0 X47.926 Y40.76
G1 F4800 X40.76 Y47.925 E93.2019
G1 X40.69 Y47.995
G0 F7200 X40.91 Y47.995
G0 X40.91 Y46.417
G0 X40.76 Y46.417
G1 F4800 X53.583 Y59.24 E93.27013
G1 X53.653 Y59.31
G0 F7200 X53.653 Y59.09
G0 X52.073 Y59.09
G0 X52.073 Y59.24
G1 F4800 X59.24 Y52.073 E93.30826
G1 X59.31 Y52.003
G0 F7200 X59.09 Y52.003
G0 X59.09 Y47.926
G0 X59.24 Y47.926
G1 F4800 X52.074 Y40.76 E93.34638
G1 X52.004 Y40.69
G0 F7200 X52.004 Y40.91
G0 X53.582 Y40.91
G0 X53.582 Y40.76
G1 F4800 X40.76 Y53.582 E93.4146
G1 X40.69 Y53.652
G0 F7200 X40.91 Y53.652
G0 X40.91 Y52.073
G0 X40.76 Y52.073
G1 F4800 X47.926 Y59.24 E93.45273
G1 X47.996 Y59.31
G0 F7200 X47.996 Y59.09
G0 X46.416 Y59.09
G0 X46.416 Y59.24
G1 F4800 X59.24 Y46.416 E93.52096
G1 X59.31 Y46.346
G0 F7200 X59.09 Y46.346
G0 X59.09 Y42.269
G0 X59.24 Y42.269
G1 F4800 X57.731 Y40.76 E93.52899
G1 X57.661 Y40.69
G0 F7200 X57.661 Y40.91
G0 X59.12 Y40.88
G0 X59.239 Y40.76
G1 F4800 X40.76 Y59.239 E93.6273
G1 X40.69 Y59.309
G0 F7200 X40.88 Y59.12
G0 X40.91 Y57.73
G0 X40.76 Y57.73
G1 F4800 X42.269 Y59.24 E93.63534
G1 X42.339 Y59.31
G0 F7200 X42.339 Y59.09
G0 X40.91 Y42.268
G0 X40.76 Y42.268
G1 F4800 X42.269 Y40.76 E93.64336
G1 X42.339 Y40.69
G0 F7200 X42.339 Y40.91
G0 X59.12 Y59.12
G0 X59.4 Y59.4
;TYPE:WALL-INNER
G1 F3600 X59.4 Y40.6 E93.71409
G1 X40.6 Y40.6 E93.78482
G1 X40.6 Y59.4 E93.85554
G1 X59.4 Y59.4 E93.92627
G0 F7200 X59.8 Y59.8
;TYPE:WALL-OUTER
G1 F1800 X59.8 Y40.2 E94.00001
G1 X40.2 Y40.2 E94.07375
G1 X40.2 Y59.8 E94.14748
G1 X59.8 Y59.8 E94.22122
G0 F7200 X59.8 Y59.6
G0 X58.79 Y58.908
;MESH:NONMESH
G0 F600 X58.79 Y58.908 Z2.1
G0 F7200 X40.88 Y40.88
G0 X40.76 Y40.76
;TIME_ELAPSED:1020.898493
;LAYER:30
;TYPE:FILL
;MESH:20mm cube.stl
G1 F4800 X59.24 Y59.24 E94.31954
G1 X59.31 Y59.31
G0 F7200 X59.12 Y59.12
G0 X57.73 Y59.09
G0 X57.73 Y59.24
G1 F4800 X59.24 Y57.73 E94.32758
G1 X59.31 Y57.66
G0 F7200 X59.09 Y57.66
G0 X59.09 Y53.583
G0 X59.24 Y53.583
G1 F4800 X46.417 Y40.76 E94.3958
G1 X46.347 Y40.69
G0 F7200 X46.347 Y40.91
G0 X47.926 Y40.91
G0 X47.926 Y40.76
G1 F4800 X40.76 Y47.925 E94.43392
G1 X40.69 Y47.995
G0 F7200 X40.91 Y47.995
G0 X40.91 Y46.417
G0 X40.76 Y46.417
G1 F4800 X53.583 Y59.24 E94.50215
G1 X53.653 Y59.31
G0 F7200 X53.653 Y59.09
G0 X52.073 Y59.09
G0 X52.073 Y59.24
G1 F4800 X59.24 Y52.073 E94.54028
G1 X59.31 Y52.003
G0 F7200 X59.09 Y52.003
G0 X59.09 Y47.926
G0 X59.24 Y47.926
G1 F4800 X52.074 Y40.76 E94.57841
G1 X52.004 Y40.69
G0 F7200 X52.004 Y40.91
G0 X53.582 Y40.91
G0 X53.582 Y40.76
G1 F4800 X40.76 Y53.582 E94.64662
G1 X40.69 Y53.652
G0 F7200 X40.91 Y53.652
G0 X40.91 Y52.073
G0 X40.76 Y52.073
G1 F4800 X47.926 Y59.24 E94.68475
G1 X47.996 Y59.31
G0 F7200 X47.996 Y59.09
G0 X46.416 Y59.09
G0 X46.416 Y59.24
G1 F4800 X59.24 Y46.416 E94.75298
G1 X59.31 Y46.346
G0 F7200 X59.09 Y46.346
G0 X59.09 Y42.269
G0 X59.24 Y42.269
G1 F4800 X57.731 Y40.76 E94.76101
G1 X57.661 Y40.69
G0 F7200 X57.661 Y40.91
G0 X59.12 Y40.88
G0 X59.239 Y40.76
G1 F4800 X40.76 Y59.239 E94.85933
G1 X40.69 Y59.309
G0 F7200 X40.88 Y59.12
G0 X40.91 Y57.73
G0 X40.76 Y57.73
G1 F4800 X42.269 Y59.24 E94.86736
G1 X42.339 Y59.31
G0 F7200 X42.339 Y59.09
G0 X40.91 Y42.268
G0 X40.76 Y42.268
G1 F4800 X42.269 Y40.76 E94.87538
G1 X42.339 Y40.69
G0 F7200 X42.339 Y40.91
G0 X59.12 Y59.12
G0 X59.4 Y59.4
;TYPE:WALL-INNER
G1 F3600 X59.4 Y40.6 E94.94611
G1 X40.6 Y40.6 E95.01684
G1 X40.6 Y59.4 E95.08757
G1 X59.4 Y59.4 E95.1583
G0 F7200 X59.8 Y59.8
;TYPE:WALL-OUTER
G1 F1800 X59.8 Y40.2 E95.23203
G1 X40.2 Y40.2 E95.30577
G1 X40.2 Y59.8 E95.37951
G1 X59.8 Y59.8 E95.45324
G0 F7200 X59.8 Y59.6
G0 X58.79 Y58.908
;MESH:NONMESH
G0 F600 X58.79 Y58.908 Z2.16
G0 F7200 X40.88 Y40.88
G0 X40.76 Y40.76
;TIME_ELAPSED:1028.619912
;LAYER:31
;TYPE:FILL
;MESH:20mm cube.stl
G1 F4800 X59.24 Y59.24 E95.55157
G1 X59.31 Y59.31
G0 F7200 X59.12 Y59.12
G0 X57.73 Y59.09
G0 X57.73 Y59.24
G1 F4800 X59.24 Y57.73 E95.5596
G1 X59.31 Y57.66
G0 F7200 X59.09 Y57.66
G0 X59.09 Y53.583
G0 X59.24 Y53.583
G1 F4800 X46.417 Y40.76 E95.62782
G1 X46.347 Y40.69
G0 F7200 X46.347 Y40.91
G0 X47.926 Y40.91
G0 X47.926 Y40.76
G1 F4800 X40.76 Y47.925 E95.66595
G1 X40.69 Y47.995
G0 F7200 X40.91 Y47.995
G0 X40.91 Y46.417
