;FLAVOR:Marlin
;TIME:2097
;Filament used: 0.494416m
;Layer height: 0.1
;MINX:36
;MINY:36
;MINZ:0.3
;MAXX:64
;MAXY:64
;MAXZ:20
;TARGET_MACHINE.NAME:Unknown
;Generated with Cura_SteamEngine 5.10.2
M104 S200
M105
M109 S200
G21 ; set units to mm
G90 ; absolute positioning
M82 ; force absolute extrusion
M5  ; laser OFF safety
G0 X0 Y0 ; reset origin
M82 ;absolute extrusion mode
G92 E0
G92 E0
G1 F1500 E-6.5
;LAYER_COUNT:198
;LAYER:0
M107
G0 F3600 X37.289 Y37.081 Z0.3
;TYPE:SKIRT
G1 F1500 E0
G1 F1800 X37.786 Y36.686 E0.01194
G1 X38.279 Y36.405 E0.02262
G1 X38.929 Y36.16 E0.03568
G1 X39.486 Y36.046 E0.04638
G1 X40.24 Y36.001 E0.06059
G1 X59.351 Y36 E0.42007
G1 X60.083 Y36.012 E0.43385
G1 X60.743 Y36.083 E0.44633
G1 X61.293 Y36.229 E0.45704
G1 X61.867 Y36.479 E0.46881
G1 X62.348 Y36.781 E0.4795
G1 X62.92 Y37.289 E0.49389
G1 X63.31 Y37.782 E0.50571
G1 X63.62 Y38.333 E0.5176
G1 X63.839 Y38.925 E0.52948
G1 X63.954 Y39.482 E0.54018
G1 X63.999 Y40.24 E0.55446
G1 X64 Y59.32 E0.91336
G1 X63.988 Y60.081 E0.92768
G1 X63.917 Y60.741 E0.94017
G1 X63.75 Y61.349 E0.95203
G1 X63.489 Y61.925 E0.96392
G1 X63.141 Y62.451 E0.97579
G1 X62.715 Y62.917 E0.98766
G1 X62.273 Y63.272 E0.99833
G1 X61.674 Y63.618 E1.01134
G1 X61.142 Y63.82 E1.02204
G1 X60.482 Y63.96 E1.03474
G1 X60.038 Y63.997 E1.04312
G1 X40.649 Y64 E1.40783
G1 X39.917 Y63.988 E1.42161
G1 X39.257 Y63.917 E1.43409
G1 X38.707 Y63.771 E1.4448
G1 X38.133 Y63.521 E1.45657
G1 X37.652 Y63.219 E1.46726
G1 X37.08 Y62.711 E1.48165
G1 X36.69 Y62.218 E1.49347
G1 X36.38 Y61.667 E1.50536
G1 X36.162 Y61.079 E1.51716
G1 X36.047 Y60.524 E1.52782
G1 X36.001 Y59.745 E1.5425
G1 X36 Y40.614 E1.90237
G1 X36.012 Y39.914 E1.91553
G1 X36.084 Y39.255 E1.928
G1 X36.23 Y38.705 E1.93871
G1 X36.452 Y38.184 E1.94936
G1 X36.863 Y37.543 E1.96368
G1 X37.289 Y37.081 E1.97551
G0 F3600 X37.54 Y37.392
G1 F1800 X37.984 Y37.034 E1.98623
G1 X38.477 Y36.753 E1.99691
G1 X39.009 Y36.552 E2.00761
G1 X39.566 Y36.438 E2.0183
G1 X40.24 Y36.401 E2.031
G1 X59.345 Y36.4 E2.39037
G1 X60.043 Y36.41 E2.40351
G1 X60.64 Y36.47 E2.41479
G1 X61.19 Y36.616 E2.4255
G1 X61.654 Y36.818 E2.43501
G1 X62.135 Y37.12 E2.4457
G1 X62.608 Y37.539 E2.45758
G1 X62.963 Y37.981 E2.46825
G1 X63.246 Y38.475 E2.47896
G1 X63.447 Y39.006 E2.48964
G1 X63.562 Y39.563 E2.50034
G1 X63.599 Y40.24 E2.51309
G1 X63.6 Y59.314 E2.87188
G1 X63.59 Y60.041 E2.88556
G1 X63.53 Y60.638 E2.89685
G1 X63.384 Y61.187 E2.90753
G1 X63.153 Y61.707 E2.91823
G1 X62.844 Y62.183 E2.92891
G1 X62.462 Y62.607 E2.93965
G1 X62.071 Y62.927 E2.94915
G1 X61.528 Y63.245 E2.96099
G1 X61.057 Y63.429 E2.9705
G1 X60.449 Y63.561 E2.9822
G1 X60.005 Y63.598 E2.99058
G1 X40.655 Y63.6 E3.35457
G1 X39.957 Y63.59 E3.3677
G1 X39.36 Y63.53 E3.37898
G1 X38.81 Y63.384 E3.38969
G1 X38.346 Y63.182 E3.39921
G1 X37.865 Y62.88 E3.40989
G1 X37.392 Y62.461 E3.42178
G1 X37.037 Y62.019 E3.43244
G1 X36.754 Y61.525 E3.44315
G1 X36.553 Y60.994 E3.45383
G1 X36.446 Y60.5 E3.46334
G1 X36.401 Y59.745 E3.47757
G1 X36.4 Y40.62 E3.83732
G1 X36.41 Y39.955 E3.84983
G1 X36.471 Y39.358 E3.86112
G1 X36.617 Y38.808 E3.87182
G1 X36.819 Y38.344 E3.88134
G1 X37.159 Y37.812 E3.89322
G1 X37.54 Y37.392 E3.90388
G0 F3600 X37.794 Y37.701
G1 F1800 X38.185 Y37.38 E3.9134
G1 X38.622 Y37.126 E3.92291
G1 X39.093 Y36.943 E3.93241
G1 X39.588 Y36.837 E3.94193
G1 X40.24 Y36.801 E3.95422
G1 X59.339 Y36.8 E4.31348
G1 X60.037 Y36.81 E4.32661
G1 X60.54 Y36.857 E4.33611
G1 X61.03 Y36.983 E4.34563
G1 X61.494 Y37.185 E4.35515
G1 X61.92 Y37.457 E4.36466
G1 X62.298 Y37.792 E4.37416
G1 X62.618 Y38.183 E4.38366
G1 X62.873 Y38.62 E4.39318
G1 X63.056 Y39.091 E4.40268
G1 X63.163 Y39.585 E4.41219
G1 X63.199 Y40.24 E4.42453
G1 X63.2 Y59.308 E4.78321
G1 X63.19 Y60.035 E4.79689
G1 X63.143 Y60.538 E4.80639
G1 X63.017 Y61.028 E4.81591
G1 X62.816 Y61.492 E4.82542
G1 X62.544 Y61.918 E4.83493
G1 X62.209 Y62.297 E4.84444
G1 X61.818 Y62.617 E4.85395
G1 X61.382 Y62.872 E4.86345
G1 X60.911 Y63.056 E4.87296
G1 X60.416 Y63.162 E4.88248
G1 X59.972 Y63.199 E4.89086
G1 X40.661 Y63.2 E5.25411
G1 X39.963 Y63.19 E5.26724
G1 X39.46 Y63.143 E5.27675
G1 X38.97 Y63.017 E5.28626
G1 X38.506 Y62.815 E5.29578
G1 X38.08 Y62.543 E5.30529
G1 X37.702 Y62.208 E5.31479
G1 X37.382 Y61.817 E5.3243
G1 X37.127 Y61.38 E5.33381
G1 X36.944 Y60.909 E5.34332
G1 X36.837 Y60.415 E5.35283
G1 X36.801 Y59.745 E5.36545
G1 X36.8 Y40.626 E5.72509
G1 X36.81 Y39.961 E5.7376
G1 X36.858 Y39.458 E5.7471
G1 X36.984 Y38.968 E5.75662
G1 X37.186 Y38.504 E5.76614
G1 X37.458 Y38.078 E5.77565
G1 X37.794 Y37.701 E5.78515
G1 F1500 E-0.71485
;MESH:20mm cube.stl
G0 F3600 X40.424 Y39.335
G0 X40.424 Y40.424
G0 X59.09 Y59.12
G0 X59.4 Y59.4
;TYPE:WALL-INNER
G1 F1500 E5.78515
G1 F1800 X59.4 Y40.6 E6.13878
G1 X40.6 Y40.6 E6.49242
G1 X40.6 Y59.4 E6.84606
G1 X59.4 Y59.4 E7.1997
G0 F3600 X59.8 Y59.8
;TYPE:WALL-OUTER
G1 F1800 X59.8 Y40.2 E7.56839
G1 X40.2 Y40.2 E7.93707
G1 X40.2 Y59.8 E8.30576
G1 X59.8 Y59.8 E8.67445
G0 F3600 X59.8 Y59.6
G0 X59.02 Y59.02
;TYPE:SKIN
G1 F1800 X40.98 Y59.02 E9.01379
G1 X40.98 Y40.98 E9.35313
G1 X59.02 Y40.98 E9.69247
G1 X59.02 Y59.02 E10.03182
G0 F3600 X58.717 Y41.18
G1 F1800 X58.82 Y41.284 E10.03457
G0 F3600 X58.82 Y41.849
G1 F1800 X58.151 Y41.18 E10.05237
G0 F3600 X57.585 Y41.18
G1 F1800 X58.82 Y42.415 E10.08522
G0 F3600 X58.82 Y42.981
G1 F1800 X57.02 Y41.18 E10.13312
G0 F3600 X56.454 Y41.18
G1 F1800 X58.82 Y43.546 E10.19606
G0 F3600 X58.82 Y44.112
G1 F1800 X55.888 Y41.18 E10.27406
G0 F3600 X55.323 Y41.18
G1 F1800 X58.82 Y44.678 E10.3671
G0 F3600 X58.82 Y45.244
G1 F1800 X54.757 Y41.18 E10.47519
G0 F3600 X54.191 Y41.18
G1 F1800 X58.82 Y45.809 E10.59834
G0 F3600 X58.82 Y46.375
G1 F1800 X53.626 Y41.18 E10.73652
G0 F3600 X53.06 Y41.18
G1 F1800 X58.82 Y46.941 E10.88976
G0 F3600 X58.82 Y47.506
G1 F1800 X52.494 Y41.18 E11.05805
G0 F3600 X51.929 Y41.18
G1 F1800 X58.82 Y48.072 E11.24138
G0 F3600 X58.82 Y48.638
G1 F1800 X51.363 Y41.18 E11.43976
G0 F3600 X50.797 Y41.18
G1 F1800 X58.82 Y49.203 E11.65319
G0 F3600 X58.82 Y49.769
G1 F1800 X50.231 Y41.18 E11.88168
G0 F3600 X49.666 Y41.18
G1 F1800 X58.82 Y50.335 E12.12521
G0 F3600 X58.82 Y50.9
G1 F1800 X49.1 Y41.18 E12.38378
G0 F3600 X48.534 Y41.18
G1 F1800 X58.82 Y51.466 E12.65741
G0 F3600 X58.82 Y52.032
G1 F1800 X47.969 Y41.18 E12.94608
G0 F3600 X47.403 Y41.18
G1 F1800 X58.82 Y52.597 E13.2498
G0 F3600 X58.82 Y53.163
G1 F1800 X46.837 Y41.18 E13.56857
G0 F3600 X46.272 Y41.18
G1 F1800 X58.82 Y53.729 E13.90239
G0 F3600 X58.82 Y54.294
G1 F1800 X45.706 Y41.18 E14.25125
G0 F3600 X45.14 Y41.18
G1 F1800 X58.82 Y54.86 E14.61517
G0 F3600 X58.82 Y55.426
G1 F1800 X44.575 Y41.18 E14.99413
G0 F3600 X44.009 Y41.18
G1 F1800 X58.82 Y55.992 E15.38814
G0 F3600 X58.82 Y56.557
G1 F1800 X43.443 Y41.18 E15.79721
G0 F3600 X42.878 Y41.18
G1 F1800 X58.82 Y57.123 E16.22131
G0 F3600 X58.82 Y57.689
G1 F1800 X42.312 Y41.18 E16.66047
G0 F3600 X41.746 Y41.18
G1 F1800 X58.82 Y58.254 E17.11468
G0 F3600 X58.82 Y58.82
G1 F1800 X41.18 Y41.18 E17.58394
G0 F3600 X41.18 Y41.745
G1 F1800 X58.254 Y58.82 E18.03816
G0 F3600 X57.689 Y58.82
G1 F1800 X41.18 Y42.311 E18.47733
G0 F3600 X41.18 Y42.877
G1 F1800 X57.123 Y58.82 E18.90145
G0 F3600 X56.557 Y58.82
G1 F1800 X41.18 Y43.443 E19.31051
G0 F3600 X41.18 Y44.008
G1 F1800 X55.992 Y58.82 E19.70454
G0 F3600 X55.426 Y58.82
G1 F1800 X41.18 Y44.574 E20.08352
G0 F3600 X41.18 Y45.14
G1 F1800 X54.86 Y58.82 E20.44743
G0 F3600 X54.294 Y58.82
G1 F1800 X41.18 Y45.705 E20.79631
G0 F3600 X41.18 Y46.271
G1 F1800 X53.729 Y58.82 E21.13014
G0 F3600 X53.163 Y58.82
G1 F1800 X41.18 Y46.837 E21.44891
G0 F3600 X41.18 Y47.402
G1 F1800 X52.597 Y58.82 E21.75264
G0 F3600 X52.032 Y58.82
G1 F1800 X41.18 Y47.968 E22.04133
G0 F3600 X41.18 Y48.534
G1 F1800 X51.466 Y58.82 E22.31496
G0 F3600 X50.9 Y58.82
G1 F1800 X41.18 Y49.099 E22.57354
G0 F3600 X41.18 Y49.665
G1 F1800 X50.335 Y58.82 E22.81709
G0 F3600 X49.769 Y58.82
G1 F1800 X41.18 Y50.231 E23.04557
G0 F3600 X41.18 Y50.796
G1 F1800 X49.203 Y58.82 E23.25901
G0 F3600 X48.638 Y58.82
G1 F1800 X41.18 Y51.362 E23.45741
G0 F3600 X41.18 Y51.928
G1 F1800 X48.072 Y58.82 E23.64076
G0 F3600 X47.506 Y58.82
G1 F1800 X41.18 Y52.493 E23.80905
G0 F3600 X41.18 Y53.059
G1 F1800 X46.941 Y58.82 E23.96231
G0 F3600 X46.375 Y58.82
G1 F1800 X41.18 Y53.625 E24.10051
G0 F3600 X41.18 Y54.191
G1 F1800 X45.809 Y58.82 E24.22365
G0 F3600 X45.244 Y58.82
G1 F1800 X41.18 Y54.756 E24.33176
G0 F3600 X41.18 Y55.322
G1 F1800 X44.678 Y58.82 E24.42481
G0 F3600 X44.112 Y58.82
G1 F1800 X41.18 Y55.888 E24.50281
G0 F3600 X41.18 Y56.453
G1 F1800 X43.546 Y58.82 E24.56576
G0 F3600 X42.981 Y58.82
G1 F1800 X41.18 Y57.019 E24.61368
G0 F3600 X41.18 Y57.585
G1 F1800 X42.415 Y58.82 E24.64653
G0 F3600 X41.849 Y58.82
G1 F1800 X41.18 Y58.15 E24.66434
G0 F3600 X41.18 Y58.716
G1 F1800 X41.284 Y58.82 E24.66711
G0 F3600 X41.284 Y58.79
G1 F1500 E18.16711
;MESH:NONMESH
G0 F600 X41.284 Y58.79 Z0.4
G0 F3600 X40.424 Y40.424
G0 X40.424 Y39.335
G0 X37.794 Y37.701
;TIME_ELAPSED:49.965202
;LAYER:1
M106 S255
;TYPE:SKIRT
G1 F1500 E24.66711
G1 F1800 X38.185 Y37.38 E24.67028
G1 X38.622 Y37.126 E24.67345
G1 X39.093 Y36.943 E24.67662
G1 X39.588 Y36.837 E24.67979
G1 X40.24 Y36.801 E24.68388
G1 X59.339 Y36.8 E24.80364
G1 X60.037 Y36.81 E24.80802
G1 X60.54 Y36.857 E24.81118
G1 X61.03 Y36.983 E24.81436
G1 X61.494 Y37.185 E24.81753
G1 X61.92 Y37.457 E24.8207
G1 X62.298 Y37.792 E24.82386
G1 X62.618 Y38.183 E24.82703
G1 X62.873 Y38.62 E24.8302
G1 X63.056 Y39.091 E24.83337
G1 X63.163 Y39.585 E24.83654
G1 X63.199 Y40.24 E24.84066
G1 X63.2 Y59.308 E24.96022
G1 X63.19 Y60.035 E24.96477
G1 X63.143 Y60.538 E24.96794
G1 X63.017 Y61.028 E24.97111
G1 X62.816 Y61.492 E24.97429
G1 X62.544 Y61.918 E24.97745
G1 X62.209 Y62.297 E24.98063
G1 X61.818 Y62.617 E24.98379
G1 X61.382 Y62.872 E24.98696
G1 X60.911 Y63.056 E24.99013
G1 X60.416 Y63.162 E24.99331
G1 X59.972 Y63.199 E24.9961
G1 X40.661 Y63.2 E25.11718
G1 X39.963 Y63.19 E25.12156
G1 X39.46 Y63.143 E25.12473
G1 X38.97 Y63.017 E25.1279
G1 X38.506 Y62.815 E25.13107
G1 X38.08 Y62.543 E25.13424
G1 X37.702 Y62.208 E25.13741
G1 X37.382 Y61.817 E25.14058
G1 X37.127 Y61.38 E25.14375
G1 X36.944 Y60.909 E25.14692
G1 X36.837 Y60.415 E25.15009
G1 X36.801 Y59.745 E25.15429
G1 X36.8 Y40.626 E25.27417
G1 X36.81 Y39.961 E25.27834
G1 X36.858 Y39.458 E25.28151
G1 X36.984 Y38.968 E25.28468
G1 X37.186 Y38.504 E25.28786
G1 X37.458 Y38.078 E25.29103
G1 X37.794 Y37.701 E25.29419
G1 F1500 E18.79419
;MESH:20mm cube.stl
G0 F5400 X40.424 Y39.335
G0 X40.424 Y40.424
G0 X59.09 Y59.12
G0 X59.4 Y59.4
;TYPE:WALL-INNER
G1 F1500 E25.29419
G1 F2700 X59.4 Y40.6 E25.41207
G1 X40.6 Y40.6 E25.52995
G1 X40.6 Y59.4 E25.64783
G1 X59.4 Y59.4 E25.76571
G0 F5400 X59.8 Y59.8
;TYPE:WALL-OUTER
G1 F1800 X59.8 Y40.2 E25.88861
G1 X40.2 Y40.2 E26.0115
G1 X40.2 Y59.8 E26.1344
G1 X59.8 Y59.8 E26.25729
G0 F5400 X59.8 Y59.6
G0 X59.02 Y59.02
;TYPE:SKIN
G1 F1800 X40.98 Y59.02 E26.37041
G1 X40.98 Y40.98 E26.48352
G1 X59.02 Y40.98 E26.59664
G1 X59.02 Y59.02 E26.70975
G0 F5400 X58.277 Y58.82
G1 F1800 X58.82 Y58.277 E26.71457
G0 F5400 X58.82 Y57.711
G1 F1800 X57.711 Y58.82 E26.7244
G0 F5400 X57.146 Y58.82
G1 F1800 X58.82 Y57.146 E26.73924
G0 F5400 X58.82 Y56.58
G1 F1800 X56.58 Y58.82 E26.75911
G0 F5400 X56.014 Y58.82
G1 F1800 X58.82 Y56.014 E26.78399
G0 F5400 X58.82 Y55.448
G1 F1800 X55.448 Y58.82 E26.81389
G0 F5400 X54.883 Y58.82
G1 F1800 X58.82 Y54.883 E26.8488
G0 F5400 X58.82 Y54.317
G1 F1800 X54.317 Y58.82 E26.88873
G0 F5400 X53.751 Y58.82
G1 F1800 X58.82 Y53.751 E26.93368
G0 F5400 X58.82 Y53.186
G1 F1800 X53.186 Y58.82 E26.98364
G0 F5400 X52.62 Y58.82
G1 F1800 X58.82 Y52.62 E27.03862
G0 F5400 X58.82 Y52.054
G1 F1800 X52.054 Y58.82 E27.09861
G0 F5400 X51.489 Y58.82
G1 F1800 X58.82 Y51.489 E27.16362
G0 F5400 X58.82 Y50.923
G1 F1800 X50.923 Y58.82 E27.23364
G0 F5400 X50.357 Y58.82
G1 F1800 X58.82 Y50.357 E27.30869
G0 F5400 X58.82 Y49.792
G1 F1800 X49.792 Y58.82 E27.38874
G0 F5400 X49.226 Y58.82
G1 F1800 X58.82 Y49.226 E27.47382
G0 F5400 X58.82 Y48.66
G1 F1800 X48.66 Y58.82 E27.56391
G0 F5400 X48.095 Y58.82
G1 F1800 X58.82 Y48.095 E27.65901
G0 F5400 X58.82 Y47.529
G1 F1800 X47.529 Y58.82 E27.75913
G0 F5400 X46.963 Y58.82
G1 F1800 X58.82 Y46.963 E27.86427
G0 F5400 X58.82 Y46.398
G1 F1800 X46.398 Y58.82 E27.97443
G0 F5400 X45.832 Y58.82
G1 F1800 X58.82 Y45.832 E28.08959
G0 F5400 X58.82 Y45.266
G1 F1800 X45.266 Y58.82 E28.20978
G0 F5400 X44.7 Y58.82
G1 F1800 X58.82 Y44.7 E28.33499
G0 F5400 X58.82 Y44.135
G1 F1800 X44.135 Y58.82 E28.46521
G0 F5400 X43.569 Y58.82
G1 F1800 X58.82 Y43.569 E28.60044
G0 F5400 X58.82 Y43.003
G1 F1800 X43.003 Y58.82 E28.7407
G0 F5400 X42.438 Y58.82
G1 F1800 X58.82 Y42.438 E28.88597
G0 F5400 X58.82 Y41.872
G1 F1800 X41.872 Y58.82 E29.03625
G0 F5400 X41.306 Y58.82
G1 F1800 X58.82 Y41.306 E29.19155
G0 F5400 X58.381 Y41.18
G1 F1800 X41.18 Y58.38 E29.34408
G0 F5400 X41.18 Y57.814
G1 F1800 X57.815 Y41.18 E29.49158
G0 F5400 X57.249 Y41.18
G1 F1800 X41.18 Y57.249 E29.63407
G0 F5400 X41.18 Y56.683
G1 F1800 X56.684 Y41.18 E29.77155
G0 F5400 X56.118 Y41.18
G1 F1800 X41.18 Y56.117 E29.904
G0 F5400 X41.18 Y55.552
G1 F1800 X55.552 Y41.18 E30.03144
G0 F5400 X54.987 Y41.18
G1 F1800 X41.18 Y54.986 E30.15387
G0 F5400 X41.18 Y54.42
G1 F1800 X54.421 Y41.18 E30.27128
G0 F5400 X53.855 Y41.18
G1 F1800 X41.18 Y53.855 E30.38368
G0 F5400 X41.18 Y53.289
G1 F1800 X53.29 Y41.18 E30.49105
G0 F5400 X52.724 Y41.18
G1 F1800 X41.18 Y52.723 E30.59342
G0 F5400 X41.18 Y52.158
G1 F1800 X52.158 Y41.18 E30.69076
G0 F5400 X51.593 Y41.18
G1 F1800 X41.18 Y51.592 E30.78309
G0 F5400 X41.18 Y51.026
G1 F1800 X51.027 Y41.18 E30.87041
G0 F5400 X50.461 Y41.18
G1 F1800 X41.18 Y50.461 E30.9527
G0 F5400 X41.18 Y49.895
G1 F1800 X49.896 Y41.18 E31.02999
G0 F5400 X49.33 Y41.18
G1 F1800 X41.18 Y49.329 E31.10225
G0 F5400 X41.18 Y48.763
G1 F1800 X48.764 Y41.18 E31.1695
G0 F5400 X48.199 Y41.18
G1 F1800 X41.18 Y48.198 E31.23173
G0 F5400 X41.18 Y47.632
G1 F1800 X47.633 Y41.18 E31.28895
G0 F5400 X47.067 Y41.18
G1 F1800 X41.18 Y47.066 E31.34115
G0 F5400 X41.18 Y46.501
G1 F1800 X46.501 Y41.18 E31.38833
G0 F5400 X45.936 Y41.18
G1 F1800 X41.18 Y45.935 E31.4305
G0 F5400 X41.18 Y45.369
G1 F1800 X45.37 Y41.18 E31.46765
G0 F5400 X44.804 Y41.18
G1 F1800 X41.18 Y44.804 E31.49979
G0 F5400 X41.18 Y44.238
G1 F1800 X44.239 Y41.18 E31.52691
G0 F5400 X43.673 Y41.18
G1 F1800 X41.18 Y43.672 E31.54901
G0 F5400 X41.18 Y43.107
G1 F1800 X43.107 Y41.18 E31.5661
G0 F5400 X42.542 Y41.18
G1 F1800 X41.18 Y42.541 E31.57817
G0 F5400 X41.18 Y41.975
G1 F1800 X41.976 Y41.18 E31.58522
G0 F5400 X41.41 Y41.18
G1 F1800 X41.18 Y41.41 E31.58726
G0 F5400 X41.21 Y41.41
G1 F1500 E25.08726
;MESH:NONMESH
G0 F600 X41.21 Y41.41 Z0.5
G0 F5400 X40.424 Y40.424
G0 X40.424 Y39.335
G0 X37.794 Y37.701
;TIME_ELAPSED:88.900289
;LAYER:2
;TYPE:SKIRT
G1 F1500 E31.58726
G1 F1800 X38.185 Y37.38 E31.59043
G1 X38.622 Y37.126 E31.5936
G1 X39.093 Y36.943 E31.59677
G1 X39.588 Y36.837 E31.59995
G1 X40.24 Y36.801 E31.60404
G1 X59.339 Y36.8 E31.72379
G1 X60.037 Y36.81 E31.72817
G1 X60.54 Y36.857 E31.73134
G1 X61.03 Y36.983 E31.73451
G1 X61.494 Y37.185 E31.73769
G1 X61.92 Y37.457 E31.74085
G1 X62.298 Y37.792 E31.74402
G1 X62.618 Y38.183 E31.74719
G1 X62.873 Y38.62 E31.75036
G1 X63.056 Y39.091 E31.75353
G1 X63.163 Y39.585 E31.7567
G1 X63.199 Y40.24 E31.76081
G1 X63.2 Y59.308 E31.88037
G1 X63.19 Y60.035 E31.88493
G1 X63.143 Y60.538 E31.8881
G1 X63.017 Y61.028 E31.89127
G1 X62.816 Y61.492 E31.89444
G1 X62.544 Y61.918 E31.89761
G1 X62.209 Y62.297 E31.90078
G1 X61.818 Y62.617 E31.90395
G1 X61.382 Y62.872 E31.90712
G1 X60.911 Y63.056 E31.91029
G1 X60.416 Y63.162 E31.91346
G1 X59.972 Y63.199 E31.91626
G1 X40.661 Y63.2 E32.03734
G1 X39.963 Y63.19 E32.04172
G1 X39.46 Y63.143 E32.04488
G1 X38.97 Y63.017 E32.04806
G1 X38.506 Y62.815 E32.05123
G1 X38.08 Y62.543 E32.0544
G1 X37.702 Y62.208 E32.05757
G1 X37.382 Y61.817 E32.06073
G1 X37.127 Y61.38 E32.06391
G1 X36.944 Y60.909 E32.06707
G1 X36.837 Y60.415 E32.07024
G1 X36.801 Y59.745 E32.07445
G1 X36.8 Y40.626 E32.19433
G1 X36.81 Y39.961 E32.1985
G1 X36.858 Y39.458 E32.20167
G1 X36.984 Y38.968 E32.20484
G1 X37.186 Y38.504 E32.20801
G1 X37.458 Y38.078 E32.21118
G1 X37.794 Y37.701 E32.21435
G1 F1500 E25.71435
;MESH:20mm cube.stl
G0 F7200 X40.424 Y39.335
G0 X40.424 Y40.424
G0 X59.09 Y59.12
G0 X59.4 Y59.4
;TYPE:WALL-INNER
G1 F1500 E32.21435
G1 F3600 X59.4 Y40.6 E32.33223
G1 X40.6 Y40.6 E32.45011
G1 X40.6 Y59.4 E32.56799
G1 X59.4 Y59.4 E32.68587
G0 F7200 X59.8 Y59.8
;TYPE:WALL-OUTER
G1 F1800 X59.8 Y40.2 E32.80876
G1 X40.2 Y40.2 E32.93166
G1 X40.2 Y59.8 E33.05455
G1 X59.8 Y59.8 E33.17745
G0 F7200 X59.8 Y59.6
G0 X59.02 Y59.02
;TYPE:SKIN
G1 F1800 X40.98 Y59.02 E33.29056
G1 X40.98 Y40.98 E33.40368
G1 X59.02 Y40.98 E33.51679
G1 X59.02 Y59.02 E33.62991
G0 F7200 X58.717 Y41.18
G1 F1800 X58.82 Y41.284 E33.63082
G0 F7200 X58.82 Y41.849
G1 F1800 X58.151 Y41.18 E33.63676
G0 F7200 X57.585 Y41.18
G1 F1800 X58.82 Y42.415 E33.64771
G0 F7200 X58.82 Y42.981
G1 F1800 X57.02 Y41.18 E33.66367
G0 F7200 X56.454 Y41.18
G1 F1800 X58.82 Y43.546 E33.68465
G0 F7200 X58.82 Y44.112
G1 F1800 X55.888 Y41.18 E33.71065
G0 F7200 X55.323 Y41.18
G1 F1800 X58.82 Y44.678 E33.74167
G0 F7200 X58.82 Y45.244
G1 F1800 X54.757 Y41.18 E33.7777
G0 F7200 X54.191 Y41.18
G1 F1800 X58.82 Y45.809 E33.81875
G0 F7200 X58.82 Y46.375
G1 F1800 X53.626 Y41.18 E33.86481
G0 F7200 X53.06 Y41.18
G1 F1800 X58.82 Y46.941 E33.91589
G0 F7200 X58.82 Y47.506
G1 F1800 X52.494 Y41.18 E33.97198
G0 F7200 X51.929 Y41.18
G1 F1800 X58.82 Y48.072 E34.03309
G0 F7200 X58.82 Y48.638
G1 F1800 X51.363 Y41.18 E34.09922
G0 F7200 X50.797 Y41.18
G1 F1800 X58.82 Y49.203 E34.17037
G0 F7200 X58.82 Y49.769
G1 F1800 X50.231 Y41.18 E34.24653
G0 F7200 X49.666 Y41.18
G1 F1800 X58.82 Y50.335 E34.3277
G0 F7200 X58.82 Y50.9
G1 F1800 X49.1 Y41.18 E34.41389
G0 F7200 X48.534 Y41.18
G1 F1800 X58.82 Y51.466 E34.5051
G0 F7200 X58.82 Y52.032
G1 F1800 X47.969 Y41.18 E34.60133
G0 F7200 X47.403 Y41.18
G1 F1800 X58.82 Y52.597 E34.70257
G0 F7200 X58.82 Y53.163
G1 F1800 X46.837 Y41.18 E34.80883
G0 F7200 X46.272 Y41.18
G1 F1800 X58.82 Y53.729 E34.9201
G0 F7200 X58.82 Y54.294
G1 F1800 X45.706 Y41.18 E35.03638
G0 F7200 X45.14 Y41.18
G1 F1800 X58.82 Y54.86 E35.15769
G0 F7200 X58.82 Y55.426
G1 F1800 X44.575 Y41.18 E35.28401
G0 F7200 X44.009 Y41.18
G1 F1800 X58.82 Y55.992 E35.41535
G0 F7200 X58.82 Y56.557
G1 F1800 X43.443 Y41.18 E35.5517
G0 F7200 X42.878 Y41.18
G1 F1800 X58.82 Y57.123 E35.69307
G0 F7200 X58.82 Y57.689
G1 F1800 X42.312 Y41.18 E35.83946
G0 F7200 X41.746 Y41.18
G1 F1800 X58.82 Y58.254 E35.99086
G0 F7200 X58.82 Y58.82
G1 F1800 X41.18 Y41.18 E36.14728
G0 F7200 X41.18 Y41.745
G1 F1800 X58.254 Y58.82 E36.29869
G0 F7200 X57.689 Y58.82
G1 F1800 X41.18 Y42.311 E36.44508
G0 F7200 X41.18 Y42.877
G1 F1800 X57.123 Y58.82 E36.58645
G0 F7200 X56.557 Y58.82
G1 F1800 X41.18 Y43.443 E36.72281
G0 F7200 X41.18 Y44.008
G1 F1800 X55.992 Y58.82 E36.85415
G0 F7200 X55.426 Y58.82
G1 F1800 X41.18 Y44.574 E36.98047
G0 F7200 X41.18 Y45.14
G1 F1800 X54.86 Y58.82 E37.10178
G0 F7200 X54.294 Y58.82
G1 F1800 X41.18 Y45.705 E37.21807
G0 F7200 X41.18 Y46.271
G1 F1800 X53.729 Y58.82 E37.32935
G0 F7200 X53.163 Y58.82
G1 F1800 X41.18 Y46.837 E37.43561
G0 F7200 X41.18 Y47.402
G1 F1800 X52.597 Y58.82 E37.53685
G0 F7200 X52.032 Y58.82
G1 F1800 X41.18 Y47.968 E37.63308
G0 F7200 X41.18 Y48.534
G1 F1800 X51.466 Y58.82 E37.72429
G0 F7200 X50.9 Y58.82
G1 F1800 X41.18 Y49.099 E37.81048
G0 F7200 X41.18 Y49.665
G1 F1800 X50.335 Y58.82 E37.89166
G0 F7200 X49.769 Y58.82
G1 F1800 X41.18 Y50.231 E37.96783
G0 F7200 X41.18 Y50.796
G1 F1800 X49.203 Y58.82 E38.03897
G0 F7200 X48.638 Y58.82
G1 F1800 X41.18 Y51.362 E38.10511
G0 F7200 X41.18 Y51.928
G1 F1800 X48.072 Y58.82 E38.16622
G0 F7200 X47.506 Y58.82
G1 F1800 X41.18 Y52.493 E38.22232
G0 F7200 X41.18 Y53.059
G1 F1800 X46.941 Y58.82 E38.2734
G0 F7200 X46.375 Y58.82
G1 F1800 X41.18 Y53.625 E38.31947
G0 F7200 X41.18 Y54.191
G1 F1800 X45.809 Y58.82 E38.36052
G0 F7200 X45.244 Y58.82
G1 F1800 X41.18 Y54.756 E38.39655
G0 F7200 X41.18 Y55.322
G1 F1800 X44.678 Y58.82 E38.42757
G0 F7200 X44.112 Y58.82
G1 F1800 X41.18 Y55.888 E38.45357
G0 F7200 X41.18 Y56.453
G1 F1800 X43.546 Y58.82 E38.47456
G0 F7200 X42.981 Y58.82
G1 F1800 X41.18 Y57.019 E38.49053
G0 F7200 X41.18 Y57.585
G1 F1800 X42.415 Y58.82 E38.50148
G0 F7200 X41.849 Y58.82
G1 F1800 X41.18 Y58.15 E38.50741
G0 F7200 X41.18 Y58.716
G1 F1800 X41.284 Y58.82 E38.50834
G0 F7200 X41.284 Y58.79
;MESH:NONMESH
G0 F600 X41.284 Y58.79 Z0.6
G0 F7200 X59.12 Y59.12
G0 X59.4 Y59.4
;TIME_ELAPSED:127.404458
;LAYER:3
;TYPE:WALL-INNER
;MESH:20mm cube.stl
G1 F3600 X59.4 Y40.6 E38.62622
G1 X40.6 Y40.6 E38.7441
G1 X40.6 Y59.4 E38.86198
G1 X59.4 Y59.4 E38.97985
G0 F7200 X59.8 Y59.8
;TYPE:WALL-OUTER
G1 F1800 X59.8 Y40.2 E39.10275
G1 X40.2 Y40.2 E39.22565
G1 X40.2 Y59.8 E39.34854
G1 X59.8 Y59.8 E39.47144
G0 F7200 X59.8 Y59.6
G0 X59.02 Y59.02
;TYPE:SKIN
G1 F1800 X40.98 Y59.02 E39.58455
G1 X40.98 Y40.98 E39.69767
G1 X59.02 Y40.98 E39.81078
G1 X59.02 Y59.02 E39.92389
G0 F7200 X58.277 Y58.82
G1 F1800 X58.82 Y58.277 E39.92871
G0 F7200 X58.82 Y57.711
G1 F1800 X57.711 Y58.82 E39.93854
G0 F7200 X57.146 Y58.82
G1 F1800 X58.82 Y57.146 E39.95339
G0 F7200 X58.82 Y56.58
G1 F1800 X56.58 Y58.82 E39.97325
G0 F7200 X56.014 Y58.82
G1 F1800 X58.82 Y56.014 E39.99813
G0 F7200 X58.82 Y55.448
G1 F1800 X55.448 Y58.82 E40.02803
G0 F7200 X54.883 Y58.82
G1 F1800 X58.82 Y54.883 E40.06294
G0 F7200 X58.82 Y54.317
G1 F1800 X54.317 Y58.82 E40.10287
G0 F7200 X53.751 Y58.82
G1 F1800 X58.82 Y53.751 E40.14782
G0 F7200 X58.82 Y53.186
G1 F1800 X53.186 Y58.82 E40.19778
G0 F7200 X52.62 Y58.82
G1 F1800 X58.82 Y52.62 E40.25276
G0 F7200 X58.82 Y52.054
G1 F1800 X52.054 Y58.82 E40.31276
G0 F7200 X51.489 Y58.82
G1 F1800 X58.82 Y51.489 E40.37776
G0 F7200 X58.82 Y50.923
G1 F1800 X50.923 Y58.82 E40.44779
G0 F7200 X50.357 Y58.82
G1 F1800 X58.82 Y50.357 E40.52283
G0 F7200 X58.82 Y49.792
G1 F1800 X49.792 Y58.82 E40.60289
G0 F7200 X49.226 Y58.82
G1 F1800 X58.82 Y49.226 E40.68796
G0 F7200 X58.82 Y48.66
G1 F1800 X48.66 Y58.82 E40.77805
G0 F7200 X48.095 Y58.82
G1 F1800 X58.82 Y48.095 E40.87316
G0 F7200 X58.82 Y47.529
G1 F1800 X47.529 Y58.82 E40.97328
G0 F7200 X46.963 Y58.82
G1 F1800 X58.82 Y46.963 E41.07842
G0 F7200 X58.82 Y46.398
G1 F1800 X46.398 Y58.82 E41.18857
G0 F7200 X45.832 Y58.82
G1 F1800 X58.82 Y45.832 E41.30374
G0 F7200 X58.82 Y45.266
G1 F1800 X45.266 Y58.82 E41.42393
G0 F7200 X44.7 Y58.82
G1 F1800 X58.82 Y44.7 E41.54913
G0 F7200 X58.82 Y44.135
G1 F1800 X44.135 Y58.82 E41.67935
G0 F7200 X43.569 Y58.82
G1 F1800 X58.82 Y43.569 E41.81459
G0 F7200 X58.82 Y43.003
G1 F1800 X43.003 Y58.82 E41.95484
G0 F7200 X42.438 Y58.82
G1 F1800 X58.82 Y42.438 E42.10011
G0 F7200 X58.82 Y41.872
G1 F1800 X41.872 Y58.82 E42.25039
G0 F7200 X41.306 Y58.82
G1 F1800 X58.82 Y41.306 E42.4057
G0 F7200 X58.381 Y41.18
G1 F1800 X41.18 Y58.38 E42.55822
G0 F7200 X41.18 Y57.814
G1 F1800 X57.815 Y41.18 E42.70572
G0 F7200 X57.249 Y41.18
G1 F1800 X41.18 Y57.249 E42.84821
G0 F7200 X41.18 Y56.683
G1 F1800 X56.684 Y41.18 E42.98569
G0 F7200 X56.118 Y41.18
G1 F1800 X41.18 Y56.117 E43.11815
G0 F7200 X41.18 Y55.552
G1 F1800 X55.552 Y41.18 E43.24559
G0 F7200 X54.987 Y41.18
G1 F1800 X41.18 Y54.986 E43.36802
G0 F7200 X41.18 Y54.42
G1 F1800 X54.421 Y41.18 E43.48542
G0 F7200 X53.855 Y41.18
G1 F1800 X41.18 Y53.855 E43.59782
G0 F7200 X41.18 Y53.289
G1 F1800 X53.29 Y41.18 E43.7052
G0 F7200 X52.724 Y41.18
G1 F1800 X41.18 Y52.723 E43.80756
G0 F7200 X41.18 Y52.158
G1 F1800 X52.158 Y41.18 E43.9049
G0 F7200 X51.593 Y41.18
G1 F1800 X41.18 Y51.592 E43.99724
G0 F7200 X41.18 Y51.026
G1 F1800 X51.027 Y41.18 E44.08455
G0 F7200 X50.461 Y41.18
G1 F1800 X41.18 Y50.461 E44.16685
G0 F7200 X41.18 Y49.895
G1 F1800 X49.896 Y41.18 E44.24413
G0 F7200 X49.33 Y41.18
G1 F1800 X41.18 Y49.329 E44.3164
G0 F7200 X41.18 Y48.763
G1 F1800 X48.764 Y41.18 E44.38364
G0 F7200 X48.199 Y41.18
G1 F1800 X41.18 Y48.198 E44.44588
G0 F7200 X41.18 Y47.632
G1 F1800 X47.633 Y41.18 E44.50309
G0 F7200 X47.067 Y41.18
G1 F1800 X41.18 Y47.066 E44.55529
G0 F7200 X41.18 Y46.501
G1 F1800 X46.501 Y41.18 E44.60248
G0 F7200 X45.936 Y41.18
G1 F1800 X41.18 Y45.935 E44.64464
G0 F7200 X41.18 Y45.369
G1 F1800 X45.37 Y41.18 E44.68179
G0 F7200 X44.804 Y41.18
G1 F1800 X41.18 Y44.804 E44.71393
G0 F7200 X41.18 Y44.238
G1 F1800 X44.239 Y41.18 E44.74105
G0 F7200 X43.673 Y41.18
G1 F1800 X41.18 Y43.672 E44.76315
G0 F7200 X41.18 Y43.107
G1 F1800 X43.107 Y41.18 E44.78024
G0 F7200 X42.542 Y41.18
G1 F1800 X41.18 Y42.541 E44.79231
G0 F7200 X41.18 Y41.975
G1 F1800 X41.976 Y41.18 E44.79937
G0 F7200 X41.41 Y41.18
G1 F1800 X41.18 Y41.41 E44.80141
G0 F7200 X41.21 Y41.41
;MESH:NONMESH
G0 F600 X41.21 Y41.41 Z0.7
G0 F7200 X59.12 Y59.12
G0 X59.4 Y59.4
;TIME_ELAPSED:161.339823
;LAYER:4
;TYPE:WALL-INNER
;MESH:20mm cube.stl
G1 F3600 X59.4 Y40.6 E44.91929
G1 X40.6 Y40.6 E45.03717
G1 X40.6 Y59.4 E45.15504
G1 X59.4 Y59.4 E45.27292
G0 F7200 X59.8 Y59.8
;TYPE:WALL-OUTER
G1 F1800 X59.8 Y40.2 E45.39582
G1 X40.2 Y40.2 E45.51872
G1 X40.2 Y59.8 E45.64161
G1 X59.8 Y59.8 E45.76451
G0 F7200 X59.8 Y59.6
G0 X59.02 Y59.02
;TYPE:SKIN
G1 F1800 X40.98 Y59.02 E45.87762
G1 X40.98 Y40.98 E45.99073
G1 X59.02 Y40.98 E46.10385
G1 X59.02 Y59.02 E46.21696
G0 F7200 X58.717 Y41.18
G1 F1800 X58.82 Y41.284 E46.21788
G0 F7200 X58.82 Y41.849
G1 F1800 X58.151 Y41.18 E46.22381
G0 F7200 X57.585 Y41.18
G1 F1800 X58.82 Y42.415 E46.23476
G0 F7200 X58.82 Y42.981
G1 F1800 X57.02 Y41.18 E46.25073
G0 F7200 X56.454 Y41.18
G1 F1800 X58.82 Y43.546 E46.27171
G0 F7200 X58.82 Y44.112
G1 F1800 X55.888 Y41.18 E46.29771
G0 F7200 X55.323 Y41.18
G1 F1800 X58.82 Y44.678 E46.32872
G0 F7200 X58.82 Y45.244
G1 F1800 X54.757 Y41.18 E46.36476
G0 F7200 X54.191 Y41.18
G1 F1800 X58.82 Y45.809 E46.4058
G0 F7200 X58.82 Y46.375
G1 F1800 X53.626 Y41.18 E46.45186
G0 F7200 X53.06 Y41.18
G1 F1800 X58.82 Y46.941 E46.50295
G0 F7200 X58.82 Y47.506
G1 F1800 X52.494 Y41.18 E46.55904
G0 F7200 X51.929 Y41.18
G1 F1800 X58.82 Y48.072 E46.62015
G0 F7200 X58.82 Y48.638
G1 F1800 X51.363 Y41.18 E46.68628
G0 F7200 X50.797 Y41.18
G1 F1800 X58.82 Y49.203 E46.75742
G0 F7200 X58.82 Y49.769
G1 F1800 X50.231 Y41.18 E46.83358
G0 F7200 X49.666 Y41.18
G1 F1800 X58.82 Y50.335 E46.91476
G0 F7200 X58.82 Y50.9
G1 F1800 X49.1 Y41.18 E47.00095
G0 F7200 X48.534 Y41.18
G1 F1800 X58.82 Y51.466 E47.09216
G0 F7200 X58.82 Y52.032
G1 F1800 X47.969 Y41.18 E47.18838
G0 F7200 X47.403 Y41.18
G1 F1800 X58.82 Y52.597 E47.28962
G0 F7200 X58.82 Y53.163
G1 F1800 X46.837 Y41.18 E47.39588
G0 F7200 X46.272 Y41.18
G1 F1800 X58.82 Y53.729 E47.50715
G0 F7200 X58.82 Y54.294
G1 F1800 X45.706 Y41.18 E47.62344
G0 F7200 X45.14 Y41.18
G1 F1800 X58.82 Y54.86 E47.74475
G0 F7200 X58.82 Y55.426
G1 F1800 X44.575 Y41.18 E47.87107
G0 F7200 X44.009 Y41.18
G1 F1800 X58.82 Y55.992 E48.00241
G0 F7200 X58.82 Y56.557
G1 F1800 X43.443 Y41.18 E48.13876
G0 F7200 X42.878 Y41.18
G1 F1800 X58.82 Y57.123 E48.28013
G0 F7200 X58.82 Y57.689
G1 F1800 X42.312 Y41.18 E48.42652
G0 F7200 X41.746 Y41.18
G1 F1800 X58.82 Y58.254 E48.57792
G0 F7200 X58.82 Y58.82
G1 F1800 X41.18 Y41.18 E48.73434
G0 F7200 X41.18 Y41.745
G1 F1800 X58.254 Y58.82 E48.88574
G0 F7200 X57.689 Y58.82
G1 F1800 X41.18 Y42.311 E49.03214
G0 F7200 X41.18 Y42.877
G1 F1800 X57.123 Y58.82 E49.17351
G0 F7200 X56.557 Y58.82
G1 F1800 X41.18 Y43.443 E49.30986
G0 F7200 X41.18 Y44.008
G1 F1800 X55.992 Y58.82 E49.44121
G0 F7200 X55.426 Y58.82
G1 F1800 X41.18 Y44.574 E49.56753
G0 F7200 X41.18 Y45.14
G1 F1800 X54.86 Y58.82 E49.68884
G0 F7200 X54.294 Y58.82
G1 F1800 X41.18 Y45.705 E49.80513
G0 F7200 X41.18 Y46.271
G1 F1800 X53.729 Y58.82 E49.9164
G0 F7200 X53.163 Y58.82
G1 F1800 X41.18 Y46.837 E50.02266
G0 F7200 X41.18 Y47.402
G1 F1800 X52.597 Y58.82 E50.1239
G0 F7200 X52.032 Y58.82
G1 F1800 X41.18 Y47.968 E50.22013
G0 F7200 X41.18 Y48.534
G1 F1800 X51.466 Y58.82 E50.31134
G0 F7200 X50.9 Y58.82
G1 F1800 X41.18 Y49.099 E50.39754
G0 F7200 X41.18 Y49.665
G1 F1800 X50.335 Y58.82 E50.47872
G0 F7200 X49.769 Y58.82
G1 F1800 X41.18 Y50.231 E50.55488
G0 F7200 X41.18 Y50.796
G1 F1800 X49.203 Y58.82 E50.62603
G0 F7200 X48.638 Y58.82
G1 F1800 X41.18 Y51.362 E50.69216
G0 F7200 X41.18 Y51.928
G1 F1800 X48.072 Y58.82 E50.75328
G0 F7200 X47.506 Y58.82
G1 F1800 X41.18 Y52.493 E50.80938
G0 F7200 X41.18 Y53.059
G1 F1800 X46.941 Y58.82 E50.86046
G0 F7200 X46.375 Y58.82
G1 F1800 X41.18 Y53.625 E50.90653
G0 F7200 X41.18 Y54.191
G1 F1800 X45.809 Y58.82 E50.94757
G0 F7200 X45.244 Y58.82
G1 F1800 X41.18 Y54.756 E50.98361
G0 F7200 X41.18 Y55.322
G1 F1800 X44.678 Y58.82 E51.01463
G0 F7200 X44.112 Y58.82
G1 F1800 X41.18 Y55.888 E51.04063
G0 F7200 X41.18 Y56.453
G1 F1800 X43.546 Y58.82 E51.06161
G0 F7200 X42.981 Y58.82
G1 F1800 X41.18 Y57.019 E51.07758
G0 F7200 X41.18 Y57.585
G1 F1800 X42.415 Y58.82 E51.08853
G0 F7200 X41.849 Y58.82
G1 F1800 X41.18 Y58.15 E51.09447
G0 F7200 X41.18 Y58.716
G1 F1800 X41.284 Y58.82 E51.09539
G0 F7200 X41.284 Y58.79
;MESH:NONMESH
G0 F600 X41.284 Y58.79 Z0.8
G0 F7200 X59.12 Y59.12
G0 X59.4 Y59.4
;TIME_ELAPSED:195.399726
;LAYER:5
;TYPE:WALL-INNER
;MESH:20mm cube.stl
G1 F3600 X59.4 Y40.6 E51.21327
G1 X40.6 Y40.6 E51.33115
G1 X40.6 Y59.4 E51.44903
G1 X59.4 Y59.4 E51.56691
G0 F7200 X59.8 Y59.8
;TYPE:WALL-OUTER
G1 F1800 X59.8 Y40.2 E51.68981
G1 X40.2 Y40.2 E51.8127
G1 X40.2 Y59.8 E51.9356
G1 X59.8 Y59.8 E52.05849
G0 F7200 X59.8 Y59.6
G0 X59.02 Y59.02
;TYPE:SKIN
G1 F1800 X40.98 Y59.02 E52.17161
G1 X40.98 Y40.98 E52.28472
G1 X59.02 Y40.98 E52.39784
G1 X59.02 Y59.02 E52.51095
G0 F7200 X58.277 Y58.82
G1 F1800 X58.82 Y58.277 E52.51576
G0 F7200 X58.82 Y57.711
G1 F1800 X57.711 Y58.82 E52.5256
G0 F7200 X57.146 Y58.82
G1 F1800 X58.82 Y57.146 E52.54044
G0 F7200 X58.82 Y56.58
G1 F1800 X56.58 Y58.82 E52.56031
G0 F7200 X56.014 Y58.82
G1 F1800 X58.82 Y56.014 E52.58519
G0 F7200 X58.82 Y55.448
G1 F1800 X55.448 Y58.82 E52.61509
G0 F7200 X54.883 Y58.82
G1 F1800 X58.82 Y54.883 E52.65
G0 F7200 X58.82 Y54.317
G1 F1800 X54.317 Y58.82 E52.68993
G0 F7200 X53.751 Y58.82
G1 F1800 X58.82 Y53.751 E52.73488
G0 F7200 X58.82 Y53.186
G1 F1800 X53.186 Y58.82 E52.78484
G0 F7200 X52.62 Y58.82
G1 F1800 X58.82 Y52.62 E52.83981
G0 F7200 X58.82 Y52.054
G1 F1800 X52.054 Y58.82 E52.89981
G0 F7200 X51.489 Y58.82
G1 F1800 X58.82 Y51.489 E52.96482
G0 F7200 X58.82 Y50.923
G1 F1800 X50.923 Y58.82 E53.03484
G0 F7200 X50.357 Y58.82
G1 F1800 X58.82 Y50.357 E53.10989
G0 F7200 X58.82 Y49.792
G1 F1800 X49.792 Y58.82 E53.18994
G0 F7200 X49.226 Y58.82
G1 F1800 X58.82 Y49.226 E53.27502
G0 F7200 X58.82 Y48.66
G1 F1800 X48.66 Y58.82 E53.36511
G0 F7200 X48.095 Y58.82
G1 F1800 X58.82 Y48.095 E53.46021
G0 F7200 X58.82 Y47.529
G1 F1800 X47.529 Y58.82 E53.56033
G0 F7200 X46.963 Y58.82
G1 F1800 X58.82 Y46.963 E53.66547
G0 F7200 X58.82 Y46.398
G1 F1800 X46.398 Y58.82 E53.77562
G0 F7200 X45.832 Y58.82
G1 F1800 X58.82 Y45.832 E53.89079
G0 F7200 X58.82 Y45.266
G1 F1800 X45.266 Y58.82 E54.01098
G0 F7200 X44.7 Y58.82
G1 F1800 X58.82 Y44.7 E54.13619
G0 F7200 X58.82 Y44.135
G1 F1800 X44.135 Y58.82 E54.26641
G0 F7200 X43.569 Y58.82
G1 F1800 X58.82 Y43.569 E54.40164
G0 F7200 X58.82 Y43.003
G1 F1800 X43.003 Y58.82 E54.5419
G0 F7200 X42.438 Y58.82
G1 F1800 X58.82 Y42.438 E54.68716
G0 F7200 X58.82 Y41.872
G1 F1800 X41.872 Y58.82 E54.83745
G0 F7200 X41.306 Y58.82
G1 F1800 X58.82 Y41.306 E54.99275
G0 F7200 X58.381 Y41.18
G1 F1800 X41.18 Y58.38 E55.14528
G0 F7200 X41.18 Y57.814
G1 F1800 X57.815 Y41.18 E55.29278
G0 F7200 X57.249 Y41.18
G1 F1800 X41.18 Y57.249 E55.43527
G0 F7200 X41.18 Y56.683
G1 F1800 X56.684 Y41.18 E55.57275
G0 F7200 X56.118 Y41.18
G1 F1800 X41.18 Y56.117 E55.7052
G0 F7200 X41.18 Y55.552
G1 F1800 X55.552 Y41.18 E55.83264
G0 F7200 X54.987 Y41.18
G1 F1800 X41.18 Y54.986 E55.95507
G0 F7200 X41.18 Y54.42
G1 F1800 X54.421 Y41.18 E56.07248
G0 F7200 X53.855 Y41.18
G1 F1800 X41.18 Y53.855 E56.18487
G0 F7200 X41.18 Y53.289
G1 F1800 X53.29 Y41.18 E56.29225
G0 F7200 X52.724 Y41.18
G1 F1800 X41.18 Y52.723 E56.39461
G0 F7200 X41.18 Y52.158
G1 F1800 X52.158 Y41.18 E56.49196
G0 F7200 X51.593 Y41.18
G1 F1800 X41.18 Y51.592 E56.58429
G0 F7200 X41.18 Y51.026
G1 F1800 X51.027 Y41.18 E56.67161
G0 F7200 X50.461 Y41.18
G1 F1800 X41.18 Y50.461 E56.7539
G0 F7200 X41.18 Y49.895
G1 F1800 X49.896 Y41.18 E56.83119
G0 F7200 X49.33 Y41.18
G1 F1800 X41.18 Y49.329 E56.90345
G0 F7200 X41.18 Y48.763
G1 F1800 X48.764 Y41.18 E56.9707
G0 F7200 X48.199 Y41.18
G1 F1800 X41.18 Y48.198 E57.03293
G0 F7200 X41.18 Y47.632
G1 F1800 X47.633 Y41.18 E57.09015
G0 F7200 X47.067 Y41.18
G1 F1800 X41.18 Y47.066 E57.14235
G0 F7200 X41.18 Y46.501
G1 F1800 X46.501 Y41.18 E57.18953
G0 F7200 X45.936 Y41.18
G1 F1800 X41.18 Y45.935 E57.2317
G0 F7200 X41.18 Y45.369
G1 F1800 X45.37 Y41.18 E57.26885
G0 F7200 X44.804 Y41.18
G1 F1800 X41.18 Y44.804 E57.30099
G0 F7200 X41.18 Y44.238
G1 F1800 X44.239 Y41.18 E57.32811
G0 F7200 X43.673 Y41.18
G1 F1800 X41.18 Y43.672 E57.35021
G0 F7200 X41.18 Y43.107
G1 F1800 X43.107 Y41.18 E57.3673
G0 F7200 X42.542 Y41.18
G1 F1800 X41.18 Y42.541 E57.37937
G0 F7200 X41.18 Y41.975
G1 F1800 X41.976 Y41.18 E57.38642
G0 F7200 X41.41 Y41.18
G1 F1800 X41.18 Y41.41 E57.38846
G0 F7200 X41.21 Y41.41
;MESH:NONMESH
G0 F600 X41.21 Y41.41 Z0.9
G0 F7200 X59.12 Y59.12
G0 X59.4 Y59.4
;TIME_ELAPSED:229.335090
;LAYER:6
;TYPE:WALL-INNER
;MESH:20mm cube.stl
G1 F3600 X59.4 Y40.6 E57.50634
G1 X40.6 Y40.6 E57.62422
G1 X40.6 Y59.4 E57.7421
G1 X59.4 Y59.4 E57.85998
G0 F7200 X59.8 Y59.8
;TYPE:WALL-OUTER
G1 F1800 X59.8 Y40.2 E57.98288
G1 X40.2 Y40.2 E58.10577
G1 X40.2 Y59.8 E58.22867
G1 X59.8 Y59.8 E58.35156
G0 F7200 X59.8 Y59.6
G0 X59.02 Y59.02
;TYPE:SKIN
G1 F1800 X40.98 Y59.02 E58.46468
G1 X40.98 Y40.98 E58.57779
G1 X59.02 Y40.98 E58.6909
G1 X59.02 Y59.02 E58.80402
G0 F7200 X58.717 Y41.18
G1 F1800 X58.82 Y41.284 E58.80494
G0 F7200 X58.82 Y41.849
G1 F1800 X58.151 Y41.18 E58.81087
G0 F7200 X57.585 Y41.18
G1 F1800 X58.82 Y42.415 E58.82182
G0 F7200 X58.82 Y42.981
G1 F1800 X57.02 Y41.18 E58.83779
G0 F7200 X56.454 Y41.18
G1 F1800 X58.82 Y43.546 E58.85877
G0 F7200 X58.82 Y44.112
G1 F1800 X55.888 Y41.18 E58.88477
G0 F7200 X55.323 Y41.18
G1 F1800 X58.82 Y44.678 E58.91578
G0 F7200 X58.82 Y45.244
G1 F1800 X54.757 Y41.18 E58.95181
G0 F7200 X54.191 Y41.18
G1 F1800 X58.82 Y45.809 E58.99286
G0 F7200 X58.82 Y46.375
G1 F1800 X53.626 Y41.18 E59.03892
G0 F7200 X53.06 Y41.18
G1 F1800 X58.82 Y46.941 E59.09
G0 F7200 X58.82 Y47.506
G1 F1800 X52.494 Y41.18 E59.1461
G0 F7200 X51.929 Y41.18
G1 F1800 X58.82 Y48.072 E59.20721
G0 F7200 X58.82 Y48.638
G1 F1800 X51.363 Y41.18 E59.27333
G0 F7200 X50.797 Y41.18
G1 F1800 X58.82 Y49.203 E59.34448
G0 F7200 X58.82 Y49.769
G1 F1800 X50.231 Y41.18 E59.42064
G0 F7200 X49.666 Y41.18
G1 F1800 X58.82 Y50.335 E59.50182
G0 F7200 X58.82 Y50.9
G1 F1800 X49.1 Y41.18 E59.58801
G0 F7200 X48.534 Y41.18
G1 F1800 X58.82 Y51.466 E59.67922
G0 F7200 X58.82 Y52.032
G1 F1800 X47.969 Y41.18 E59.77544
G0 F7200 X47.403 Y41.18
G1 F1800 X58.82 Y52.597 E59.87668
G0 F7200 X58.82 Y53.163
G1 F1800 X46.837 Y41.18 E59.98294
G0 F7200 X46.272 Y41.18
G1 F1800 X58.82 Y53.729 E60.09421
G0 F7200 X58.82 Y54.294
G1 F1800 X45.706 Y41.18 E60.2105
G0 F7200 X45.14 Y41.18
G1 F1800 X58.82 Y54.86 E60.3318
G0 F7200 X58.82 Y55.426
G1 F1800 X44.575 Y41.18 E60.45812
G0 F7200 X44.009 Y41.18
G1 F1800 X58.82 Y55.992 E60.58946
G0 F7200 X58.82 Y56.557
G1 F1800 X43.443 Y41.18 E60.72582
G0 F7200 X42.878 Y41.18
G1 F1800 X58.82 Y57.123 E60.86718
G0 F7200 X58.82 Y57.689
G1 F1800 X42.312 Y41.18 E61.01357
G0 F7200 X41.746 Y41.18
G1 F1800 X58.82 Y58.254 E61.16497
G0 F7200 X58.82 Y58.82
G1 F1800 X41.18 Y41.18 E61.32139
G0 F7200 X41.18 Y41.745
G1 F1800 X58.254 Y58.82 E61.4728
G0 F7200 X57.689 Y58.82
G1 F1800 X41.18 Y42.311 E61.61919
G0 F7200 X41.18 Y42.877
G1 F1800 X57.123 Y58.82 E61.76056
G0 F7200 X56.557 Y58.82
G1 F1800 X41.18 Y43.443 E61.89692
G0 F7200 X41.18 Y44.008
G1 F1800 X55.992 Y58.82 E62.02826
G0 F7200 X55.426 Y58.82
G1 F1800 X41.18 Y44.574 E62.15459
G0 F7200 X41.18 Y45.14
G1 F1800 X54.86 Y58.82 E62.27589
G0 F7200 X54.294 Y58.82
G1 F1800 X41.18 Y45.705 E62.39218
G0 F7200 X41.18 Y46.271
G1 F1800 X53.729 Y58.82 E62.50346
G0 F7200 X53.163 Y58.82
G1 F1800 X41.18 Y46.837 E62.60972
G0 F7200 X41.18 Y47.402
G1 F1800 X52.597 Y58.82 E62.71096
G0 F7200 X52.032 Y58.82
G1 F1800 X41.18 Y47.968 E62.80719
G0 F7200 X41.18 Y48.534
G1 F1800 X51.466 Y58.82 E62.8984
G0 F7200 X50.9 Y58.82
G1 F1800 X41.18 Y49.099 E62.98459
G0 F7200 X41.18 Y49.665
G1 F1800 X50.335 Y58.82 E63.06578
G0 F7200 X49.769 Y58.82
G1 F1800 X41.18 Y50.231 E63.14194
G0 F7200 X41.18 Y50.796
G1 F1800 X49.203 Y58.82 E63.21309
G0 F7200 X48.638 Y58.82
G1 F1800 X41.18 Y51.362 E63.27922
G0 F7200 X41.18 Y51.928
G1 F1800 X48.072 Y58.82 E63.34033
G0 F7200 X47.506 Y58.82
G1 F1800 X41.18 Y52.493 E63.39643
G0 F7200 X41.18 Y53.059
G1 F1800 X46.941 Y58.82 E63.44752
G0 F7200 X46.375 Y58.82
G1 F1800 X41.18 Y53.625 E63.49358
G0 F7200 X41.18 Y54.191
G1 F1800 X45.809 Y58.82 E63.53463
G0 F7200 X45.244 Y58.82
G1 F1800 X41.18 Y54.756 E63.57067
G0 F7200 X41.18 Y55.322
G1 F1800 X44.678 Y58.82 E63.60168
G0 F7200 X44.112 Y58.82
G1 F1800 X41.18 Y55.888 E63.62768
G0 F7200 X41.18 Y56.453
G1 F1800 X43.546 Y58.82 E63.64867
G0 F7200 X42.981 Y58.82
G1 F1800 X41.18 Y57.019 E63.66464
G0 F7200 X41.18 Y57.585
G1 F1800 X42.415 Y58.82 E63.67559
G0 F7200 X41.849 Y58.82
G1 F1800 X41.18 Y58.15 E63.68153
G0 F7200 X41.18 Y58.716
G1 F1800 X41.284 Y58.82 E63.68245
G0 F7200 X41.284 Y58.79
;MESH:NONMESH
G0 F600 X41.284 Y58.79 Z1
G0 F7200 X59.12 Y59.12
G0 X59.4 Y59.4
;TIME_ELAPSED:263.394993
;LAYER:7
;TYPE:WALL-INNER
;MESH:20mm cube.stl
G1 F3600 X59.4 Y40.6 E63.80033
G1 X40.6 Y40.6 E63.91821
G1 X40.6 Y59.4 E64.03609
G1 X59.4 Y59.4 E64.15397
G0 F7200 X59.8 Y59.8
;TYPE:WALL-OUTER
G1 F1800 X59.8 Y40.2 E64.27686
G1 X40.2 Y40.2 E64.39976
G1 X40.2 Y59.8 E64.52265
G1 X59.8 Y59.8 E64.64555
G0 F7200 X59.8 Y59.6
G0 X59.02 Y59.02
;TYPE:SKIN
G1 F1800 X40.98 Y59.02 E64.75866
G1 X40.98 Y40.98 E64.87178
G1 X59.02 Y40.98 E64.98489
G1 X59.02 Y59.02 E65.09801
G0 F7200 X58.277 Y58.82
G1 F1800 X58.82 Y58.277 E65.10282
G0 F7200 X58.82 Y57.711
G1 F1800 X57.711 Y58.82 E65.11265
G0 F7200 X57.146 Y58.82
G1 F1800 X58.82 Y57.146 E65.1275
G0 F7200 X58.82 Y56.58
G1 F1800 X56.58 Y58.82 E65.14736
G0 F7200 X56.014 Y58.82
G1 F1800 X58.82 Y56.014 E65.17224
G0 F7200 X58.82 Y55.448
G1 F1800 X55.448 Y58.82 E65.20214
G0 F7200 X54.883 Y58.82
G1 F1800 X58.82 Y54.883 E65.23706
G0 F7200 X58.82 Y54.317
G1 F1800 X54.317 Y58.82 E65.27699
G0 F7200 X53.751 Y58.82
G1 F1800 X58.82 Y53.751 E65.32193
G0 F7200 X58.82 Y53.186
G1 F1800 X53.186 Y58.82 E65.37189
G0 F7200 X52.62 Y58.82
G1 F1800 X58.82 Y52.62 E65.42687
G0 F7200 X58.82 Y52.054
G1 F1800 X52.054 Y58.82 E65.48687
G0 F7200 X51.489 Y58.82
G1 F1800 X58.82 Y51.489 E65.55187
G0 F7200 X58.82 Y50.923
G1 F1800 X50.923 Y58.82 E65.6219
G0 F7200 X50.357 Y58.82
G1 F1800 X58.82 Y50.357 E65.69694
G0 F7200 X58.82 Y49.792
G1 F1800 X49.792 Y58.82 E65.777
G0 F7200 X49.226 Y58.82
G1 F1800 X58.82 Y49.226 E65.86207
G0 F7200 X58.82 Y48.66
G1 F1800 X48.66 Y58.82 E65.95217
G0 F7200 X48.095 Y58.82
G1 F1800 X58.82 Y48.095 E66.04727
G0 F7200 X58.82 Y47.529
G1 F1800 X47.529 Y58.82 E66.14739
G0 F7200 X46.963 Y58.82
G1 F1800 X58.82 Y46.963 E66.25253
G0 F7200 X58.82 Y46.398
G1 F1800 X46.398 Y58.82 E66.36268
G0 F7200 X45.832 Y58.82
G1 F1800 X58.82 Y45.832 E66.47785
G0 F7200 X58.82 Y45.266
G1 F1800 X45.266 Y58.82 E66.59804
G0 F7200 X44.7 Y58.82
G1 F1800 X58.82 Y44.7 E66.72325
G0 F7200 X58.82 Y44.135
G1 F1800 X44.135 Y58.82 E66.85346
G0 F7200 X43.569 Y58.82
G1 F1800 X58.82 Y43.569 E66.9887
G0 F7200 X58.82 Y43.003
G1 F1800 X43.003 Y58.82 E67.12896
G0 F7200 X42.438 Y58.82
G1 F1800 X58.82 Y42.438 E67.27422
G0 F7200 X58.82 Y41.872
G1 F1800 X41.872 Y58.82 E67.42451
G0 F7200 X41.306 Y58.82
G1 F1800 X58.82 Y41.306 E67.57981
G0 F7200 X58.381 Y41.18
G1 F1800 X41.18 Y58.38 E67.73233
G0 F7200 X41.18 Y57.814
G1 F1800 X57.815 Y41.18 E67.87984
G0 F7200 X57.249 Y41.18
G1 F1800 X41.18 Y57.249 E68.02233
G0 F7200 X41.18 Y56.683
G1 F1800 X56.684 Y41.18 E68.1598
G0 F7200 X56.118 Y41.18
G1 F1800 X41.18 Y56.117 E68.29226
G0 F7200 X41.18 Y55.552
G1 F1800 X55.552 Y41.18 E68.4197
G0 F7200 X54.987 Y41.18
G1 F1800 X41.18 Y54.986 E68.54213
G0 F7200 X41.18 Y54.42
G1 F1800 X54.421 Y41.18 E68.65954
G0 F7200 X53.855 Y41.18
G1 F1800 X41.18 Y53.855 E68.77193
G0 F7200 X41.18 Y53.289
G1 F1800 X53.29 Y41.18 E68.87931
G0 F7200 X52.724 Y41.18
G1 F1800 X41.18 Y52.723 E68.98167
G0 F7200 X41.18 Y52.158
G1 F1800 X52.158 Y41.18 E69.07902
G0 F7200 X51.593 Y41.18
G1 F1800 X41.18 Y51.592 E69.17135
G0 F7200 X41.18 Y51.026
G1 F1800 X51.027 Y41.18 E69.25866
G0 F7200 X50.461 Y41.18
G1 F1800 X41.18 Y50.461 E69.34096
G0 F7200 X41.18 Y49.895
G1 F1800 X49.896 Y41.18 E69.41824
G0 F7200 X49.33 Y41.18
G1 F1800 X41.18 Y49.329 E69.49051
G0 F7200 X41.18 Y48.763
G1 F1800 X48.764 Y41.18 E69.55775
G0 F7200 X48.199 Y41.18
G1 F1800 X41.18 Y48.198 E69.61999
G0 F7200 X41.18 Y47.632
G1 F1800 X47.633 Y41.18 E69.67721
G0 F7200 X47.067 Y41.18
G1 F1800 X41.18 Y47.066 E69.7294
G0 F7200 X41.18 Y46.501
G1 F1800 X46.501 Y41.18 E69.77659
G0 F7200 X45.936 Y41.18
G1 F1800 X41.18 Y45.935 E69.81876
G0 F7200 X41.18 Y45.369
G1 F1800 X45.37 Y41.18 E69.85591
G0 F7200 X44.804 Y41.18
G1 F1800 X41.18 Y44.804 E69.88804
G0 F7200 X41.18 Y44.238
G1 F1800 X44.239 Y41.18 E69.91516
G0 F7200 X43.673 Y41.18
G1 F1800 X41.18 Y43.672 E69.93726
G0 F7200 X41.18 Y43.107
G1 F1800 X43.107 Y41.18 E69.95435
G0 F7200 X42.542 Y41.18
G1 F1800 X41.18 Y42.541 E69.96642
G0 F7200 X41.18 Y41.975
G1 F1800 X41.976 Y41.18 E69.97348
G0 F7200 X41.41 Y41.18
G1 F1800 X41.18 Y41.41 E69.97552
G0 F7200 X41.21 Y41.41
;MESH:NONMESH
G0 F600 X41.21 Y41.41 Z1.1
G0 F7200 X40.76 Y40.76
;TIME_ELAPSED:297.115302
;LAYER:8
;TYPE:FILL
;MESH:20mm cube.stl
G1 F3600 X59.24 Y59.24 E70.13939
G1 X59.31 Y59.31
G0 F7200 X59.12 Y59.12
G0 X57.73 Y59.09
G0 X57.73 Y59.24
G1 F3600 X59.24 Y57.73 E70.15278
G1 X59.31 Y57.66
G0 F7200 X59.09 Y57.66
G0 X59.09 Y53.583
G0 X59.24 Y53.583
G1 F3600 X46.417 Y40.76 E70.26648
G1 X46.347 Y40.69
G0 F7200 X46.347 Y40.91
G0 X47.926 Y40.91
G0 X47.926 Y40.76
G1 F3600 X40.76 Y47.925 E70.33002
G1 X40.69 Y47.995
G0 F7200 X40.91 Y47.995
G0 X40.91 Y46.417
G0 X40.76 Y46.417
G1 F3600 X53.583 Y59.24 E70.44373
G1 X53.653 Y59.31
G0 F7200 X53.653 Y59.09
G0 X52.073 Y59.09
G0 X52.073 Y59.24
G1 F3600 X59.24 Y52.073 E70.50728
G1 X59.31 Y52.003
G0 F7200 X59.09 Y52.003
G0 X59.09 Y47.926
G0 X59.24 Y47.926
G1 F3600 X52.074 Y40.76 E70.57083
G1 X52.004 Y40.69
G0 F7200 X52.004 Y40.91
G0 X53.582 Y40.91
G0 X53.582 Y40.76
G1 F3600 X40.76 Y53.582 E70.68452
G1 X40.69 Y53.652
G0 F7200 X40.91 Y53.652
G0 X40.91 Y52.073
G0 X40.76 Y52.073
G1 F3600 X47.926 Y59.24 E70.74807
G1 X47.996 Y59.31
G0 F7200 X47.996 Y59.09
G0 X46.416 Y59.09
G0 X46.416 Y59.24
G1 F3600 X59.24 Y46.416 E70.86179
G1 X59.31 Y46.346
G0 F7200 X59.09 Y46.346
G0 X59.09 Y42.269
G0 X59.24 Y42.269
G1 F3600 X57.731 Y40.76 E70.87517
G1 X57.661 Y40.69
G0 F7200 X57.661 Y40.91
G0 X59.12 Y40.88
G0 X59.239 Y40.76
G1 F3600 X40.76 Y59.239 E71.03903
G1 X40.69 Y59.309
G0 F7200 X40.88 Y59.12
G0 X40.91 Y57.73
G0 X40.76 Y57.73
G1 F3600 X42.269 Y59.24 E71.05241
G1 X42.339 Y59.31
G0 F7200 X42.339 Y59.09
G0 X40.91 Y42.268
G0 X40.76 Y42.268
G1 F3600 X42.269 Y40.76 E71.06579
G1 X42.339 Y40.69
G0 F7200 X42.339 Y40.91
G0 X59.12 Y59.12
G0 X59.4 Y59.4
;TYPE:WALL-INNER
G1 F3600 X59.4 Y40.6 E71.18367
G1 X40.6 Y40.6 E71.30155
G1 X40.6 Y59.4 E71.41943
G1 X59.4 Y59.4 E71.53731
G0 F7200 X59.8 Y59.8
;TYPE:WALL-OUTER
G1 F1800 X59.8 Y40.2 E71.6602
G1 X40.2 Y40.2 E71.7831
G1 X40.2 Y59.8 E71.90599
G1 X59.8 Y59.8 E72.02889
G0 F7200 X59.8 Y59.6
G0 X58.79 Y58.908
;MESH:NONMESH
G0 F600 X58.79 Y58.908 Z1.2
G0 F7200 X40.88 Y40.88
G0 X40.76 Y40.76
;TIME_ELAPSED:305.509500
;LAYER:9
;TYPE:FILL
;MESH:20mm cube.stl
G1 F3600 X59.24 Y59.24 E72.19276
G1 X59.31 Y59.31
G0 F7200 X59.12 Y59.12
G0 X57.73 Y59.09
G0 X57.73 Y59.24
G1 F3600 X59.24 Y57.73 E72.20615
G1 X59.31 Y57.66
G0 F7200 X59.09 Y57.66
G0 X59.09 Y53.583
G0 X59.24 Y53.583
G1 F3600 X46.417 Y40.76 E72.31985
G1 X46.347 Y40.69
G0 F7200 X46.347 Y40.91
G0 X47.926 Y40.91
G0 X47.926 Y40.76
G1 F3600 X40.76 Y47.925 E72.38339
G1 X40.69 Y47.995
G0 F7200 X40.91 Y47.995
G0 X40.91 Y46.417
G0 X40.76 Y46.417
G1 F3600 X53.583 Y59.24 E72.4971
G1 X53.653 Y59.31
G0 F7200 X53.653 Y59.09
G0 X52.073 Y59.09
G0 X52.073 Y59.24
G1 F3600 X59.24 Y52.073 E72.56065
G1 X59.31 Y52.003
G0 F7200 X59.09 Y52.003
G0 X59.09 Y47.926
G0 X59.24 Y47.926
G1 F3600 X52.074 Y40.76 E72.6242
G1 X52.004 Y40.69
G0 F7200 X52.004 Y40.91
G0 X53.582 Y40.91
G0 X53.582 Y40.76
G1 F3600 X40.76 Y53.582 E72.73789
G1 X40.69 Y53.652
G0 F7200 X40.91 Y53.652
G0 X40.91 Y52.073
G0 X40.76 Y52.073
G1 F3600 X47.926 Y59.24 E72.80144
G1 X47.996 Y59.31
G0 F7200 X47.996 Y59.09
G0 X46.416 Y59.09
G0 X46.416 Y59.24
G1 F3600 X59.24 Y46.416 E72.91516
G1 X59.31 Y46.346
G0 F7200 X59.09 Y46.346
G0 X59.09 Y42.269
G0 X59.24 Y42.269
G1 F3600 X57.731 Y40.76 E72.92854
G1 X57.661 Y40.69
G0 F7200 X57.661 Y40.91
G0 X59.12 Y40.88
G0 X59.239 Y40.76
G1 F3600 X40.76 Y59.239 E73.0924
G1 X40.69 Y59.309
G0 F7200 X40.88 Y59.12
G0 X40.91 Y57.73
G0 X40.76 Y57.73
G1 F3600 X42.269 Y59.24 E73.10578
G1 X42.339 Y59.31
G0 F7200 X42.339 Y59.09
G0 X40.91 Y42.268
G0 X40.76 Y42.268
G1 F3600 X42.269 Y40.76 E73.11916
G1 X42.339 Y40.69
G0 F7200 X42.339 Y40.91
G0 X59.12 Y59.12
G0 X59.4 Y59.4
;TYPE:WALL-INNER
G1 F3600 X59.4 Y40.6 E73.23704
G1 X40.6 Y40.6 E73.35492
G1 X40.6 Y59.4 E73.4728
G1 X59.4 Y59.4 E73.59068
G0 F7200 X59.8 Y59.8
;TYPE:WALL-OUTER
G1 F1800 X59.8 Y40.2 E73.71357
G1 X40.2 Y40.2 E73.83647
G1 X40.2 Y59.8 E73.95937
G1 X59.8 Y59.8 E74.08226
G0 F7200 X59.8 Y59.6
G0 X58.79 Y58.908
;MESH:NONMESH
G0 F600 X58.79 Y58.908 Z1.3
G0 F7200 X40.88 Y40.88
G0 X40.76 Y40.76
;TIME_ELAPSED:313.903697
;LAYER:10
;TYPE:FILL
;MESH:20mm cube.stl
G1 F3600 X59.24 Y59.24 E74.24613
G1 X59.31 Y59.31
G0 F7200 X59.12 Y59.12
G0 X57.73 Y59.09
G0 X57.73 Y59.24
G1 F3600 X59.24 Y57.73 E74.25952
G1 X59.31 Y57.66
G0 F7200 X59.09 Y57.66
G0 X59.09 Y53.583
G0 X59.24 Y53.583
G1 F3600 X46.417 Y40.76 E74.37323
G1 X46.347 Y40.69
G0 F7200 X46.347 Y40.91
G0 X47.926 Y40.91
G0 X47.926 Y40.76
G1 F3600 X40.76 Y47.925 E74.43677
G1 X40.69 Y47.995
G0 F7200 X40.91 Y47.995
G0 X40.91 Y46.417
G0 X40.76 Y46.417
G1 F3600 X53.583 Y59.24 E74.55047
G1 X53.653 Y59.31
G0 F7200 X53.653 Y59.09
G0 X52.073 Y59.09
G0 X52.073 Y59.24
G1 F3600 X59.24 Y52.073 E74.61402
G1 X59.31 Y52.003
G0 F7200 X59.09 Y52.003
G0 X59.09 Y47.926
G0 X59.24 Y47.926
G1 F3600 X52.074 Y40.76 E74.67757
G1 X52.004 Y40.69
G0 F7200 X52.004 Y40.91
G0 X53.582 Y40.91
G0 X53.582 Y40.76
G1 F3600 X40.76 Y53.582 E74.79127
G1 X40.69 Y53.652
G0 F7200 X40.91 Y53.652
G0 X40.91 Y52.073
G0 X40.76 Y52.073
G1 F3600 X47.926 Y59.24 E74.85481
G1 X47.996 Y59.31
G0 F7200 X47.996 Y59.09
G0 X46.416 Y59.09
G0 X46.416 Y59.24
G1 F3600 X59.24 Y46.416 E74.96853
G1 X59.31 Y46.346
G0 F7200 X59.09 Y46.346
G0 X59.09 Y42.269
G0 X59.24 Y42.269
G1 F3600 X57.731 Y40.76 E74.98191
G1 X57.661 Y40.69
G0 F7200 X57.661 Y40.91
G0 X59.12 Y40.88
G0 X59.239 Y40.76
G1 F3600 X40.76 Y59.239 E75.14577
G1 X40.69 Y59.309
G0 F7200 X40.88 Y59.12
G0 X40.91 Y57.73
G0 X40.76 Y57.73
G1 F3600 X42.269 Y59.24 E75.15916
G1 X42.339 Y59.31
G0 F7200 X42.339 Y59.09
G0 X40.91 Y42.268
G0 X40.76 Y42.268
G1 F3600 X42.269 Y40.76 E75.17253
G1 X42.339 Y40.69
G0 F7200 X42.339 Y40.91
G0 X59.12 Y59.12
G0 X59.4 Y59.4
;TYPE:WALL-INNER
G1 F3600 X59.4 Y40.6 E75.29041
G1 X40.6 Y40.6 E75.40829
G1 X40.6 Y59.4 E75.52617
G1 X59.4 Y59.4 E75.64405
G0 F7200 X59.8 Y59.8
;TYPE:WALL-OUTER
G1 F1800 X59.8 Y40.2 E75.76695
G1 X40.2 Y40.2 E75.88984
G1 X40.2 Y59.8 E76.01274
G1 X59.8 Y59.8 E76.13563
G0 F7200 X59.8 Y59.6
G0 X58.79 Y58.908
;MESH:NONMESH
G0 F600 X58.79 Y58.908 Z1.4
G0 F7200 X40.88 Y40.88
G0 X40.76 Y40.76
;TIME_ELAPSED:322.297895
;LAYER:11
;TYPE:FILL
;MESH:20mm cube.stl
G1 F3600 X59.24 Y59.24 E76.2995
G1 X59.31 Y59.31
G0 F7200 X59.12 Y59.12
G0 X57.73 Y59.09
G0 X57.73 Y59.24
G1 F3600 X59.24 Y57.73 E76.31289
G1 X59.31 Y57.66
G0 F7200 X59.09 Y57.66
G0 X59.09 Y53.583
G0 X59.24 Y53.583
G1 F3600 X46.417 Y40.76 E76.4266
G1 X46.347 Y40.69
G0 F7200 X46.347 Y40.91
G0 X47.926 Y40.91
G0 X47.926 Y40.76
G1 F3600 X40.76 Y47.925 E76.49014
G1 X40.69 Y47.995
G0 F7200 X40.91 Y47.995
G0 X40.91 Y46.417
G0 X40.76 Y46.417
G1 F3600 X53.583 Y59.24 E76.60384
G1 X53.653 Y59.31
G0 F7200 X53.653 Y59.09
G0 X52.073 Y59.09
G0 X52.073 Y59.24
G1 F3600 X59.24 Y52.073 E76.6674
G1 X59.31 Y52.003
G0 F7200 X59.09 Y52.003
G0 X59.09 Y47.926
G0 X59.24 Y47.926
G1 F3600 X52.074 Y40.76 E76.73094
G1 X52.004 Y40.69
G0 F7200 X52.004 Y40.91
G0 X53.582 Y40.91
G0 X53.582 Y40.76
G1 F3600 X40.76 Y53.582 E76.84464
G1 X40.69 Y53.652
G0 F7200 X40.91 Y53.652
G0 X40.91 Y52.073
G0 X40.76 Y52.073
G1 F3600 X47.926 Y59.24 E76.90819
G1 X47.996 Y59.31
G0 F7200 X47.996 Y59.09
G0 X46.416 Y59.09
G0 X46.416 Y59.24
G1 F3600 X59.24 Y46.416 E77.0219
G1 X59.31 Y46.346
G0 F7200 X59.09 Y46.346
G0 X59.09 Y42.269
G0 X59.24 Y42.269
G1 F3600 X57.731 Y40.76 E77.03528
G1 X57.661 Y40.69
G0 F7200 X57.661 Y40.91
G0 X59.12 Y40.88
G0 X59.239 Y40.76
G1 F3600 X40.76 Y59.239 E77.19914
G1 X40.69 Y59.309
G0 F7200 X40.88 Y59.12
G0 X40.91 Y57.73
G0 X40.76 Y57.73
G1 F3600 X42.269 Y59.24 E77.21253
G1 X42.339 Y59.31
G0 F7200 X42.339 Y59.09
G0 X40.91 Y42.268
G0 X40.76 Y42.268
G1 F3600 X42.269 Y40.76 E77.2259
G1 X42.339 Y40.69
G0 F7200 X42.339 Y40.91
G0 X59.12 Y59.12
G0 X59.4 Y59.4
;TYPE:WALL-INNER
G1 F3600 X59.4 Y40.6 E77.34378
G1 X40.6 Y40.6 E77.46166
G1 X40.6 Y59.4 E77.57954
G1 X59.4 Y59.4 E77.69742
G0 F7200 X59.8 Y59.8
;TYPE:WALL-OUTER
G1 F1800 X59.8 Y40.2 E77.82032
G1 X40.2 Y40.2 E77.94321
G1 X40.2 Y59.8 E78.06611
G1 X59.8 Y59.8 E78.189
G0 F7200 X59.8 Y59.6
G0 X58.79 Y58.908
;MESH:NONMESH
G0 F600 X58.79 Y58.908 Z1.5
G0 F7200 X40.88 Y40.88
G0 X40.76 Y40.76
;TIME_ELAPSED:330.692093
;LAYER:12
;TYPE:FILL
;MESH:20mm cube.stl
G1 F3600 X59.24 Y59.24 E78.35287
G1 X59.31 Y59.31
G0 F7200 X59.12 Y59.12
G0 X57.73 Y59.09
G0 X57.73 Y59.24
G1 F3600 X59.24 Y57.73 E78.36626
G1 X59.31 Y57.66
G0 F7200 X59.09 Y57.66
G0 X59.09 Y53.583
G0 X59.24 Y53.583
G1 F3600 X46.417 Y40.76 E78.47997
G1 X46.347 Y40.69
G0 F7200 X46.347 Y40.91
G0 X47.926 Y40.91
G0 X47.926 Y40.76
G1 F3600 X40.76 Y47.925 E78.54351
G1 X40.69 Y47.995
G0 F7200 X40.91 Y47.995
G0 X40.91 Y46.417
G0 X40.76 Y46.417
G1 F3600 X53.583 Y59.24 E78.65722
G1 X53.653 Y59.31
G0 F7200 X53.653 Y59.09
G0 X52.073 Y59.09
G0 X52.073 Y59.24
G1 F3600 X59.24 Y52.073 E78.72077
G1 X59.31 Y52.003
G0 F7200 X59.09 Y52.003
G0 X59.09 Y47.926
G0 X59.24 Y47.926
G1 F3600 X52.074 Y40.76 E78.78431
G1 X52.004 Y40.69
G0 F7200 X52.004 Y40.91
G0 X53.582 Y40.91
G0 X53.582 Y40.76
G1 F3600 X40.76 Y53.582 E78.89801
G1 X40.69 Y53.652
G0 F7200 X40.91 Y53.652
G0 X40.91 Y52.073
G0 X40.76 Y52.073
G1 F3600 X47.926 Y59.24 E78.96156
G1 X47.996 Y59.31
G0 F7200 X47.996 Y59.09
G0 X46.416 Y59.09
G0 X46.416 Y59.24
G1 F3600 X59.24 Y46.416 E79.07527
G1 X59.31 Y46.346
G0 F7200 X59.09 Y46.346
G0 X59.09 Y42.269
G0 X59.24 Y42.269
G1 F3600 X57.731 Y40.76 E79.08865
G1 X57.661 Y40.69
G0 F7200 X57.661 Y40.91
G0 X59.12 Y40.88
G0 X59.239 Y40.76
G1 F3600 X40.76 Y59.239 E79.25251
G1 X40.69 Y59.309
G0 F7200 X40.88 Y59.12
G0 X40.91 Y57.73
G0 X40.76 Y57.73
G1 F3600 X42.269 Y59.24 E79.2659
G1 X42.339 Y59.31
G0 F7200 X42.339 Y59.09
G0 X40.91 Y42.268
G0 X40.76 Y42.268
G1 F3600 X42.269 Y40.76 E79.27928
G1 X42.339 Y40.69
G0 F7200 X42.339 Y40.91
G0 X59.12 Y59.12
G0 X59.4 Y59.4
;TYPE:WALL-INNER
G1 F3600 X59.4 Y40.6 E79.39716
G1 X40.6 Y40.6 E79.51503
G1 X40.6 Y59.4 E79.63291
G1 X59.4 Y59.4 E79.75079
G0 F7200 X59.8 Y59.8
;TYPE:WALL-OUTER
G1 F1800 X59.8 Y40.2 E79.87369
G1 X40.2 Y40.2 E79.99658
G1 X40.2 Y59.8 E80.11948
G1 X59.8 Y59.8 E80.24238
G0 F7200 X59.8 Y59.6
G0 X58.79 Y58.908
;MESH:NONMESH
G0 F600 X58.79 Y58.908 Z1.6
G0 F7200 X40.88 Y40.88
G0 X40.76 Y40.76
;TIME_ELAPSED:339.086291
;LAYER:13
;TYPE:FILL
;MESH:20mm cube.stl
G1 F3600 X59.24 Y59.24 E80.40625
G1 X59.31 Y59.31
G0 F7200 X59.12 Y59.12
G0 X57.73 Y59.09
G0 X57.73 Y59.24
G1 F3600 X59.24 Y57.73 E80.41964
G1 X59.31 Y57.66
G0 F7200 X59.09 Y57.66
G0 X59.09 Y53.583
G0 X59.24 Y53.583
G1 F3600 X46.417 Y40.76 E80.53334
G1 X46.347 Y40.69
G0 F7200 X46.347 Y40.91
G0 X47.926 Y40.91
G0 X47.926 Y40.76
G1 F3600 X40.76 Y47.925 E80.59688
G1 X40.69 Y47.995
G0 F7200 X40.91 Y47.995
G0 X40.91 Y46.417
G0 X40.76 Y46.417
G1 F3600 X53.583 Y59.24 E80.71059
G1 X53.653 Y59.31
G0 F7200 X53.653 Y59.09
G0 X52.073 Y59.09
G0 X52.073 Y59.24
G1 F3600 X59.24 Y52.073 E80.77414
G1 X59.31 Y52.003
G0 F7200 X59.09 Y52.003
G0 X59.09 Y47.926
G0 X59.24 Y47.926
G1 F3600 X52.074 Y40.76 E80.83768
G1 X52.004 Y40.69
G0 F7200 X52.004 Y40.91
G0 X53.582 Y40.91
G0 X53.582 Y40.76
G1 F3600 X40.76 Y53.582 E80.95138
G1 X40.69 Y53.652
G0 F7200 X40.91 Y53.652
G0 X40.91 Y52.073
G0 X40.76 Y52.073
G1 F3600 X47.926 Y59.24 E81.01493
G1 X47.996 Y59.31
G0 F7200 X47.996 Y59.09
G0 X46.416 Y59.09
G0 X46.416 Y59.24
G1 F3600 X59.24 Y46.416 E81.12864
G1 X59.31 Y46.346
G0 F7200 X59.09 Y46.346
G0 X59.09 Y42.269
G0 X59.24 Y42.269
G1 F3600 X57.731 Y40.76 E81.14203
G1 X57.661 Y40.69
G0 F7200 X57.661 Y40.91
G0 X59.12 Y40.88
G0 X59.239 Y40.76
G1 F3600 X40.76 Y59.239 E81.30589
G1 X40.69 Y59.309
G0 F7200 X40.88 Y59.12
G0 X40.91 Y57.73
G0 X40.76 Y57.73
G1 F3600 X42.269 Y59.24 E81.31927
G1 X42.339 Y59.31
G0 F7200 X42.339 Y59.09
G0 X40.91 Y42.268
G0 X40.76 Y42.268
G1 F3600 X42.269 Y40.76 E81.33265
G1 X42.339 Y40.69
G0 F7200 X42.339 Y40.91
G0 X59.12 Y59.12
G0 X59.4 Y59.4
;TYPE:WALL-INNER
G1 F3600 X59.4 Y40.6 E81.45053
G1 X40.6 Y40.6 E81.56841
G1 X40.6 Y59.4 E81.68629
G1 X59.4 Y59.4 E81.80417
G0 F7200 X59.8 Y59.8
;TYPE:WALL-OUTER
G1 F1800 X59.8 Y40.2 E81.92706
G1 X40.2 Y40.2 E82.04996
G1 X40.2 Y59.8 E82.17285
G1 X59.8 Y59.8 E82.29575
G0 F7200 X59.8 Y59.6
G0 X58.79 Y58.908
;MESH:NONMESH
G0 F600 X58.79 Y58.908 Z1.7
G0 F7200 X40.88 Y40.88
G0 X40.76 Y40.76
;TIME_ELAPSED:347.480488
;LAYER:14
;TYPE:FILL
;MESH:20mm cube.stl
G1 F3600 X59.24 Y59.24 E82.45962
G1 X59.31 Y59.31
G0 F7200 X59.12 Y59.12
G0 X57.73 Y59.09
G0 X57.73 Y59.24
G1 F3600 X59.24 Y57.73 E82.47301
G1 X59.31 Y57.66
G0 F7200 X59.09 Y57.66
G0 X59.09 Y53.583
G0 X59.24 Y53.583
G1 F3600 X46.417 Y40.76 E82.58671
G1 X46.347 Y40.69
G0 F7200 X46.347 Y40.91
G0 X47.926 Y40.91
G0 X47.926 Y40.76
G1 F3600 X40.76 Y47.925 E82.65025
G1 X40.69 Y47.995
G0 F7200 X40.91 Y47.995
G0 X40.91 Y46.417
G0 X40.76 Y46.417
G1 F3600 X53.583 Y59.24 E82.76396
G1 X53.653 Y59.31
G0 F7200 X53.653 Y59.09
G0 X52.073 Y59.09
G0 X52.073 Y59.24
G1 F3600 X59.24 Y52.073 E82.82751
G1 X59.31 Y52.003
G0 F7200 X59.09 Y52.003
G0 X59.09 Y47.926
G0 X59.24 Y47.926
G1 F3600 X52.074 Y40.76 E82.89105
G1 X52.004 Y40.69
G0 F7200 X52.004 Y40.91
G0 X53.582 Y40.91
G0 X53.582 Y40.76
G1 F3600 X40.76 Y53.582 E83.00475
G1 X40.69 Y53.652
G0 F7200 X40.91 Y53.652
G0 X40.91 Y52.073
G0 X40.76 Y52.073
G1 F3600 X47.926 Y59.24 E83.0683
G1 X47.996 Y59.31
G0 F7200 X47.996 Y59.09
G0 X46.416 Y59.09
G0 X46.416 Y59.24
G1 F3600 X59.24 Y46.416 E83.18202
G1 X59.31 Y46.346
G0 F7200 X59.09 Y46.346
G0 X59.09 Y42.269
G0 X59.24 Y42.269
G1 F3600 X57.731 Y40.76 E83.1954
G1 X57.661 Y40.69
G0 F7200 X57.661 Y40.91
G0 X59.12 Y40.88
G0 X59.239 Y40.76
G1 F3600 X40.76 Y59.239 E83.35926
G1 X40.69 Y59.309
G0 F7200 X40.88 Y59.12
G0 X40.91 Y57.73
G0 X40.76 Y57.73
G1 F3600 X42.269 Y59.24 E83.37264
G1 X42.339 Y59.31
G0 F7200 X42.339 Y59.09
G0 X40.91 Y42.268
G0 X40.76 Y42.268
G1 F3600 X42.269 Y40.76 E83.38602
G1 X42.339 Y40.69
G0 F7200 X42.339 Y40.91
G0 X59.12 Y59.12
G0 X59.4 Y59.4
;TYPE:WALL-INNER
G1 F3600 X59.4 Y40.6 E83.5039
G1 X40.6 Y40.6 E83.62178
G1 X40.6 Y59.4 E83.73966
G1 X59.4 Y59.4 E83.85754
G0 F7200 X59.8 Y59.8
;TYPE:WALL-OUTER
G1 F1800 X59.8 Y40.2 E83.98043
G1 X40.2 Y40.2 E84.10333
G1 X40.2 Y59.8 E84.22622
G1 X59.8 Y59.8 E84.34912
G0 F7200 X59.8 Y59.6
G0 X58.79 Y58.908
;MESH:NONMESH
G0 F600 X58.79 Y58.908 Z1.8
G0 F7200 X40.88 Y40.88
G0 X40.76 Y40.76
;TIME_ELAPSED:355.874686
;LAYER:15
;TYPE:FILL
;MESH:20mm cube.stl
G1 F3600 X59.24 Y59.24 E84.51299
G1 X59.31 Y59.31
G0 F7200 X59.12 Y59.12
G0 X57.73 Y59.09
G0 X57.73 Y59.24
G1 F3600 X59.24 Y57.73 E84.52638
G1 X59.31 Y57.66
G0 F7200 X59.09 Y57.66
G0 X59.09 Y53.583
G0 X59.24 Y53.583
G1 F3600 X46.417 Y40.76 E84.64008
G1 X46.347 Y40.69
G0 F7200 X46.347 Y40.91
G0 X47.926 Y40.91
G0 X47.926 Y40.76
G1 F3600 X40.76 Y47.925 E84.70362
G1 X40.69 Y47.995
G0 F7200 X40.91 Y47.995
G0 X40.91 Y46.417
G0 X40.76 Y46.417
G1 F3600 X53.583 Y59.24 E84.81733
G1 X53.653 Y59.31
G0 F7200 X53.653 Y59.09
G0 X52.073 Y59.09
G0 X52.073 Y59.24
G1 F3600 X59.24 Y52.073 E84.88088
G1 X59.31 Y52.003
G0 F7200 X59.09 Y52.003
G0 X59.09 Y47.926
G0 X59.24 Y47.926
G1 F3600 X52.074 Y40.76 E84.94443
G1 X52.004 Y40.69
G0 F7200 X52.004 Y40.91
G0 X53.582 Y40.91
G0 X53.582 Y40.76
G1 F3600 X40.76 Y53.582 E85.05812
G1 X40.69 Y53.652
G0 F7200 X40.91 Y53.652
G0 X40.91 Y52.073
G0 X40.76 Y52.073
G1 F3600 X47.926 Y59.24 E85.12167
G1 X47.996 Y59.31
G0 F7200 X47.996 Y59.09
G0 X46.416 Y59.09
G0 X46.416 Y59.24
G1 F3600 X59.24 Y46.416 E85.23539
G1 X59.31 Y46.346
G0 F7200 X59.09 Y46.346
G0 X59.09 Y42.269
G0 X59.24 Y42.269
G1 F3600 X57.731 Y40.76 E85.24877
G1 X57.661 Y40.69
G0 F7200 X57.661 Y40.91
G0 X59.12 Y40.88
G0 X59.239 Y40.76
G1 F3600 X40.76 Y59.239 E85.41263
G1 X40.69 Y59.309
G0 F7200 X40.88 Y59.12
G0 X40.91 Y57.73
G0 X40.76 Y57.73
G1 F3600 X42.269 Y59.24 E85.42601
G1 X42.339 Y59.31
G0 F7200 X42.339 Y59.09
G0 X40.91 Y42.268
G0 X40.76 Y42.268
G1 F3600 X42.269 Y40.76 E85.43939
G1 X42.339 Y40.69
G0 F7200 X42.339 Y40.91
G0 X59.12 Y59.12
G0 X59.4 Y59.4
;TYPE:WALL-INNER
G1 F3600 X59.4 Y40.6 E85.55727
G1 X40.6 Y40.6 E85.67515
G1 X40.6 Y59.4 E85.79303
G1 X59.4 Y59.4 E85.91091
G0 F7200 X59.8 Y59.8
;TYPE:WALL-OUTER
G1 F1800 X59.8 Y40.2 E86.0338
G1 X40.2 Y40.2 E86.1567
G1 X40.2 Y59.8 E86.2796
G1 X59.8 Y59.8 E86.40249
G0 F7200 X59.8 Y59.6
G0 X58.79 Y58.908
;MESH:NONMESH
G0 F600 X58.79 Y58.908 Z1.9
G0 F7200 X40.88 Y40.88
G0 X40.76 Y40.76
;TIME_ELAPSED:364.268884
;LAYER:16
;TYPE:FILL
;MESH:20mm cube.stl
G1 F3600 X59.24 Y59.24 E86.56636
G1 X59.31 Y59.31
G0 F7200 X59.12 Y59.12
G0 X57.73 Y59.09
G0 X57.73 Y59.24
G1 F3600 X59.24 Y57.73 E86.57975
G1 X59.31 Y57.66
G0 F7200 X59.09 Y57.66
G0 X59.09 Y53.583
G0 X59.24 Y53.583
G1 F3600 X46.417 Y40.76 E86.69346
G1 X46.347 Y40.69
G0 F7200 X46.347 Y40.91
G0 X47.926 Y40.91
G0 X47.926 Y40.76
G1 F3600 X40.76 Y47.925 E86.757
G1 X40.69 Y47.995
G0 F7200 X40.91 Y47.995
G0 X40.91 Y46.417
G0 X40.76 Y46.417
G1 F3600 X53.583 Y59.24 E86.8707
G1 X53.653 Y59.31
G0 F7200 X53.653 Y59.09
G0 X52.073 Y59.09
G0 X52.073 Y59.24
G1 F3600 X59.24 Y52.073 E86.93425
G1 X59.31 Y52.003
G0 F7200 X59.09 Y52.003
G0 X59.09 Y47.926
G0 X59.24 Y47.926
G1 F3600 X52.074 Y40.76 E86.9978
G1 X52.004 Y40.69
G0 F7200 X52.004 Y40.91
G0 X53.582 Y40.91
G0 X53.582 Y40.76
G1 F3600 X40.76 Y53.582 E87.1115
G1 X40.69 Y53.652
G0 F7200 X40.91 Y53.652
G0 X40.91 Y52.073
G0 X40.76 Y52.073
G1 F3600 X47.926 Y59.24 E87.17504
G1 X47.996 Y59.31
G0 F7200 X47.996 Y59.09
G0 X46.416 Y59.09
G0 X46.416 Y59.24
G1 F3600 X59.24 Y46.416 E87.28876
G1 X59.31 Y46.346
G0 F7200 X59.09 Y46.346
G0 X59.09 Y42.269
G0 X59.24 Y42.269
G1 F3600 X57.731 Y40.76 E87.30214
G1 X57.661 Y40.69
G0 F7200 X57.661 Y40.91
G0 X59.12 Y40.88
G0 X59.239 Y40.76
G1 F3600 X40.76 Y59.239 E87.466
G1 X40.69 Y59.309
G0 F7200 X40.88 Y59.12
G0 X40.91 Y57.73
G0 X40.76 Y57.73
G1 F3600 X42.269 Y59.24 E87.47939
G1 X42.339 Y59.31
G0 F7200 X42.339 Y59.09
G0 X40.91 Y42.268
G0 X40.76 Y42.268
G1 F3600 X42.269 Y40.76 E87.49276
G1 X42.339 Y40.69
G0 F7200 X42.339 Y40.91
G0 X59.12 Y59.12
G0 X59.4 Y59.4
;TYPE:WALL-INNER
G1 F3600 X59.4 Y40.6 E87.61064
G1 X40.6 Y40.6 E87.72852
G1 X40.6 Y59.4 E87.8464
G1 X59.4 Y59.4 E87.96428
G0 F7200 X59.8 Y59.8
;TYPE:WALL-OUTER
G1 F1800 X59.8 Y40.2 E88.08718
G1 X40.2 Y40.2 E88.21007
G1 X40.2 Y59.8 E88.33297
G1 X59.8 Y59.8 E88.45586
G0 F7200 X59.8 Y59.6
G0 X58.79 Y58.908
;MESH:NONMESH
G0 F600 X58.79 Y58.908 Z2
G0 F7200 X40.88 Y40.88
G0 X40.76 Y40.76
;TIME_ELAPSED:372.663081
;LAYER:17
;TYPE:FILL
;MESH:20mm cube.stl
G1 F3600 X59.24 Y59.24 E88.61973
G1 X59.31 Y59.31
G0 F7200 X59.12 Y59.12
G0 X57.73 Y59.09
G0 X57.73 Y59.24
G1 F3600 X59.24 Y57.73 E88.63312
G1 X59.31 Y57.66
G0 F7200 X59.09 Y57.66
G0 X59.09 Y53.583
G0 X59.24 Y53.583
G1 F3600 X46.417 Y40.76 E88.74683
G1 X46.347 Y40.69
G0 F7200 X46.347 Y40.91
G0 X47.926 Y40.91
G0 X47.926 Y40.76
G1 F3600 X40.76 Y47.925 E88.81037
G1 X40.69 Y47.995
G0 F7200 X40.91 Y47.995
G0 X40.91 Y46.417
G0 X40.76 Y46.417
G1 F3600 X53.583 Y59.24 E88.92407
G1 X53.653 Y59.31
G0 F7200 X53.653 Y59.09
G0 X52.073 Y59.09
G0 X52.073 Y59.24
G1 F3600 X59.24 Y52.073 E88.98763
G1 X59.31 Y52.003
G0 F7200 X59.09 Y52.003
G0 X59.09 Y47.926
G0 X59.24 Y47.926
G1 F3600 X52.074 Y40.76 E89.05117
G1 X52.004 Y40.69
G0 F7200 X52.004 Y40.91
G0 X53.582 Y40.91
G0 X53.582 Y40.76
G1 F3600 X40.76 Y53.582 E89.16487
G1 X40.69 Y53.652
G0 F7200 X40.91 Y53.652
G0 X40.91 Y52.073
G0 X40.76 Y52.073
G1 F3600 X47.926 Y59.24 E89.22842
G1 X47.996 Y59.31
G0 F7200 X47.996 Y59.09
G0 X46.416 Y59.09
G0 X46.416 Y59.24
G1 F3600 X59.24 Y46.416 E89.34213
G1 X59.31 Y46.346
G0 F7200 X59.09 Y46.346
G0 X59.09 Y42.269
G0 X59.24 Y42.269
G1 F3600 X57.731 Y40.76 E89.35551
G1 X57.661 Y40.69
G0 F7200 X57.661 Y40.91
G0 X59.12 Y40.88
G0 X59.239 Y40.76
G1 F3600 X40.76 Y59.239 E89.51937
G1 X40.69 Y59.309
G0 F7200 X40.88 Y59.12
G0 X40.91 Y57.73
G0 X40.76 Y57.73
G1 F3600 X42.269 Y59.24 E89.53276
G1 X42.339 Y59.31
G0 F7200 X42.339 Y59.09
G0 X40.91 Y42.268
G0 X40.76 Y42.268
G1 F3600 X42.269 Y40.76 E89.54613
G1 X42.339 Y40.69
G0 F7200 X42.339 Y40.91
G0 X59.12 Y59.12
G0 X59.4 Y59.4
;TYPE:WALL-INNER
G1 F3600 X59.4 Y40.6 E89.66401
G1 X40.6 Y40.6 E89.78189
G1 X40.6 Y59.4 E89.89977
G1 X59.4 Y59.4 E90.01765
G0 F7200 X59.8 Y59.8
;TYPE:WALL-OUTER
G1 F1800 X59.8 Y40.2 E90.14055
G1 X40.2 Y40.2 E90.26344
G1 X40.2 Y59.8 E90.38634
G1 X59.8 Y59.8 E90.50923
G0 F7200 X59.8 Y59.6
G0 X58.79 Y58.908
;MESH:NONMESH
G0 F600 X58.79 Y58.908 Z2.1
G0 F7200 X40.88 Y40.88
G0 X40.76 Y40.76
;TIME_ELAPSED:381.057279
;LAYER:18
;TYPE:FILL
;MESH:20mm cube.stl
G1 F3600 X59.24 Y59.24 E90.6731
G1 X59.31 Y59.31
G0 F7200 X59.12 Y59.12
G0 X57.73 Y59.09
G0 X57.73 Y59.24
G1 F3600 X59.24 Y57.73 E90.68649
G1 X59.31 Y57.66
G0 F7200 X59.09 Y57.66
G0 X59.09 Y53.583
G0 X59.24 Y53.583
G1 F3600 X46.417 Y40.76 E90.8002
G1 X46.347 Y40.69
G0 F7200 X46.347 Y40.91
G0 X47.926 Y40.91
G0 X47.926 Y40.76
G1 F3600 X40.76 Y47.925 E90.86374
G1 X40.69 Y47.995
G0 F7200 X40.91 Y47.995
G0 X40.91 Y46.417
G0 X40.76 Y46.417
G1 F3600 X53.583 Y59.24 E90.97745
G1 X53.653 Y59.31
G0 F7200 X53.653 Y59.09
G0 X52.073 Y59.09
G0 X52.073 Y59.24
G1 F3600 X59.24 Y52.073 E91.041
G1 X59.31 Y52.003
G0 F7200 X59.09 Y52.003
G0 X59.09 Y47.926
G0 X59.24 Y47.926
G1 F3600 X52.074 Y40.76 E91.10454
G1 X52.004 Y40.69
G0 F7200 X52.004 Y40.91
G0 X53.582 Y40.91
G0 X53.582 Y40.76
G1 F3600 X40.76 Y53.582 E91.21824
G1 X40.69 Y53.652
G0 F7200 X40.91 Y53.652
G0 X40.91 Y52.073
G0 X40.76 Y52.073
G1 F3600 X47.926 Y59.24 E91.28179
G1 X47.996 Y59.31
G0 F7200 X47.996 Y59.09
G0 X46.416 Y59.09
G0 X46.416 Y59.24
G1 F3600 X59.24 Y46.416 E91.3955
G1 X59.31 Y46.346
G0 F7200 X59.09 Y46.346
G0 X59.09 Y42.269
G0 X59.24 Y42.269
G1 F3600 X57.731 Y40.76 E91.40888
G1 X57.661 Y40.69
G0 F7200 X57.661 Y40.91
G0 X59.12 Y40.88
G0 X59.239 Y40.76
G1 F3600 X40.76 Y59.239 E91.57274
G1 X40.69 Y59.309
G0 F7200 X40.88 Y59.12
G0 X40.91 Y57.73
G0 X40.76 Y57.73
G1 F3600 X42.269 Y59.24 E91.58613
G1 X42.339 Y59.31
G0 F7200 X42.339 Y59.09
G0 X40.91 Y42.268
G0 X40.76 Y42.268
G1 F3600 X42.269 Y40.76 E91.59951
G1 X42.339 Y40.69
G0 F7200 X42.339 Y40.91
G0 X59.12 Y59.12
G0 X59.4 Y59.4
;TYPE:WALL-INNER
G1 F3600 X59.4 Y40.6 E91.71738
G1 X40.6 Y40.6 E91.83526
G1 X40.6 Y59.4 E91.95314
G1 X59.4 Y59.4 E92.07102
G0 F7200 X59.8 Y59.8
;TYPE:WALL-OUTER
G1 F1800 X59.8 Y40.2 E92.19392
G1 X40.2 Y40.2 E92.31681
G1 X40.2 Y59.8 E92.43971
G1 X59.8 Y59.8 E92.56261
G0 F7200 X59.8 Y59.6
G0 X58.79 Y58.908
;MESH:NONMESH
G0 F600 X58.79 Y58.908 Z2.2
G0 F7200 X40.88 Y40.88
G0 X40.76 Y40.76
;TIME_ELAPSED:389.451477
;LAYER:19
;TYPE:FILL
;MESH:20mm cube.stl
G1 F3600 X59.24 Y59.24 E92.72648
G1 X59.31 Y59.31
G0 F7200 X59.12 Y59.12
G0 X57.73 Y59.09
G0 X57.73 Y59.24
G1 F3600 X59.24 Y57.73 E92.73986
G1 X59.31 Y57.66
G0 F7200 X59.09 Y57.66
G0 X59.09 Y53.583
G0 X59.24 Y53.583
G1 F3600 X46.417 Y40.76 E92.85357
G1 X46.347 Y40.69
G0 F7200 X46.347 Y40.91
G0 X47.926 Y40.91
G0 X47.926 Y40.76
G1 F3600 X40.76 Y47.925 E92.91711
G1 X40.69 Y47.995
G0 F7200 X40.91 Y47.995
G0 X40.91 Y46.417
G0 X40.76 Y46.417
G1 F3600 X53.583 Y59.24 E93.03082
G1 X53.653 Y59.31
G0 F7200 X53.653 Y59.09
G0 X52.073 Y59.09
G0 X52.073 Y59.24
G1 F3600 X59.24 Y52.073 E93.09437
G1 X59.31 Y52.003
G0 F7200 X59.09 Y52.003
G0 X59.09 Y47.926
G0 X59.24 Y47.926
G1 F3600 X52.074 Y40.76 E93.15791
G1 X52.004 Y40.69
G0 F7200 X52.004 Y40.91
G0 X53.582 Y40.91
G0 X53.582 Y40.76
G1 F3600 X40.76 Y53.582 E93.27161
G1 X40.69 Y53.652
G0 F7200 X40.91 Y53.652
G0 X40.91 Y52.073
G0 X40.76 Y52.073
G1 F3600 X47.926 Y59.24 E93.33516
G1 X47.996 Y59.31
G0 F7200 X47.996 Y59.09
G0 X46.416 Y59.09
G0 X46.416 Y59.24
G1 F3600 X59.24 Y46.416 E93.44887
G1 X59.31 Y46.346
G0 F7200 X59.09 Y46.346
G0 X59.09 Y42.269
G0 X59.24 Y42.269
G1 F3600 X57.731 Y40.76 E93.46226
G1 X57.661 Y40.69
G0 F7200 X57.661 Y40.91
G0 X59.12 Y40.88
G0 X59.239 Y40.76
G1 F3600 X40.76 Y59.239 E93.62612
G1 X40.69 Y59.309
G0 F7200 X40.88 Y59.12
G0 X40.91 Y57.73
G0 X40.76 Y57.73
G1 F3600 X42.269 Y59.24 E93.6395
G1 X42.339 Y59.31
G0 F7200 X42.339 Y59.09
G0 X40.91 Y42.268
G0 X40.76 Y42.268
G1 F3600 X42.269 Y40.76 E93.65288
G1 X42.339 Y40.69
G0 F7200 X42.339 Y40.91
G0 X59.12 Y59.12
G0 X59.4 Y59.4
;TYPE:WALL-INNER
G1 F3600 X59.4 Y40.6 E93.77076
G1 X40.6 Y40.6 E93.88864
G1 X40.6 Y59.4 E94.00652
G1 X59.4 Y59.4 E94.1244
G0 F7200 X59.8 Y59.8
;TYPE:WALL-OUTER
G1 F1800 X59.8 Y40.2 E94.24729
G1 X40.2 Y40.2 E94.37019
G1 X40.2 Y59.8 E94.49308
G1 X59.8 Y59.8 E94.61598
G0 F7200 X59.8 Y59.6
G0 X58.79 Y58.908
;MESH:NONMESH
G0 F600 X58.79 Y58.908 Z2.3
G0 F7200 X40.88 Y40.88
G0 X40.76 Y40.76
;TIME_ELAPSED:397.845675
;LAYER:20
;TYPE:FILL
;MESH:20mm cube.stl
G1 F3600 X59.24 Y59.24 E94.77985
G1 X59.31 Y59.31
G0 F7200 X59.12 Y59.12
G0 X57.73 Y59.09
G0 X57.73 Y59.24
G1 F3600 X59.24 Y57.73 E94.79324
G1 X59.31 Y57.66
G0 F7200 X59.09 Y57.66
G0 X59.09 Y53.583
G0 X59.24 Y53.583
G1 F3600 X46.417 Y40.76 E94.90694
G1 X46.347 Y40.69
G0 F7200 X46.347 Y40.91
G0 X47.926 Y40.91
G0 X47.926 Y40.76
G1 F3600 X40.76 Y47.925 E94.97048
G1 X40.69 Y47.995
G0 F7200 X40.91 Y47.995
G0 X40.91 Y46.417
G0 X40.76 Y46.417
G1 F3600 X53.583 Y59.24 E95.08419
G1 X53.653 Y59.31
G0 F7200 X53.653 Y59.09
G0 X52.073 Y59.09
G0 X52.073 Y59.24
G1 F3600 X59.24 Y52.073 E95.14774
G1 X59.31 Y52.003
G0 F7200 X59.09 Y52.003
G0 X59.09 Y47.926
G0 X59.24 Y47.926
G1 F3600 X52.074 Y40.76 E95.21128
G1 X52.004 Y40.69
G0 F7200 X52.004 Y40.91
G0 X53.582 Y40.91
G0 X53.582 Y40.76
G1 F3600 X40.76 Y53.582 E95.32498
G1 X40.69 Y53.652
G0 F7200 X40.91 Y53.652
G0 X40.91 Y52.073
G0 X40.76 Y52.073
G1 F3600 X47.926 Y59.24 E95.38853
G1 X47.996 Y59.31
G0 F7200 X47.996 Y59.09
G0 X46.416 Y59.09
G0 X46.416 Y59.24
G1 F3600 X59.24 Y46.416 E95.50225
G1 X59.31 Y46.346
G0 F7200 X59.09 Y46.346
G0 X59.09 Y42.269
G0 X59.24 Y42.269
G1 F3600 X57.731 Y40.76 E95.51563
G1 X57.661 Y40.69
G0 F7200 X57.661 Y40.91
G0 X59.12 Y40.88
G0 X59.239 Y40.76
G1 F3600 X40.76 Y59.239 E95.67949
G1 X40.69 Y59.309
G0 F7200 X40.88 Y59.12
G0 X40.91 Y57.73
G0 X40.76 Y57.73
G1 F3600 X42.269 Y59.24 E95.69287
G1 X42.339 Y59.31
G0 F7200 X42.339 Y59.09
G0 X40.91 Y42.268
G0 X40.76 Y42.268
G1 F3600 X42.269 Y40.76 E95.70625
G1 X42.339 Y40.69
G0 F7200 X42.339 Y40.91
G0 X59.12 Y59.12
G0 X59.4 Y59.4
;TYPE:WALL-INNER
G1 F3600 X59.4 Y40.6 E95.82413
G1 X40.6 Y40.6 E95.94201
G1 X40.6 Y59.4 E96.05989
G1 X59.4 Y59.4 E96.17777
G0 F7200 X59.8 Y59.8
;TYPE:WALL-OUTER
G1 F1800 X59.8 Y40.2 E96.30066
G1 X40.2 Y40.2 E96.42356
G1 X40.2 Y59.8 E96.54645
G1 X59.8 Y59.8 E96.66935
G0 F7200 X59.8 Y59.6
G0 X58.79 Y58.908
;MESH:NONMESH
G0 F600 X58.79 Y58.908 Z2.4
G0 F7200 X40.88 Y40.88
G0 X40.76 Y40.76
;TIME_ELAPSED:406.239872
;LAYER:21
;TYPE:FILL
;MESH:20mm cube.stl
G1 F3600 X59.24 Y59.24 E96.83322
G1 X59.31 Y59.31
G0 F7200 X59.12 Y59.12
G0 X57.73 Y59.09
G0 X57.73 Y59.24
G1 F3600 X59.24 Y57.73 E96.84661
G1 X59.31 Y57.66
G0 F7200 X59.09 Y57.66
G0 X59.09 Y53.583
G0 X59.24 Y53.583
G1 F3600 X46.417 Y40.76 E96.96031
G1 X46.347 Y40.69
G0 F7200 X46.347 Y40.91
G0 X47.926 Y40.91
G0 X47.926 Y40.76
G1 F3600 X40.76 Y47.925 E97.02385
G1 X40.69 Y47.995
G0 F7200 X40.91 Y47.995
G0 X40.91 Y46.417
G0 X40.76 Y46.417
G1 F3600 X53.583 Y59.24 E97.13756
G1 X53.653 Y59.31
G0 F7200 X53.653 Y59.09
G0 X52.073 Y59.09
G0 X52.073 Y59.24
G1 F3600 X59.24 Y52.073 E97.20111
G1 X59.31 Y52.003
G0 F7200 X59.09 Y52.003
G0 X59.09 Y47.926
G0 X59.24 Y47.926
G1 F3600 X52.074 Y40.76 E97.26466
G1 X52.004 Y40.69
G0 F7200 X52.004 Y40.91
G0 X53.582 Y40.91
G0 X53.582 Y40.76
G1 F3600 X40.76 Y53.582 E97.37835
G1 X40.69 Y53.652
G0 F7200 X40.91 Y53.652
G0 X40.91 Y52.073
G0 X40.76 Y52.073
G1 F3600 X47.926 Y59.24 E97.4419
G1 X47.996 Y59.31
G0 F7200 X47.996 Y59.09
G0 X46.416 Y59.09
G0 X46.416 Y59.24
G1 F3600 X59.24 Y46.416 E97.55562
G1 X59.31 Y46.346
G0 F7200 X59.09 Y46.346
G0 X59.09 Y42.269
G0 X59.24 Y42.269
G1 F3600 X57.731 Y40.76 E97.569
G1 X57.661 Y40.69
G0 F7200 X57.661 Y40.91
G0 X59.12 Y40.88
G0 X59.239 Y40.76
G1 F3600 X40.76 Y59.239 E97.73286
G1 X40.69 Y59.309
G0 F7200 X40.88 Y59.12
G0 X40.91 Y57.73
G0 X40.76 Y57.73
G1 F3600 X42.269 Y59.24 E97.74624
G1 X42.339 Y59.31
G0 F7200 X42.339 Y59.09
G0 X40.91 Y42.268
G0 X40.76 Y42.268
G1 F3600 X42.269 Y40.76 E97.75962
G1 X42.339 Y40.69
G0 F7200 X42.339 Y40.91
G0 X59.12 Y59.12
G0 X59.4 Y59.4
;TYPE:WALL-INNER
G1 F3600 X59.4 Y40.6 E97.8775
G1 X40.6 Y40.6 E97.99538
G1 X40.6 Y59.4 E98.11326
G1 X59.4 Y59.4 E98.23114
G0 F7200 X59.8 Y59.8
;TYPE:WALL-OUTER
G1 F1800 X59.8 Y40.2 E98.35403
G1 X40.2 Y40.2 E98.47693
G1 X40.2 Y59.8 E98.59983
G1 X59.8 Y59.8 E98.72272
G0 F7200 X59.8 Y59.6
G0 X58.79 Y58.908
;MESH:NONMESH
G0 F600 X58.79 Y58.908 Z2.5
G0 F7200 X40.88 Y40.88
G0 X40.76 Y40.76
;TIME_ELAPSED:414.634070
;LAYER:22
;TYPE:FILL
;MESH:20mm cube.stl
G1 F3600 X59.24 Y59.24 E98.88659
G1 X59.31 Y59.31
G0 F7200 X59.12 Y59.12
G0 X57.73 Y59.09
G0 X57.73 Y59.24
G1 F3600 X59.24 Y57.73 E98.89998
G1 X59.31 Y57.66
G0 F7200 X59.09 Y57.66
G0 X59.09 Y53.583
G0 X59.24 Y53.583
G1 F3600 X46.417 Y40.76 E99.01369
G1 X46.347 Y40.69
G0 F7200 X46.347 Y40.91
G0 X47.926 Y40.91
G0 X47.926 Y40.76
G1 F3600 X40.76 Y47.925 E99.07723
G1 X40.69 Y47.995
G0 F7200 X40.91 Y47.995
G0 X40.91 Y46.417
G0 X40.76 Y46.417
G1 F3600 X53.583 Y59.24 E99.19093
G1 X53.653 Y59.31
G0 F7200 X53.653 Y59.09
G0 X52.073 Y59.09
G0 X52.073 Y59.24
G1 F3600 X59.24 Y52.073 E99.25448
G1 X59.31 Y52.003
G0 F7200 X59.09 Y52.003
G0 X59.09 Y47.926
G0 X59.24 Y47.926
G1 F3600 X52.074 Y40.76 E99.31803
G1 X52.004 Y40.69
G0 F7200 X52.004 Y40.91
G0 X53.582 Y40.91
G0 X53.582 Y40.76
G1 F3600 X40.76 Y53.582 E99.43173
G1 X40.69 Y53.652
G0 F7200 X40.91 Y53.652
G0 X40.91 Y52.073
G0 X40.76 Y52.073
G1 F3600 X47.926 Y59.24 E99.49527
G1 X47.996 Y59.31
G0 F7200 X47.996 Y59.09
G0 X46.416 Y59.09
G0 X46.416 Y59.24
G1 F3600 X59.24 Y46.416 E99.60899
G1 X59.31 Y46.346
G0 F7200 X59.09 Y46.346
G0 X59.09 Y42.269
G0 X59.24 Y42.269
G1 F3600 X57.731 Y40.76 E99.62237
G1 X57.661 Y40.69
G0 F7200 X57.661 Y40.91
G0 X59.12 Y40.88
G0 X59.239 Y40.76
G1 F3600 X40.76 Y59.239 E99.78623
G1 X40.69 Y59.309
G0 F7200 X40.88 Y59.12
G0 X40.91 Y57.73
G0 X40.76 Y57.73
G1 F3600 X42.269 Y59.24 E99.79962
G1 X42.339 Y59.31
G0 F7200 X42.339 Y59.09
G0 X40.91 Y42.268
G0 X40.76 Y42.268
G1 F3600 X42.269 Y40.76 E99.81299
G1 X42.339 Y40.69
G0 F7200 X42.339 Y40.91
G0 X59.12 Y59.12
G0 X59.4 Y59.4
;TYPE:WALL-INNER
G1 F3600 X59.4 Y40.6 E99.93087
G1 X40.6 Y40.6 E100.04875
G1 X40.6 Y59.4 E100.16663
G1 X59.4 Y59.4 E100.28451
G0 F7200 X59.8 Y59.8
;TYPE:WALL-OUTER
G1 F1800 X59.8 Y40.2 E100.40741
G1 X40.2 Y40.2 E100.5303
G1 X40.2 Y59.8 E100.6532
G1 X59.8 Y59.8 E100.77609
G0 F7200 X59.8 Y59.6
G0 X58.79 Y58.908
;MESH:NONMESH
G0 F600 X58.79 Y58.908 Z2.6
G0 F7200 X40.88 Y40.88
G0 X40.76 Y40.76
;TIME_ELAPSED:423.028268
;LAYER:23
;TYPE:FILL
;MESH:20mm cube.stl
G1 F3600 X59.24 Y59.24 E100.93996
G1 X59.31 Y59.31
G0 F7200 X59.12 Y59.12
G0 X57.73 Y59.09
G0 X57.73 Y59.24
G1 F3600 X59.24 Y57.73 E100.95335
G1 X59.31 Y57.66
G0 F7200 X59.09 Y57.66
G0 X59.09 Y53.583
G0 X59.24 Y53.583
G1 F3600 X46.417 Y40.76 E101.06706
G1 X46.347 Y40.69
G0 F7200 X46.347 Y40.91
G0 X47.926 Y40.91
G0 X47.926 Y40.76
G1 F3600 X40.76 Y47.925 E101.1306
G1 X40.69 Y47.995
G0 F7200 X40.91 Y47.995
G0 X40.91 Y46.417
G0 X40.76 Y46.417
G1 F3600 X53.583 Y59.24 E101.2443
G1 X53.653 Y59.31
G0 F7200 X53.653 Y59.09
G0 X52.073 Y59.09
G0 X52.073 Y59.24
G1 F3600 X59.24 Y52.073 E101.30786
G1 X59.31 Y52.003
G0 F7200 X59.09 Y52.003
G0 X59.09 Y47.926
G0 X59.24 Y47.926
G1 F3600 X52.074 Y40.76 E101.3714
G1 X52.004 Y40.69
G0 F7200 X52.004 Y40.91
G0 X53.582 Y40.91
G0 X53.582 Y40.76
G1 F3600 X40.76 Y53.582 E101.4851
G1 X40.69 Y53.652
G0 F7200 X40.91 Y53.652
G0 X40.91 Y52.073
G0 X40.76 Y52.073
G1 F3600 X47.926 Y59.24 E101.54865
G1 X47.996 Y59.31
G0 F7200 X47.996 Y59.09
G0 X46.416 Y59.09
G0 X46.416 Y59.24
G1 F3600 X59.24 Y46.416 E101.66236
G1 X59.31 Y46.346
G0 F7200 X59.09 Y46.346
G0 X59.09 Y42.269
G0 X59.24 Y42.269
G1 F3600 X57.731 Y40.76 E101.67574
G1 X57.661 Y40.69
G0 F7200 X57.661 Y40.91
G0 X59.12 Y40.88
G0 X59.239 Y40.76
G1 F3600 X40.76 Y59.239 E101.8396
G1 X40.69 Y59.309
G0 F7200 X40.88 Y59.12
G0 X40.91 Y57.73
G0 X40.76 Y57.73
G1 F3600 X42.269 Y59.24 E101.85299
G1 X42.339 Y59.31
G0 F7200 X42.339 Y59.09
G0 X40.91 Y42.268
G0 X40.76 Y42.268
G1 F3600 X42.269 Y40.76 E101.86636
G1 X42.339 Y40.69
G0 F7200 X42.339 Y40.91
G0 X59.12 Y59.12
G0 X59.4 Y59.4
;TYPE:WALL-INNER
G1 F3600 X59.4 Y40.6 E101.98424
G1 X40.6 Y40.6 E102.10212
G1 X40.6 Y59.4 E102.22
G1 X59.4 Y59.4 E102.33788
G0 F7200 X59.8 Y59.8
;TYPE:WALL-OUTER
G1 F1800 X59.8 Y40.2 E102.46078
G1 X40.2 Y40.2 E102.58367
G1 X40.2 Y59.8 E102.70657
G1 X59.8 Y59.8 E102.82946
G0 F7200 X59.8 Y59.6
G0 X58.79 Y58.908
;MESH:NONMESH
G0 F600 X58.79 Y58.908 Z2.7
G0 F7200 X40.88 Y40.88
G0 X40.76 Y40.76
;TIME_ELAPSED:431.422465
;LAYER:24
;TYPE:FILL
;MESH:20mm cube.stl
G1 F3600 X59.24 Y59.24 E102.99333
G1 X59.31 Y59.31
G0 F7200 X59.12 Y59.12
G0 X57.73 Y59.09
G0 X57.73 Y59.24
G1 F3600 X59.24 Y57.73 E103.00672
G1 X59.31 Y57.66
G0 F7200 X59.09 Y57.66
G0 X59.09 Y53.583
G0 X59.24 Y53.583
G1 F3600 X46.417 Y40.76 E103.12043
G1 X46.347 Y40.69
G0 F7200 X46.347 Y40.91
G0 X47.926 Y40.91
G0 X47.926 Y40.76
G1 F3600 X40.76 Y47.925 E103.18397
G1 X40.69 Y47.995
G0 F7200 X40.91 Y47.995
G0 X40.91 Y46.417
G0 X40.76 Y46.417
G1 F3600 X53.583 Y59.24 E103.29768
G1 X53.653 Y59.31
G0 F7200 X53.653 Y59.09
G0 X52.073 Y59.09
G0 X52.073 Y59.24
G1 F3600 X59.24 Y52.073 E103.36123
G1 X59.31 Y52.003
G0 F7200 X59.09 Y52.003
G0 X59.09 Y47.926
G0 X59.24 Y47.926
G1 F3600 X52.074 Y40.76 E103.42477
G1 X52.004 Y40.69
G0 F7200 X52.004 Y40.91
G0 X53.582 Y40.91
G0 X53.582 Y40.76
G1 F3600 X40.76 Y53.582 E103.53847
G1 X40.69 Y53.652
G0 F7200 X40.91 Y53.652
G0 X40.91 Y52.073
G0 X40.76 Y52.073
G1 F3600 X47.926 Y59.24 E103.60202
G1 X47.996 Y59.31
G0 F7200 X47.996 Y59.09
G0 X46.416 Y59.09
G0 X46.416 Y59.24
G1 F3600 X59.24 Y46.416 E103.71573
G1 X59.31 Y46.346
G0 F7200 X59.09 Y46.346
G0 X59.09 Y42.269
G0 X59.24 Y42.269
G1 F3600 X57.731 Y40.76 E103.72911
G1 X57.661 Y40.69
G0 F7200 X57.661 Y40.91
G0 X59.12 Y40.88
G0 X59.239 Y40.76
G1 F3600 X40.76 Y59.239 E103.89297
G1 X40.69 Y59.309
G0 F7200 X40.88 Y59.12
G0 X40.91 Y57.73
G0 X40.76 Y57.73
G1 F3600 X42.269 Y59.24 E103.90636
G1 X42.339 Y59.31
G0 F7200 X42.339 Y59.09
G0 X40.91 Y42.268
G0 X40.76 Y42.268
G1 F3600 X42.269 Y40.76 E103.91974
G1 X42.339 Y40.69
G0 F7200 X42.339 Y40.91
G0 X59.12 Y59.12
G0 X59.4 Y59.4
;TYPE:WALL-INNER
G1 F3600 X59.4 Y40.6 E104.03761
G1 X40.6 Y40.6 E104.15549
G1 X40.6 Y59.4 E104.27337
G1 X59.4 Y59.4 E104.39125
G0 F7200 X59.8 Y59.8
;TYPE:WALL-OUTER
G1 F1800 X59.8 Y40.2 E104.51415
G1 X40.2 Y40.2 E104.63704
G1 X40.2 Y59.8 E104.75994
G1 X59.8 Y59.8 E104.88284
G0 F7200 X59.8 Y59.6
G0 X58.79 Y58.908
;MESH:NONMESH
G0 F600 X58.79 Y58.908 Z2.8
G0 F7200 X40.88 Y40.88
G0 X40.76 Y40.76
;TIME_ELAPSED:439.816663
;LAYER:25
;TYPE:FILL
;MESH:20mm cube.stl
G1 F3600 X59.24 Y59.24 E105.04671
G1 X59.31 Y59.31
G0 F7200 X59.12 Y59.12
G0 X57.73 Y59.09
G0 X57.73 Y59.24
G1 F3600 X59.24 Y57.73 E105.06009
G1 X59.31 Y57.66
G0 F7200 X59.09 Y57.66
G0 X59.09 Y53.583
G0 X59.24 Y53.583
G1 F3600 X46.417 Y40.76 E105.1738
G1 X46.347 Y40.69
G0 F7200 X46.347 Y40.91
G0 X47.926 Y40.91
G0 X47.926 Y40.76
G1 F3600 X40.76 Y47.925 E105.23734
G1 X40.69 Y47.995
G0 F7200 X40.91 Y47.995
G0 X40.91 Y46.417
G0 X40.76 Y46.417
G1 F3600 X53.583 Y59.24 E105.35105
G1 X53.653 Y59.31
G0 F7200 X53.653 Y59.09
G0 X52.073 Y59.09
G0 X52.073 Y59.24
G1 F3600 X59.24 Y52.073 E105.4146
G1 X59.31 Y52.003
G0 F7200 X59.09 Y52.003
G0 X59.09 Y47.926
G0 X59.24 Y47.926
G1 F3600 X52.074 Y40.76 E105.47814
G1 X52.004 Y40.69
G0 F7200 X52.004 Y40.91
G0 X53.582 Y40.91
G0 X53.582 Y40.76
G1 F3600 X40.76 Y53.582 E105.59184
G1 X40.69 Y53.652
G0 F7200 X40.91 Y53.652
G0 X40.91 Y52.073
G0 X40.76 Y52.073
G1 F3600 X47.926 Y59.24 E105.65539
G1 X47.996 Y59.31
G0 F7200 X47.996 Y59.09
G0 X46.416 Y59.09
G0 X46.416 Y59.24
G1 F3600 X59.24 Y46.416 E105.7691
G1 X59.31 Y46.346
G0 F7200 X59.09 Y46.346
G0 X59.09 Y42.269
G0 X59.24 Y42.269
G1 F3600 X57.731 Y40.76 E105.78248
G1 X57.661 Y40.69
G0 F7200 X57.661 Y40.91
G0 X59.12 Y40.88
G0 X59.239 Y40.76
G1 F3600 X40.76 Y59.239 E105.94635
G1 X40.69 Y59.309
G0 F7200 X40.88 Y59.12
G0 X40.91 Y57.73
G0 X40.76 Y57.73
G1 F3600 X42.269 Y59.24 E105.95973
G1 X42.339 Y59.31
G0 F7200 X42.339 Y59.09
G0 X40.91 Y42.268
G0 X40.76 Y42.268
G1 F3600 X42.269 Y40.76 E105.97311
G1 X42.339 Y40.69
G0 F7200 X42.339 Y40.91
G0 X59.12 Y59.12
G0 X59.4 Y59.4
;TYPE:WALL-INNER
G1 F3600 X59.4 Y40.6 E106.09099
G1 X40.6 Y40.6 E106.20887
G1 X40.6 Y59.4 E106.32675
G1 X59.4 Y59.4 E106.44462
G0 F7200 X59.8 Y59.8
;TYPE:WALL-OUTER
G1 F1800 X59.8 Y40.2 E106.56752
G1 X40.2 Y40.2 E106.69042
G1 X40.2 Y59.8 E106.81331
G1 X59.8 Y59.8 E106.93621
G0 F7200 X59.8 Y59.6
G0 X58.79 Y58.908
;MESH:NONMESH
G0 F600 X58.79 Y58.908 Z2.9
G0 F7200 X40.88 Y40.88
G0 X40.76 Y40.76
;TIME_ELAPSED:448.210861
;LAYER:26
;TYPE:FILL
;MESH:20mm cube.stl
G1 F3600 X59.24 Y59.24 E107.10008
G1 X59.31 Y59.31
G0 F7200 X59.12 Y59.12
G0 X57.73 Y59.09
G0 X57.73 Y59.24
G1 F3600 X59.24 Y57.73 E107.11347
G1 X59.31 Y57.66
G0 F7200 X59.09 Y57.66
G0 X59.09 Y53.583
G0 X59.24 Y53.583
G1 F3600 X46.417 Y40.76 E107.22717
G1 X46.347 Y40.69
G0 F7200 X46.347 Y40.91
G0 X47.926 Y40.91
G0 X47.926 Y40.76
G1 F3600 X40.76 Y47.925 E107.29071
G1 X40.69 Y47.995
G0 F7200 X40.91 Y47.995
G0 X40.91 Y46.417
G0 X40.76 Y46.417
G1 F3600 X53.583 Y59.24 E107.40442
G1 X53.653 Y59.31
G0 F7200 X53.653 Y59.09
G0 X52.073 Y59.09
G0 X52.073 Y59.24
G1 F3600 X59.24 Y52.073 E107.46797
G1 X59.31 Y52.003
G0 F7200 X59.09 Y52.003
G0 X59.09 Y47.926
G0 X59.24 Y47.926
G1 F3600 X52.074 Y40.76 E107.53151
G1 X52.004 Y40.69
G0 F7200 X52.004 Y40.91
G0 X53.582 Y40.91
G0 X53.582 Y40.76
G1 F3600 X40.76 Y53.582 E107.64521
G1 X40.69 Y53.652
G0 F7200 X40.91 Y53.652
G0 X40.91 Y52.073
G0 X40.76 Y52.073
G1 F3600 X47.926 Y59.24 E107.70876
G1 X47.996 Y59.31
G0 F7200 X47.996 Y59.09
G0 X46.416 Y59.09
G0 X46.416 Y59.24
G1 F3600 X59.24 Y46.416 E107.82248
G1 X59.31 Y46.346
G0 F7200 X59.09 Y46.346
G0 X59.09 Y42.269
G0 X59.24 Y42.269
G1 F3600 X57.731 Y40.76 E107.83586
G1 X57.661 Y40.69
G0 F7200 X57.661 Y40.91
G0 X59.12 Y40.88
G0 X59.239 Y40.76
G1 F3600 X40.76 Y59.239 E107.99972
G1 X40.69 Y59.309
G0 F7200 X40.88 Y59.12
G0 X40.91 Y57.73
G0 X40.76 Y57.73
G1 F3600 X42.269 Y59.24 E108.0131
G1 X42.339 Y59.31
G0 F7200 X42.339 Y59.09
G0 X40.91 Y42.268
G0 X40.76 Y42.268
G1 F3600 X42.269 Y40.76 E108.02648
G1 X42.339 Y40.69
G0 F7200 X42.339 Y40.91
G0 X59.12 Y59.12
G0 X59.4 Y59.4
;TYPE:WALL-INNER
G1 F3600 X59.4 Y40.6 E108.14436
G1 X40.6 Y40.6 E108.26224
G1 X40.6 Y59.4 E108.38012
G1 X59.4 Y59.4 E108.498
G0 F7200 X59.8 Y59.8
;TYPE:WALL-OUTER
G1 F1800 X59.8 Y40.2 E108.62089
G1 X40.2 Y40.2 E108.74379
G1 X40.2 Y59.8 E108.86668
G1 X59.8 Y59.8 E108.98958
G0 F7200 X59.8 Y59.6
G0 X58.79 Y58.908
;MESH:NONMESH
G0 F600 X58.79 Y58.908 Z3
G0 F7200 X40.88 Y40.88
G0 X40.76 Y40.76
;TIME_ELAPSED:456.605059
;LAYER:27
;TYPE:FILL
;MESH:20mm cube.stl
G1 F3600 X59.24 Y59.24 E109.15345
G1 X59.31 Y59.31
G0 F7200 X59.12 Y59.12
G0 X57.73 Y59.09
G0 X57.73 Y59.24
G1 F3600 X59.24 Y57.73 E109.16684
G1 X59.31 Y57.66
G0 F7200 X59.09 Y57.66
G0 X59.09 Y53.583
G0 X59.24 Y53.583
G1 F3600 X46.417 Y40.76 E109.28054
G1 X46.347 Y40.69
G0 F7200 X46.347 Y40.91
G0 X47.926 Y40.91
G0 X47.926 Y40.76
G1 F3600 X40.76 Y47.925 E109.34408
G1 X40.69 Y47.995
G0 F7200 X40.91 Y47.995
G0 X40.91 Y46.417
G0 X40.76 Y46.417
G1 F3600 X53.583 Y59.24 E109.45779
G1 X53.653 Y59.31
G0 F7200 X53.653 Y59.09
G0 X52.073 Y59.09
G0 X52.073 Y59.24
G1 F3600 X59.24 Y52.073 E109.52134
G1 X59.31 Y52.003
G0 F7200 X59.09 Y52.003
G0 X59.09 Y47.926
G0 X59.24 Y47.926
G1 F3600 X52.074 Y40.76 E109.58489
G1 X52.004 Y40.69
G0 F7200 X52.004 Y40.91
G0 X53.582 Y40.91
G0 X53.582 Y40.76
G1 F3600 X40.76 Y53.582 E109.69858
G1 X40.69 Y53.652
G0 F7200 X40.91 Y53.652
G0 X40.91 Y52.073
G0 X40.76 Y52.073
G1 F3600 X47.926 Y59.24 E109.76213
G1 X47.996 Y59.31
G0 F7200 X47.996 Y59.09
G0 X46.416 Y59.09
G0 X46.416 Y59.24
G1 F3600 X59.24 Y46.416 E109.87585
G1 X59.31 Y46.346
G0 F7200 X59.09 Y46.346
G0 X59.09 Y42.269
G0 X59.24 Y42.269
G1 F3600 X57.731 Y40.76 E109.88923
G1 X57.661 Y40.69
G0 F7200 X57.661 Y40.91
G0 X59.12 Y40.88
G0 X59.239 Y40.76
G1 F3600 X40.76 Y59.239 E110.05309
G1 X40.69 Y59.309
G0 F7200 X40.88 Y59.12
G0 X40.91 Y57.73
G0 X40.76 Y57.73
G1 F3600 X42.269 Y59.24 E110.06647
G1 X42.339 Y59.31
G0 F7200 X42.339 Y59.09
G0 X40.91 Y42.268
G0 X40.76 Y42.268
G1 F3600 X42.269 Y40.76 E110.07985
G1 X42.339 Y40.69
G0 F7200 X42.339 Y40.91
G0 X59.12 Y59.12
G0 X59.4 Y59.4
;TYPE:WALL-INNER
G1 F3600 X59.4 Y40.6 E110.19773
G1 X40.6 Y40.6 E110.31561
G1 X40.6 Y59.4 E110.43349
G1 X59.4 Y59.4 E110.55137
G0 F7200 X59.8 Y59.8
;TYPE:WALL-OUTER
G1 F1800 X59.8 Y40.2 E110.67426
G1 X40.2 Y40.2 E110.79716
G1 X40.2 Y59.8 E110.92006
G1 X59.8 Y59.8 E111.04295
G0 F7200 X59.8 Y59.6
G0 X58.79 Y58.908
;MESH:NONMESH
G0 F600 X58.79 Y58.908 Z3.1
G0 F7200 X40.88 Y40.88
G0 X40.76 Y40.76
;TIME_ELAPSED:464.999256
;LAYER:28
;TYPE:FILL
;MESH:20mm cube.stl
G1 F3600 X59.24 Y59.24 E111.20682
G1 X59.31 Y59.31
G0 F7200 X59.12 Y59.12
G0 X57.73 Y59.09
G0 X57.73 Y59.24
G1 F3600 X59.24 Y57.73 E111.22021
G1 X59.31 Y57.66
G0 F7200 X59.09 Y57.66
G0 X59.09 Y53.583
G0 X59.24 Y53.583
G1 F3600 X46.417 Y40.76 E111.33392
G1 X46.347 Y40.69
G0 F7200 X46.347 Y40.91
G0 X47.926 Y40.91
G0 X47.926 Y40.76
G1 F3600 X40.76 Y47.925 E111.39746
G1 X40.69 Y47.995
G0 F7200 X40.91 Y47.995
G0 X40.91 Y46.417
G0 X40.76 Y46.417
G1 F3600 X53.583 Y59.24 E111.51116
G1 X53.653 Y59.31
G0 F7200 X53.653 Y59.09
G0 X52.073 Y59.09
G0 X52.073 Y59.24
G1 F3600 X59.24 Y52.073 E111.57471
G1 X59.31 Y52.003
G0 F7200 X59.09 Y52.003
G0 X59.09 Y47.926
G0 X59.24 Y47.926
G1 F3600 X52.074 Y40.76 E111.63826
G1 X52.004 Y40.69
G0 F7200 X52.004 Y40.91
G0 X53.582 Y40.91
G0 X53.582 Y40.76
G1 F3600 X40.76 Y53.582 E111.75196
G1 X40.69 Y53.652
G0 F7200 X40.91 Y53.652
G0 X40.91 Y52.073
G0 X40.76 Y52.073
G1 F3600 X47.926 Y59.24 E111.8155
G1 X47.996 Y59.31
G0 F7200 X47.996 Y59.09
G0 X46.416 Y59.09
G0 X46.416 Y59.24
G1 F3600 X59.24 Y46.416 E111.92922
G1 X59.31 Y46.346
G0 F7200 X59.09 Y46.346
G0 X59.09 Y42.269
G0 X59.24 Y42.269
G1 F3600 X57.731 Y40.76 E111.9426
G1 X57.661 Y40.69
G0 F7200 X57.661 Y40.91
G0 X59.12 Y40.88
G0 X59.239 Y40.76
G1 F3600 X40.76 Y59.239 E112.10646
G1 X40.69 Y59.309
G0 F7200 X40.88 Y59.12
G0 X40.91 Y57.73
G0 X40.76 Y57.73
G1 F3600 X42.269 Y59.24 E112.11985
G1 X42.339 Y59.31
G0 F7200 X42.339 Y59.09
G0 X40.91 Y42.268
G0 X40.76 Y42.268
G1 F3600 X42.269 Y40.76 E112.13322
G1 X42.339 Y40.69
G0 F7200 X42.339 Y40.91
G0 X59.12 Y59.12
G0 X59.4 Y59.4
;TYPE:WALL-INNER
G1 F3600 X59.4 Y40.6 E112.2511
G1 X40.6 Y40.6 E112.36898
G1 X40.6 Y59.4 E112.48686
G1 X59.4 Y59.4 E112.60474
G0 F7200 X59.8 Y59.8
;TYPE:WALL-OUTER
G1 F1800 X59.8 Y40.2 E112.72764
G1 X40.2 Y40.2 E112.85053
G1 X40.2 Y59.8 E112.97343
G1 X59.8 Y59.8 E113.09632
G0 F7200 X59.8 Y59.6
G0 X58.79 Y58.908
;MESH:NONMESH
G0 F600 X58.79 Y58.908 Z3.2
G0 F7200 X40.88 Y40.88
G0 X40.76 Y40.76
;TIME_ELAPSED:473.393454
;LAYER:29
;TYPE:FILL
;MESH:20mm cube.stl
G1 F3600 X59.24 Y59.24 E113.26019
G1 X59.31 Y59.31
G0 F7200 X59.12 Y59.12
G0 X57.73 Y59.09
G0 X57.73 Y59.24
G1 F3600 X59.24 Y57.73 E113.27358
G1 X59.31 Y57.66
G0 F7200 X59.09 Y57.66
G0 X59.09 Y53.583
G0 X59.24 Y53.583
G1 F3600 X46.417 Y40.76 E113.38729
G1 X46.347 Y40.69
G0 F7200 X46.347 Y40.91
G0 X47.926 Y40.91
G0 X47.926 Y40.76
G1 F3600 X40.76 Y47.925 E113.45083
G1 X40.69 Y47.995
G0 F7200 X40.91 Y47.995
G0 X40.91 Y46.417
G0 X40.76 Y46.417
G1 F3600 X53.583 Y59.24 E113.56453
G1 X53.653 Y59.31
G0 F7200 X53.653 Y59.09
G0 X52.073 Y59.09
G0 X52.073 Y59.24
G1 F3600 X59.24 Y52.073 E113.62809
G1 X59.31 Y52.003
G0 F7200 X59.09 Y52.003
G0 X59.09 Y47.926
G0 X59.24 Y47.926
G1 F3600 X52.074 Y40.76 E113.69163
G1 X52.004 Y40.69
G0 F7200 X52.004 Y40.91
G0 X53.582 Y40.91
G0 X53.582 Y40.76
G1 F3600 X40.76 Y53.582 E113.80533
G1 X40.69 Y53.652
G0 F7200 X40.91 Y53.652
G0 X40.91 Y52.073
G0 X40.76 Y52.073
G1 F3600 X47.926 Y59.24 E113.86888
G1 X47.996 Y59.31
G0 F7200 X47.996 Y59.09
G0 X46.416 Y59.09
G0 X46.416 Y59.24
G1 F3600 X59.24 Y46.416 E113.98259
G1 X59.31 Y46.346
G0 F7200 X59.09 Y46.346
G0 X59.09 Y42.269
G0 X59.24 Y42.269
G1 F3600 X57.731 Y40.76 E113.99597
G1 X57.661 Y40.69
G0 F7200 X57.661 Y40.91
G0 X59.12 Y40.88
G0 X59.239 Y40.76
G1 F3600 X40.76 Y59.239 E114.15983
G1 X40.69 Y59.309
G0 F7200 X40.88 Y59.12
G0 X40.91 Y57.73
G0 X40.76 Y57.73
G1 F3600 X42.269 Y59.24 E114.17322
G1 X42.339 Y59.31
G0 F7200 X42.339 Y59.09
G0 X40.91 Y42.268
G0 X40.76 Y42.268
G1 F3600 X42.269 Y40.76 E114.18659
G1 X42.339 Y40.69
G0 F7200 X42.339 Y40.91
G0 X59.12 Y59.12
G0 X59.4 Y59.4
;TYPE:WALL-INNER
G1 F3600 X59.4 Y40.6 E114.30447
G1 X40.6 Y40.6 E114.42235
G1 X40.6 Y59.4 E114.54023
G1 X59.4 Y59.4 E114.65811
G0 F7200 X59.8 Y59.8
;TYPE:WALL-OUTER
G1 F1800 X59.8 Y40.2 E114.78101
G1 X40.2 Y40.2 E114.9039
G1 X40.2 Y59.8 E115.0268
G1 X59.8 Y59.8 E115.14969
G0 F7200 X59.8 Y59.6
G0 X58.79 Y58.908
;MESH:NONMESH
G0 F600 X58.79 Y58.908 Z3.3
G0 F7200 X40.88 Y40.88
G0 X40.76 Y40.76
;TIME_ELAPSED:481.787652
;LAYER:30
;TYPE:FILL
;MESH:20mm cube.stl
G1 F3600 X59.24 Y59.24 E115.31356
G1 X59.31 Y59.31
G0 F7200 X59.12 Y59.12
G0 X57.73 Y59.09
G0 X57.73 Y59.24
G1 F3600 X59.24 Y57.73 E115.32695
G1 X59.31 Y57.66
G0 F7200 X59.09 Y57.66
G0 X59.09 Y53.583
G0 X59.24 Y53.583
G1 F3600 X46.417 Y40.76 E115.44066
G1 X46.347 Y40.69
G0 F7200 X46.347 Y40.91
G0 X47.926 Y40.91
G0 X47.926 Y40.76
G1 F3600 X40.76 Y47.925 E115.5042
G1 X40.69 Y47.995
G0 F7200 X40.91 Y47.995
G0 X40.91 Y46.417
G0 X40.76 Y46.417
G1 F3600 X53.583 Y59.24 E115.61791
G1 X53.653 Y59.31
G0 F7200 X53.653 Y59.09
G0 X52.073 Y59.09
G0 X52.073 Y59.24
G1 F3600 X59.24 Y52.073 E115.68146
G1 X59.31 Y52.003
G0 F7200 X59.09 Y52.003
G0 X59.09 Y47.926
G0 X59.24 Y47.926
G1 F3600 X52.074 Y40.76 E115.745
G1 X52.004 Y40.69
G0 F7200 X52.004 Y40.91
G0 X53.582 Y40.91
G0 X53.582 Y40.76
G1 F3600 X40.76 Y53.582 E115.8587
G1 X40.69 Y53.652
G0 F7200 X40.91 Y53.652
G0 X40.91 Y52.073
G0 X40.76 Y52.073
G1 F3600 X47.926 Y59.24 E115.92225
G1 X47.996 Y59.31
G0 F7200 X47.996 Y59.09
G0 X46.416 Y59.09
G0 X46.416 Y59.24
G1 F3600 X59.24 Y46.416 E116.03596
G1 X59.31 Y46.346
G0 F7200 X59.09 Y46.346
G0 X59.09 Y42.269
G0 X59.24 Y42.269
G1 F3600 X57.731 Y40.76 E116.04934
G1 X57.661 Y40.69
G0 F7200 X57.661 Y40.91
G0 X59.12 Y40.88
G0 X59.239 Y40.76
G1 F3600 X40.76 Y59.239 E116.2132
G1 X40.69 Y59.309
G0 F7200 X40.88 Y59.12
G0 X40.91 Y57.73
G0 X40.76 Y57.73
G1 F3600 X42.269 Y59.24 E116.22659
G1 X42.339 Y59.31
G0 F7200 X42.339 Y59.09
G0 X40.91 Y42.268
G0 X40.76 Y42.268
G1 F3600 X42.269 Y40.76 E116.23997
G1 X42.339 Y40.69
G0 F7200 X42.339 Y40.91
G0 X59.12 Y59.12
G0 X59.4 Y59.4
;TYPE:WALL-INNER
G1 F3600 X59.4 Y40.6 E116.35784
G1 X40.6 Y40.6 E116.47572
G1 X40.6 Y59.4 E116.5936
G1 X59.4 Y59.4 E116.71148
G0 F7200 X59.8 Y59.8
;TYPE:WALL-OUTER
G1 F1800 X59.8 Y40.2 E116.83438
G1 X40.2 Y40.2 E116.95727
G1 X40.2 Y59.8 E117.08017
G1 X59.8 Y59.8 E117.20307
G0 F7200 X59.8 Y59.6
G0 X58.79 Y58.908
;MESH:NONMESH
G0 F600 X58.79 Y58.908 Z3.4
G0 F7200 X40.88 Y40.88
G0 X40.76 Y40.76
;TIME_ELAPSED:490.181849
;LAYER:31
;TYPE:FILL
;MESH:20mm cube.stl
G1 F3600 X59.24 Y59.24 E117.36693
G1 X59.31 Y59.31
G0 F7200 X59.12 Y59.12
G0 X57.73 Y59.09
G0 X57.73 Y59.24
G1 F3600 X59.24 Y57.73 E117.38032
G1 X59.31 Y57.66
G0 F7200 X59.09 Y57.66
G0 X59.09 Y53.583
G0 X59.24 Y53.583
G1 F3600 X46.417 Y40.76 E117.49403
G1 X46.347 Y40.69
G0 F7200 X46.347 Y40.91
G0 X47.926 Y40.91
G0 X47.926 Y40.76
G1 F3600 X40.76 Y47.925 E117.55757
G1 X40.69 Y47.995
G0 F7200 X40.91 Y47.995
G0 X40.91 Y46.417
G0 X40.76 Y46.417
G1 F3600 X53.583 Y59.24 E117.67128
G1 X53.653 Y59.31
G0 F7200 X53.653 Y59.09
G0 X52.073 Y59.09
G0 X52.073 Y59.24
G1 F3600 X59.24 Y52.073 E117.73483
G1 X59.31 Y52.003
G0 F7200 X59.09 Y52.003
G0 X59.09 Y47.926
G0 X59.24 Y47.926
G1 F3600 X52.074 Y40.76 E117.79837
G1 X52.004 Y40.69
G0 F7200 X52.004 Y40.91
G0 X53.582 Y40.91
G0 X53.582 Y40.76
G1 F3600 X40.76 Y53.582 E117.91207
G1 X40.69 Y53.652
G0 F7200 X40.91 Y53.652
G0 X40.91 Y52.073
G0 X40.76 Y52.073
G1 F3600 X47.926 Y59.24 E117.97562
G1 X47.996 Y59.31
G0 F7200 X47.996 Y59.09
G0 X46.416 Y59.09
G0 X46.416 Y59.24
G1 F3600 X59.24 Y46.416 E118.08933
G1 X59.31 Y46.346
G0 F7200 X59.09 Y46.346
G0 X59.09 Y42.269
G0 X59.24 Y42.269
G1 F3600 X57.731 Y40.76 E118.10271
G1 X57.661 Y40.69
G0 F7200 X57.661 Y40.91
G0 X59.12 Y40.88
G0 X59.239 Y40.76
G1 F3600 X40.76 Y59.239 E118.26658
G1 X40.69 Y59.309
G0 F7200 X40.88 Y59.12
G0 X40.91 Y57.73
G0 X40.76 Y57.73
G1 F3600 X42.269 Y59.24 E118.27996
G1 X42.339 Y59.31
G0 F7200 X42.339 Y59.09
G0 X40.91 Y42.268
G0 X40.76 Y42.268
G1 F3600 X42.269 Y40.76 E118.29334
G1 X42.339 Y40.69
G0 F7200 X42.339 Y40.91
G0 X59.12 Y59.12
G0 X59.4 Y59.4
;TYPE:WALL-INNER
G1 F3600 X59.4 Y40.6 E118.41122
G1 X40.6 Y40.6 E118.5291
G1 X40.6 Y59.4 E118.64698
G1 X59.4 Y59.4 E118.76485
G0 F7200 X59.8 Y59.8
;TYPE:WALL-OUTER
G1 F1800 X59.8 Y40.2 E118.88775
G1 X40.2 Y40.2 E119.01065
G1 X40.2 Y59.8 E119.13354
G1 X59.8 Y59.8 E119.25644
G0 F7200 X59.8 Y59.6
G0 X58.79 Y58.908
;MESH:NONMESH
G0 F600 X58.79 Y58.908 Z3.5
G0 F7200 X40.88 Y40.88
G0 X40.76 Y40.76
;TIME_ELAPSED:498.576047
;LAYER:32
;TYPE:FILL
;MESH:20mm cube.stl
G1 F3600 X59.24 Y59.24 E119.42031
G1 X59.31 Y59.31
G0 F7200 X59.12 Y59.12
G0 X57.73 Y59.09
G0 X57.73 Y59.24
G1 F3600 X59.24 Y57.73 E119.4337
G1 X59.31 Y57.66
G0 F7200 X59.09 Y57.66
G0 X59.09 Y53.583
G0 X59.24 Y53.583
G1 F3600 X46.417 Y40.76 E119.5474
G1 X46.347 Y40.69
G0 F7200 X46.347 Y40.91
G0 X47.926 Y40.91
G0 X47.926 Y40.76
G1 F3600 X40.76 Y47.925 E119.61094
G1 X40.69 Y47.995
G0 F7200 X40.91 Y47.995
G0 X40.91 Y46.417
G0 X40.76 Y46.417
G1 F3600 X53.583 Y59.24 E119.72465
G1 X53.653 Y59.31
G0 F7200 X53.653 Y59.09
G0 X52.073 Y59.09
G0 X52.073 Y59.24
G1 F3600 X59.24 Y52.073 E119.7882
G1 X59.31 Y52.003
G0 F7200 X59.09 Y52.003
G0 X59.09 Y47.926
G0 X59.24 Y47.926
G1 F3600 X52.074 Y40.76 E119.85174
G1 X52.004 Y40.69
G0 F7200 X52.004 Y40.91
G0 X53.582 Y40.91
G0 X53.582 Y40.76
G1 F3600 X40.76 Y53.582 E119.96544
G1 X40.69 Y53.652
G0 F7200 X40.91 Y53.652
G0 X40.91 Y52.073
G0 X40.76 Y52.073
G1 F3600 X47.926 Y59.24 E120.02899
G1 X47.996 Y59.31
G0 F7200 X47.996 Y59.09
G0 X46.416 Y59.09
G0 X46.416 Y59.24
G1 F3600 X59.24 Y46.416 E120.14271
G1 X59.31 Y46.346
G0 F7200 X59.09 Y46.346
G0 X59.09 Y42.269
G0 X59.24 Y42.269
G1 F3600 X57.731 Y40.76 E120.15609
G1 X57.661 Y40.69
G0 F7200 X57.661 Y40.91
G0 X59.12 Y40.88
G0 X59.239 Y40.76
G1 F3600 X40.76 Y59.239 E120.31995
G1 X40.69 Y59.309
G0 F7200 X40.88 Y59.12
G0 X40.91 Y57.73
G0 X40.76 Y57.73
G1 F3600 X42.269 Y59.24 E120.33333
G1 X42.339 Y59.31
G0 F7200 X42.339 Y59.09
G0 X40.91 Y42.268
G0 X40.76 Y42.268
G1 F3600 X42.269 Y40.76 E120.34671
G1 X42.339 Y40.69
G0 F7200 X42.339 Y40.91
G0 X59.12 Y59.12
G0 X59.4 Y59.4
;TYPE:WALL-INNER
G1 F3600 X59.4 Y40.6 E120.46459
G1 X40.6 Y40.6 E120.58247
G1 X40.6 Y59.4 E120.70035
G1 X59.4 Y59.4 E120.81823
G0 F7200 X59.8 Y59.8
;TYPE:WALL-OUTER
G1 F1800 X59.8 Y40.2 E120.94112
G1 X40.2 Y40.2 E121.06402
G1 X40.2 Y59.8 E121.18691
G1 X59.8 Y59.8 E121.30981
G0 F7200 X59.8 Y59.6
G0 X58.79 Y58.908
;MESH:NONMESH
G0 F600 X58.79 Y58.908 Z3.6
G0 F7200 X40.88 Y40.88
G0 X40.76 Y40.76
;TIME_ELAPSED:506.970245
;LAYER:33
;TYPE:FILL
;MESH:20mm cube.stl
G1 F3600 X59.24 Y59.24 E121.47368
G1 X59.31 Y59.31
G0 F7200 X59.12 Y59.12
G0 X57.73 Y59.09
G0 X57.73 Y59.24
G1 F3600 X59.24 Y57.73 E121.48707
G1 X59.31 Y57.66
G0 F7200 X59.09 Y57.66
G0 X59.09 Y53.583
G0 X59.24 Y53.583
G1 F3600 X46.417 Y40.76 E121.60077
G1 X46.347 Y40.69
G0 F7200 X46.347 Y40.91
G0 X47.926 Y40.91
G0 X47.926 Y40.76
G1 F3600 X40.76 Y47.925 E121.66431
G1 X40.69 Y47.995
G0 F7200 X40.91 Y47.995
G0 X40.91 Y46.417
G0 X40.76 Y46.417
G1 F3600 X53.583 Y59.24 E121.77802
G1 X53.653 Y59.31
G0 F7200 X53.653 Y59.09
G0 X52.073 Y59.09
G0 X52.073 Y59.24
G1 F3600 X59.24 Y52.073 E121.84157
G1 X59.31 Y52.003
G0 F7200 X59.09 Y52.003
G0 X59.09 Y47.926
G0 X59.24 Y47.926
G1 F3600 X52.074 Y40.76 E121.90512
G1 X52.004 Y40.69
G0 F7200 X52.004 Y40.91
G0 X53.582 Y40.91
G0 X53.582 Y40.76
G1 F3600 X40.76 Y53.582 E122.01881
G1 X40.69 Y53.652
G0 F7200 X40.91 Y53.652
G0 X40.91 Y52.073
G0 X40.76 Y52.073
G1 F3600 X47.926 Y59.24 E122.08236
G1 X47.996 Y59.31
G0 F7200 X47.996 Y59.09
G0 X46.416 Y59.09
G0 X46.416 Y59.24
G1 F3600 X59.24 Y46.416 E122.19608
G1 X59.31 Y46.346
G0 F7200 X59.09 Y46.346
G0 X59.09 Y42.269
G0 X59.24 Y42.269
G1 F3600 X57.731 Y40.76 E122.20946
G1 X57.661 Y40.69
G0 F7200 X57.661 Y40.91
G0 X59.12 Y40.88
G0 X59.239 Y40.76
G1 F3600 X40.76 Y59.239 E122.37332
G1 X40.69 Y59.309
G0 F7200 X40.88 Y59.12
G0 X40.91 Y57.73
G0 X40.76 Y57.73
G1 F3600 X42.269 Y59.24 E122.3867
G1 X42.339 Y59.31
G0 F7200 X42.339 Y59.09
G0 X40.91 Y42.268
G0 X40.76 Y42.268
G1 F3600 X42.269 Y40.76 E122.40008
G1 X42.339 Y40.69
G0 F7200 X42.339 Y40.91
G0 X59.12 Y59.12
G0 X59.4 Y59.4
;TYPE:WALL-INNER
G1 F3600 X59.4 Y40.6 E122.51796
G1 X40.6 Y40.6 E122.63584
G1 X40.6 Y59.4 E122.75372
G1 X59.4 Y59.4 E122.8716
G0 F7200 X59.8 Y59.8
;TYPE:WALL-OUTER
G1 F1800 X59.8 Y40.2 E122.99449
G1 X40.2 Y40.2 E123.11739
G1 X40.2 Y59.8 E123.24028
G1 X59.8 Y59.8 E123.36318
G0 F7200 X59.8 Y59.6
G0 X58.79 Y58.908
;MESH:NONMESH
G0 F600 X58.79 Y58.908 Z3.7
G0 F7200 X40.88 Y40.88
G0 X40.76 Y40.76
;TIME_ELAPSED:515.364443
;LAYER:34
;TYPE:FILL
;MESH:20mm cube.stl
G1 F3600 X59.24 Y59.24 E123.52705
G1 X59.31 Y59.31
G0 F7200 X59.12 Y59.12
G0 X57.73 Y59.09
G0 X57.73 Y59.24
G1 F3600 X59.24 Y57.73 E123.54044
G1 X59.31 Y57.66
G0 F7200 X59.09 Y57.66
G0 X59.09 Y53.583
G0 X59.24 Y53.583
G1 F3600 X46.417 Y40.76 E123.65415
G1 X46.347 Y40.69
G0 F7200 X46.347 Y40.91
G0 X47.926 Y40.91
G0 X47.926 Y40.76
G1 F3600 X40.76 Y47.925 E123.71769
G1 X40.69 Y47.995
G0 F7200 X40.91 Y47.995
G0 X40.91 Y46.417
G0 X40.76 Y46.417
G1 F3600 X53.583 Y59.24 E123.83139
G1 X53.653 Y59.31
G0 F7200 X53.653 Y59.09
G0 X52.073 Y59.09
G0 X52.073 Y59.24
G1 F3600 X59.24 Y52.073 E123.89494
G1 X59.31 Y52.003
G0 F7200 X59.09 Y52.003
G0 X59.09 Y47.926
G0 X59.24 Y47.926
G1 F3600 X52.074 Y40.76 E123.95849
G1 X52.004 Y40.69
G0 F7200 X52.004 Y40.91
G0 X53.582 Y40.91
G0 X53.582 Y40.76
G1 F3600 X40.76 Y53.582 E124.07219
G1 X40.69 Y53.652
G0 F7200 X40.91 Y53.652
G0 X40.91 Y52.073
G0 X40.76 Y52.073
G1 F3600 X47.926 Y59.24 E124.13573
G1 X47.996 Y59.31
G0 F7200 X47.996 Y59.09
G0 X46.416 Y59.09
G0 X46.416 Y59.24
G1 F3600 X59.24 Y46.416 E124.24945
G1 X59.31 Y46.346
G0 F7200 X59.09 Y46.346
G0 X59.09 Y42.269
G0 X59.24 Y42.269
G1 F3600 X57.731 Y40.76 E124.26283
G1 X57.661 Y40.69
G0 F7200 X57.661 Y40.91
G0 X59.12 Y40.88
G0 X59.239 Y40.76
G1 F3600 X40.76 Y59.239 E124.42669
G1 X40.69 Y59.309
G0 F7200 X40.88 Y59.12
G0 X40.91 Y57.73
G0 X40.76 Y57.73
G1 F3600 X42.269 Y59.24 E124.44008
G1 X42.339 Y59.31
G0 F7200 X42.339 Y59.09
G0 X40.91 Y42.268
G0 X40.76 Y42.268
G1 F3600 X42.269 Y40.76 E124.45345
G1 X42.339 Y40.69
G0 F7200 X42.339 Y40.91
G0 X59.12 Y59.12
G0 X59.4 Y59.4
;TYPE:WALL-INNER
G1 F3600 X59.4 Y40.6 E124.57133
G1 X40.6 Y40.6 E124.68921
G1 X40.6 Y59.4 E124.80709
G1 X59.4 Y59.4 E124.92497
G0 F7200 X59.8 Y59.8
;TYPE:WALL-OUTER
G1 F1800 X59.8 Y40.2 E125.04787
G1 X40.2 Y40.2 E125.17076
G1 X40.2 Y59.8 E125.29366
G1 X59.8 Y59.8 E125.41655
G0 F7200 X59.8 Y59.6
G0 X58.79 Y58.908
;MESH:NONMESH
G0 F600 X58.79 Y58.908 Z3.8
G0 F7200 X40.88 Y40.88
G0 X40.76 Y40.76
;TIME_ELAPSED:523.758640
;LAYER:35
;TYPE:FILL
;MESH:20mm cube.stl
G1 F3600 X59.24 Y59.24 E125.58042
G1 X59.31 Y59.31
G0 F7200 X59.12 Y59.12
G0 X57.73 Y59.09
G0 X57.73 Y59.24
G1 F3600 X59.24 Y57.73 E125.59381
G1 X59.31 Y57.66
G0 F7200 X59.09 Y57.66
G0 X59.09 Y53.583
G0 X59.24 Y53.583
G1 F3600 X46.417 Y40.76 E125.70752
G1 X46.347 Y40.69
G0 F7200 X46.347 Y40.91
G0 X47.926 Y40.91
G0 X47.926 Y40.76
G1 F3600 X40.76 Y47.925 E125.77106
G1 X40.69 Y47.995
G0 F7200 X40.91 Y47.995
G0 X40.91 Y46.417
G0 X40.76 Y46.417
G1 F3600 X53.583 Y59.24 E125.88476
G1 X53.653 Y59.31
G0 F7200 X53.653 Y59.09
G0 X52.073 Y59.09
G0 X52.073 Y59.24
G1 F3600 X59.24 Y52.073 E125.94832
G1 X59.31 Y52.003
G0 F7200 X59.09 Y52.003
G0 X59.09 Y47.926
G0 X59.24 Y47.926
G1 F3600 X52.074 Y40.76 E126.01186
G1 X52.004 Y40.69
G0 F7200 X52.004 Y40.91
G0 X53.582 Y40.91
G0 X53.582 Y40.76
G1 F3600 X40.76 Y53.582 E126.12556
G1 X40.69 Y53.652
G0 F7200 X40.91 Y53.652
G0 X40.91 Y52.073
G0 X40.76 Y52.073
G1 F3600 X47.926 Y59.24 E126.18911
G1 X47.996 Y59.31
G0 F7200 X47.996 Y59.09
G0 X46.416 Y59.09
G0 X46.416 Y59.24
G1 F3600 X59.24 Y46.416 E126.30282
G1 X59.31 Y46.346
G0 F7200 X59.09 Y46.346
G0 X59.09 Y42.269
G0 X59.24 Y42.269
G1 F3600 X57.731 Y40.76 E126.3162
G1 X57.661 Y40.69
G0 F7200 X57.661 Y40.91
G0 X59.12 Y40.88
G0 X59.239 Y40.76
G1 F3600 X40.76 Y59.239 E126.48006
G1 X40.69 Y59.309
G0 F7200 X40.88 Y59.12
G0 X40.91 Y57.73
G0 X40.76 Y57.73
G1 F3600 X42.269 Y59.24 E126.49345
G1 X42.339 Y59.31
G0 F7200 X42.339 Y59.09
G0 X40.91 Y42.268
G0 X40.76 Y42.268
G1 F3600 X42.269 Y40.76 E126.50682
G1 X42.339 Y40.69
G0 F7200 X42.339 Y40.91
G0 X59.12 Y59.12
G0 X59.4 Y59.4
;TYPE:WALL-INNER
G1 F3600 X59.4 Y40.6 E126.6247
G1 X40.6 Y40.6 E126.74258
G1 X40.6 Y59.4 E126.86046
G1 X59.4 Y59.4 E126.97834
G0 F7200 X59.8 Y59.8
;TYPE:WALL-OUTER
G1 F1800 X59.8 Y40.2 E127.10124
G1 X40.2 Y40.2 E127.22413
G1 X40.2 Y59.8 E127.34703
G1 X59.8 Y59.8 E127.46992
G0 F7200 X59.8 Y59.6
G0 X58.79 Y58.908
;MESH:NONMESH
G0 F600 X58.79 Y58.908 Z3.9
G0 F7200 X40.88 Y40.88
G0 X40.76 Y40.76
;TIME_ELAPSED:532.152838
;LAYER:36
;TYPE:FILL
;MESH:20mm cube.stl
G1 F3600 X59.24 Y59.24 E127.63379
G1 X59.31 Y59.31
G0 F7200 X59.12 Y59.12
G0 X57.73 Y59.09
G0 X57.73 Y59.24
G1 F3600 X59.24 Y57.73 E127.64718
G1 X59.31 Y57.66
G0 F7200 X59.09 Y57.66
G0 X59.09 Y53.583
G0 X59.24 Y53.583
G1 F3600 X46.417 Y40.76 E127.76089
G1 X46.347 Y40.69
G0 F7200 X46.347 Y40.91
G0 X47.926 Y40.91
G0 X47.926 Y40.76
G1 F3600 X40.76 Y47.925 E127.82443
G1 X40.69 Y47.995
G0 F7200 X40.91 Y47.995
G0 X40.91 Y46.417
G0 X40.76 Y46.417
G1 F3600 X53.583 Y59.24 E127.93813
G1 X53.653 Y59.31
G0 F7200 X53.653 Y59.09
G0 X52.073 Y59.09
G0 X52.073 Y59.24
G1 F3600 X59.24 Y52.073 E128.00169
G1 X59.31 Y52.003
G0 F7200 X59.09 Y52.003
G0 X59.09 Y47.926
G0 X59.24 Y47.926
G1 F3600 X52.074 Y40.76 E128.06523
G1 X52.004 Y40.69
G0 F7200 X52.004 Y40.91
G0 X53.582 Y40.91
G0 X53.582 Y40.76
G1 F3600 X40.76 Y53.582 E128.17893
G1 X40.69 Y53.652
G0 F7200 X40.91 Y53.652
G0 X40.91 Y52.073
G0 X40.76 Y52.073
G1 F3600 X47.926 Y59.24 E128.24248
G1 X47.996 Y59.31
G0 F7200 X47.996 Y59.09
G0 X46.416 Y59.09
G0 X46.416 Y59.24
G1 F3600 X59.24 Y46.416 E128.35619
G1 X59.31 Y46.346
G0 F7200 X59.09 Y46.346
G0 X59.09 Y42.269
G0 X59.24 Y42.269
G1 F3600 X57.731 Y40.76 E128.36957
G1 X57.661 Y40.69
G0 F7200 X57.661 Y40.91
G0 X59.12 Y40.88
G0 X59.239 Y40.76
G1 F3600 X40.76 Y59.239 E128.53343
G1 X40.69 Y59.309
G0 F7200 X40.88 Y59.12
G0 X40.91 Y57.73
G0 X40.76 Y57.73
G1 F3600 X42.269 Y59.24 E128.54682
G1 X42.339 Y59.31
G0 F7200 X42.339 Y59.09
G0 X40.91 Y42.268
G0 X40.76 Y42.268
G1 F3600 X42.269 Y40.76 E128.56019
G1 X42.339 Y40.69
G0 F7200 X42.339 Y40.91
G0 X59.12 Y59.12
G0 X59.4 Y59.4
;TYPE:WALL-INNER
G1 F3600 X59.4 Y40.6 E128.67807
G1 X40.6 Y40.6 E128.79595
G1 X40.6 Y59.4 E128.91383
G1 X59.4 Y59.4 E129.03171
G0 F7200 X59.8 Y59.8
;TYPE:WALL-OUTER
G1 F1800 X59.8 Y40.2 E129.15461
G1 X40.2 Y40.2 E129.2775
G1 X40.2 Y59.8 E129.4004
G1 X59.8 Y59.8 E129.5233
G0 F7200 X59.8 Y59.6
G0 X58.79 Y58.908
;MESH:NONMESH
G0 F600 X58.79 Y58.908 Z4
G0 F7200 X40.88 Y40.88
G0 X40.76 Y40.76
;TIME_ELAPSED:540.547036
;LAYER:37
;TYPE:FILL
;MESH:20mm cube.stl
G1 F3600 X59.24 Y59.24 E129.68716
G1 X59.31 Y59.31
G0 F7200 X59.12 Y59.12
G0 X57.73 Y59.09
G0 X57.73 Y59.24
G1 F3600 X59.24 Y57.73 E129.70055
G1 X59.31 Y57.66
G0 F7200 X59.09 Y57.66
G0 X59.09 Y53.583
G0 X59.24 Y53.583
G1 F3600 X46.417 Y40.76 E129.81426
G1 X46.347 Y40.69
G0 F7200 X46.347 Y40.91
G0 X47.926 Y40.91
G0 X47.926 Y40.76
